P3
200 100
255
0 0 0 0 0 0 0 0 0 0 0 0 0 0 0 0 0 0 0 0 0 0 0 0 0 0 0 0 0 0 0 0 0 0 0
0 0 0 0 0 0 0 0 0 0 0 0 0 0 0 0 0 0 0 0 0 0 0 0 0 0 0 0 0 0 0 0 0 0 0
0 0 0 0 0 0 0 0 0 0 0 0 0 0 0 0 0 0 0 0 0 0 0 0 0 0 0 0 0 0 0 0 0 0 0
0 0 0 0 0 0 0 0 0 0 0 0 0 0 0 0 0 0 0 0 0 0 0 0 0 0 0 0 0 0 0 0 0 0 0
0 0 0 0 0 0 0 0 0 0 0 0 0 0 0 0 0 0 0 0 0 0 0 0 0 0 0 0 0 0 0 0 0 0 0
0 0 0 0 0 0 0 0 0 0 0 0 0 0 0 0 0 0 0 0 0 0 0 0 0 0 0 0 0 0 0 0 0 0 0
0 0 0 0 0 0 0 0 0 0 0 0 0 0 0 0 0 0 0 0 0 0 0 0 0 0 0 0 0 0 0 0 0 0 0
0 0 0 0 0 0 0 0 0 0 0 0 0 0 0 0 0 0 0 0 0 0 0 0 0 0 0 0 0 0 0 0 0 0 0
0 0 0 0 0 0 0 0 0 0 0 0 0 0 0 0 0 0 0 0 0 0 0 0 0 0 0 0 0 0 0 0 0 0 0
0 0 0 0 0 0 0 0 0 0 0 0 0 0 0 0 0 0 0 0 0 0 0 0 0 0 0 0 0 0 0 0 0 0 0
0 0 0 0 0 0 0 0 0 0 0 0 0 0 0 0 0 0 0 0 0 0 0 0 0 0 0 0 0 0 0 0 0 0 0
0 0 0 0 0 0 0 0 0 0 0 0 0 0 0 0 0 0 0 0 0 0 0 0 0 0 0 0 0 0 0 0 0 0 0
0 0 0 0 0 0 0 0 0 0 0 0 0 0 0 0 0 0 0 0 0 0 0 0 0 0 0 0 0 0 0 0 0 0 0
0 0 0 0 0 0 0 0 0 0 0 0 0 0 0 0 0 0 0 0 0 0 0 0 0 0 0 0 0 0 0 0 0 0 0
0 0 0 0 0 0 0 0 0 0 0 0 0 0 0 0 0 0 0 0 0 0 0 0 0 0 0 0 0 0 0 0 0 0 0
0 0 0 0 0 0 0 0 0 0 0 0 0 0 0 0 0 0 0 0 0 0 0 0 0 0 0 0 0 0 0 0 0 0 0
0 0 0 0 0 0 0 0 0 0 0 0 0 0 0 0 0 0 0 0 0 0 0 0 0 0 0 0 0 0 0 0 0 0 0
0 0 0 0 0
0 0 0 0 0 0 0 0 0 0 0 0 0 0 0 0 0 0 0 0 0 0 0 0 0 0 0 0 0 0 0 0 0 0 0
0 0 0 0 0 0 0 0 0 0 0 0 0 0 0 0 0 0 0 0 0 0 0 0 0 0 0 0 0 0 0 0 0 0 0
0 0 0 0 0 0 0 0 0 0 0 0 0 0 0 0 0 0 0 0 0 0 0 0 0 0 0 0 0 0 0 0 0 0 0
0 0 0 0 0 0 0 0 0 0 0 0 0 0 0 0 0 0 0 0 0 0 0 0 0 0 0 0 0 0 0 0 0 0 0
0 0 0 0 0 0 0 0 0 0 0 0 0 0 0 0 0 0 0 0 0 0 0 0 0 0 0 0 0 0 0 0 0 0 0
0 0 0 0 0 0 0 0 0 0 0 0 0 0 0 0 0 0 0 0 0 0 0 0 0 0 0 0 0 0 0 0 0 0 0
0 0 0 0 0 0 0 0 0 0 0 0 0 0 0 0 0 0 0 0 0 0 0 0 0 0 0 0 0 0 0 0 0 0 0
0 0 0 0 0 0 0 0 0 0 0 0 0 0 0 0 0 0 0 0 0 0 0 0 0 0 0 0 0 0 0 0 0 0 0
0 0 0 0 0 0 0 0 0 0 0 0 0 0 0 0 0 0 0 0 0 0 0 0 0 0 0 0 0 0 0 0 0 0 0
0 0 0 0 0 0 0 0 0 0 0 0 0 0 0 0 0 0 0 0 0 0 0 0 0 0 0 0 0 0 0 0 0 0 0
0 0 0 0 0 0 0 0 0 0 0 0 0 0 0 0 0 0 0 0 0 0 0 0 0 0 0 0 0 0 0 0 0 0 0
0 0 0 0 0 0 0 0 0 0 0 0 0 0 0 0 0 0 0 0 0 0 0 0 0 0 0 0 0 0 0 0 0 0 0
0 0 0 0 0 0 0 0 0 0 0 0 0 0 0 0 0 0 0 0 0 0 0 0 0 0 0 0 0 0 0 0 0 0 0
0 0 0 0 0 0 0 0 0 0 0 0 0 0 0 0 0 0 0 0 0 0 0 0 0 0 0 0 0 0 0 0 0 0 0
0 0 0 0 0 0 0 0 0 0 0 0 0 0 0 0 0 0 0 0 0 0 0 0 0 0 0 0 0 0 0 0 0 0 0
0 0 0 0 0 0 0 0 0 0 0 0 0 0 0 0 0 0 0 0 0 0 0 0 0 0 0 0 0 0 0 0 0 0 0
0 0 0 0 0 0 0 0 0 0 0 0 0 0 0 0 0 0 0 0 0 0 0 0 0 0 0 0 0 0 0 0 0 0 0
0 0 0 0 0
0 0 0 0 0 0 0 0 0 0 0 0 0 0 0 0 0 0 0 0 0 0 0 0 0 0 0 0 0 0 0 0 0 0 0
0 0 0 0 0 0 0 0 0 0 0 0 0 0 0 0 0 0 0 0 0 0 0 0 0 0 0 0 0 0 0 0 0 0 0
0 0 0 0 0 0 0 0 0 0 0 0 0 0 0 0 0 0 0 0 0 0 0 0 0 0 0 0 0 0 0 0 0 0 0
0 0 0 0 0 0 0 0 0 0 0 0 0 0 0 0 0 0 0 0 0 0 0 0 0 0 0 0 0 0 0 0 0 0 0
0 0 0 0 0 0 0 0 0 0 0 0 0 0 0 0 0 0 0 0 0 0 0 0 0 0 0 0 0 0 0 0 0 0 0
0 0 0 0 0 0 0 0 0 0 0 0 0 0 0 0 0 0 0 0 0 0 0 0 0 0 0 0 0 0 0 0 0 0 0
0 0 0 0 0 0 0 0 0 0 0 0 0 0 0 0 0 0 0 0 0 0 0 0 0 0 0 0 0 0 0 0 0 0 0
0 0 0 0 0 0 0 0 0 0 0 0 0 0 0 0 0 0 0 0 0 0 0 0 0 0 0 0 0 0 0 0 0 0 0
0 0 0 0 0 0 0 0 0 0 0 0 0 0 0 0 0 0 0 0 0 0 0 0 0 0 0 0 0 0 0 0 0 0 0
0 0 0 0 0 0 0 0 0 0 0 0 0 0 0 0 0 0 0 0 0 0 0 0 0 0 0 0 0 0 0 0 0 0 0
0 0 0 0 0 0 0 0 0 0 0 0 0 0 0 0 0 0 0 0 0 0 0 0 0 0 0 0 0 0 0 0 0 0 0
0 0 0 0 0 0 0 0 0 0 0 0 0 0 0 0 0 0 0 0 0 0 0 0 0 0 0 0 0 0 0 0 0 0 0
0 0 0 0 0 0 0 0 0 0 0 0 0 0 0 0 0 0 0 0 0 0 0 0 0 0 0 0 0 0 0 0 0 0 0
0 0 0 0 0 0 0 0 0 0 0 0 0 0 0 0 0 0 0 0 0 0 0 0 0 0 0 0 0 0 0 0 0 0 0
0 0 0 0 0 0 0 0 0 0 0 0 0 0 0 0 0 0 0 0 0 0 0 0 0 0 0 0 0 0 0 0 0 0 0
0 0 0 0 0 0 0 0 0 0 0 0 0 0 0 0 0 0 0 0 0 0 0 0 0 0 0 0 0 0 0 0 0 0 0
0 0 0 0 0 0 0 0 0 0 0 0 0 0 0 0 0 0 0 0 0 0 0 0 0 0 0 0 0 0 0 0 0 0 0
0 0 0 0 0
0 0 0 0 0 0 0 0 0 0 0 0 0 0 0 0 0 0 0 0 0 0 0 0 0 0 0 0 0 0 0 0 0 0 0
0 0 0 0 0 0 0 0 0 0 0 0 0 0 0 0 0 0 0 0 0 0 0 0 0 0 0 0 0 0 0 0 0 0 0
0 0 0 0 0 0 0 0 0 0 0 0 0 0 0 0 0 0 0 0 0 0 0 0 0 0 0 0 0 0 0 0 0 0 0
0 0 0 0 0 0 0 0 0 0 0 0 0 0 0 0 0 0 0 0 0 0 0 0 0 0 0 0 0 0 0 0 0 0 0
0 0 0 0 0 0 0 0 0 0 0 0 0 0 0 0 0 0 0 0 0 0 0 0 0 0 0 0 0 0 0 0 0 0 0
0 0 0 0 0 0 0 0 0 0 0 0 0 0 0 0 0 0 0 0 0 0 0 0 0 0 0 0 0 0 0 0 0 0 0
0 0 0 0 0 0 0 0 0 0 0 0 0 0 0 0 0 0 0 0 0 0 0 0 0 0 0 0 0 0 0 0 0 0 0
0 0 0 0 0 0 0 0 0 0 0 0 0 0 0 0 0 0 0 0 0 0 0 0 0 0 0 0 0 0 0 0 0 0 0
0 0 0 0 0 0 0 0 0 0 0 0 0 0 0 0 0 0 0 0 0 0 0 0 0 0 0 0 0 0 0 0 0 0 0
0 0 0 0 0 0 0 0 0 0 0 0 0 0 0 0 0 0 0 0 0 0 0 0 0 0 0 0 0 0 0 0 0 0 0
0 0 0 0 0 0 0 0 0 0 0 0 0 0 0 0 0 0 0 0 0 0 0 0 0 0 0 0 0 0 0 0 0 0 0
0 0 0 0 0 0 0 0 0 0 0 0 0 0 0 0 0 0 0 0 0 0 0 0 0 0 0 0 0 0 0 0 0 0 0
0 0 0 0 0 0 0 0 0 0 0 0 0 0 0 0 0 0 0 0 0 0 0 0 0 0 0 0 0 0 0 0 0 0 0
0 0 0 0 0 0 0 0 0 0 0 0 0 0 0 0 0 0 0 0 0 0 0 0 0 0 0 0 0 0 0 0 0 0 0
0 0 0 0 0 0 0 0 0 0 0 0 0 0 0 0 0 0 0 0 0 0 0 0 0 0 0 0 0 0 0 0 0 0 0
0 0 0 0 0 0 0 0 0 0 0 0 0 0 0 0 0 0 0 0 0 0 0 0 0 0 0 0 0 0 0 0 0 0 0
0 0 0 0 0 0 0 0 0 0 0 0 0 0 0 0 0 0 0 0 0 0 0 0 0 0 0 0 0 0 0 0 0 0 0
0 0 0 0 0
0 0 0 0 0 0 0 0 0 0 0 0 0 0 0 0 0 0 0 0 0 0 0 0 0 0 0 0 0 0 0 0 0 0 0
0 0 0 0 0 0 0 0 0 0 0 0 0 0 0 0 0 0 0 0 0 0 0 0 0 0 0 0 0 0 0 0 0 0 0
0 0 0 0 0 0 0 0 0 0 0 0 0 0 0 0 0 0 0 0 0 0 0 0 0 0 0 0 0 0 0 0 0 0 0
0 0 0 0 0 0 0 0 0 0 0 0 0 0 0 0 0 0 0 0 0 0 0 0 0 0 0 0 0 0 0 0 0 0 0
0 0 0 0 0 0 0 0 0 0 0 0 0 0 0 0 0 0 0 0 0 0 0 0 0 0 0 0 0 0 0 0 0 0 0
0 0 0 0 0 0 0 0 0 0 0 0 0 0 0 0 0 0 0 0 0 0 0 0 0 0 0 0 0 0 0 0 0 0 0
0 0 0 0 0 0 0 0 0 0 0 0 0 0 0 0 0 0 0 0 0 0 0 0 0 0 0 0 0 0 0 0 0 0 0
0 0 0 0 0 0 0 0 0 0 0 0 0 0 0 0 0 0 0 0 0 0 0 0 0 0 0 0 0 0 0 0 0 0 0
0 0 0 0 0 0 0 0 0 0 0 0 0 0 0 0 0 0 0 0 0 0 0 0 0 0 0 0 0 0 0 0 0 0 0
0 0 0 0 0 0 0 0 0 0 0 0 0 0 0 0 0 0 0 0 0 0 0 0 0 0 0 0 0 0 0 0 0 0 0
0 0 0 0 0 0 0 0 0 0 0 0 0 0 0 0 0 0 0 0 0 0 0 0 0 0 0 0 0 0 0 0 0 0 0
0 0 0 0 0 0 0 0 0 0 0 0 0 0 0 0 0 0 0 0 0 0 0 0 0 0 0 0 0 0 0 0 0 0 0
0 0 0 0 0 0 0 0 0 0 0 0 0 0 0 0 0 0 0 0 0 0 0 0 0 0 0 0 0 0 0 0 0 0 0
0 0 0 0 0 0 0 0 0 0 0 0 0 0 0 0 0 0 0 0 0 0 0 0 0 0 0 0 0 0 0 0 0 0 0
0 0 0 0 0 0 0 0 0 0 0 0 0 0 0 0 0 0 0 0 0 0 0 0 0 0 0 0 0 0 0 0 0 0 0
0 0 0 0 0 0 0 0 0 0 0 0 0 0 0 0 0 0 0 0 0 0 0 0 0 0 0 0 0 0 0 0 0 0 0
0 0 0 0 0 0 0 0 0 0 0 0 0 0 0 0 0 0 0 0 0 0 0 0 0 0 0 0 0 0 0 0 0 0 0
0 0 0 0 0
0 0 0 0 0 0 0 0 0 0 0 0 0 0 0 0 0 0 0 0 0 0 0 0 0 0 0 0 0 0 0 0 0 0 0
0 0 0 0 0 0 0 0 0 0 0 0 0 0 0 0 0 0 0 0 0 0 0 0 0 0 0 0 0 0 0 0 0 0 0
0 0 0 0 0 0 0 0 0 0 0 0 0 0 0 0 0 0 0 0 0 0 0 0 0 0 0 0 0 0 0 0 0 0 0
0 0 0 0 0 0 0 0 0 0 0 0 0 0 0 0 0 0 0 0 0 0 0 0 0 0 0 0 0 0 0 0 0 0 0
0 0 0 0 0 0 0 0 0 0 0 0 0 0 0 0 0 0 0 0 0 0 0 0 0 0 0 0 0 0 0 0 0 0 0
0 0 0 0 0 0 0 0 0 0 0 0 0 0 0 0 0 0 0 0 0 0 0 0 0 0 0 0 0 0 0 0 0 0 0
0 0 0 0 0 0 0 0 0 0 0 0 0 0 0 0 0 0 0 0 0 0 0 0 0 0 0 0 0 0 0 0 0 0 0
0 0 0 0 0 0 0 0 0 0 0 0 0 0 0 0 0 0 0 0 0 0 0 0 0 0 0 0 0 0 0 0 0 0 0
0 0 0 0 0 0 0 0 0 0 0 0 0 0 0 0 0 0 0 0 0 0 0 0 0 0 0 0 0 0 0 0 0 0 0
0 0 0 0 0 0 0 0 0 0 0 0 0 0 0 0 0 0 0 0 0 0 0 0 0 0 0 0 0 0 0 0 0 0 0
0 0 0 0 0 0 0 0 0 0 0 0 0 0 0 0 0 0 0 0 0 0 0 0 0 0 0 0 0 0 0 0 0 0 0
0 0 0 0 0 0 0 0 0 0 0 0 0 0 0 0 0 0 0 0 0 0 0 0 0 0 0 0 0 0 0 0 0 0 0
0 0 0 0 0 0 0 0 0 0 0 0 0 0 0 0 0 0 0 0 0 0 0 0 0 0 0 0 0 0 0 0 0 0 0
0 0 0 0 0 0 0 0 0 0 0 0 0 0 0 0 0 0 0 0 0 0 0 0 0 0 0 0 0 0 0 0 0 0 0
0 0 0 0 0 0 0 0 0 0 0 0 0 0 0 0 0 0 0 0 0 0 0 0 0 0 0 0 0 0 0 0 0 0 0
0 0 0 0 0 0 0 0 0 0 0 0 0 0 0 0 0 0 0 0 0 0 0 0 0 0 0 0 0 0 0 0 0 0 0
0 0 0 0 0 0 0 0 0 0 0 0 0 0 0 0 0 0 0 0 0 0 0 0 0 0 0 0 0 0 0 0 0 0 0
0 0 0 0 0
0 0 0 0 0 0 0 0 0 0 0 0 0 0 0 0 0 0 0 0 0 0 0 0 0 0 0 0 0 0 0 0 0 0 0
0 0 0 0 0 0 0 0 0 0 0 0 0 0 0 0 0 0 0 0 0 0 0 0 0 0 0 0 0 0 0 0 0 0 0
0 0 0 0 0 0 0 0 0 0 0 0 0 0 0 0 0 0 0 0 0 0 0 0 0 0 0 0 0 0 0 0 0 0 0
0 0 0 0 0 0 0 0 0 0 0 0 0 0 0 0 0 0 0 0 0 0 0 0 0 0 0 0 0 0 0 0 0 0 0
0 0 0 0 0 0 0 0 0 0 0 0 0 0 0 0 0 0 0 0 0 0 0 0 0 0 0 0 0 0 0 0 0 0 0
0 0 0 0 0 0 0 0 0 0 0 0 0 0 0 0 0 0 0 0 0 0 0 0 0 0 0 0 0 0 0 0 0 0 0
0 0 0 0 0 0 0 0 0 0 0 0 0 0 0 0 0 0 0 0 0 0 0 0 0 0 0 0 0 0 0 0 0 0 0
0 0 0 0 0 0 0 0 0 0 0 0 0 0 0 0 0 0 0 0 0 0 0 0 0 0 0 0 0 0 0 0 0 0 0
0 0 0 0 0 0 0 0 0 0 0 0 0 0 0 0 0 0 0 0 0 0 0 0 0 0 0 0 0 0 0 0 0 0 0
0 0 0 0 0 0 0 0 0 0 0 0 0 0 0 0 0 0 0 0 0 0 0 0 0 0 0 0 0 0 0 0 0 0 0
0 0 0 0 0 0 0 0 0 0 0 0 0 0 0 0 0 0 0 0 0 0 0 0 0 0 0 0 0 0 0 0 0 0 0
0 0 0 0 0 0 0 0 0 0 0 0 0 0 0 0 0 0 0 0 0 0 0 0 0 0 0 0 0 0 0 0 0 0 0
0 0 0 0 0 0 0 0 0 0 0 0 0 0 0 0 0 0 0 0 0 0 0 0 0 0 0 0 0 0 0 0 0 0 0
0 0 0 0 0 0 0 0 0 0 0 0 0 0 0 0 0 0 0 0 0 0 0 0 0 0 0 0 0 0 0 0 0 0 0
0 0 0 0 0 0 0 0 0 0 0 0 0 0 0 0 0 0 0 0 0 0 0 0 0 0 0 0 0 0 0 0 0 0 0
0 0 0 0 0 0 0 0 0 0 0 0 0 0 0 0 0 0 0 0 0 0 0 0 0 0 0 0 0 0 0 0 0 0 0
0 0 0 0 0 0 0 0 0 0 0 0 0 0 0 0 0 0 0 0 0 0 0 0 0 0 0 0 0 0 0 0 0 0 0
0 0 0 0 0
0 0 0 0 0 0 0 0 0 0 0 0 0 0 0 0 0 0 0 0 0 0 0 0 0 0 0 0 0 0 0 0 0 0 0
0 0 0 0 0 0 0 0 0 0 0 0 0 0 0 0 0 0 0 0 0 0 0 0 0 0 0 0 0 0 0 0 0 0 0
0 0 0 0 0 0 0 0 0 0 0 0 0 0 0 0 0 0 0 0 0 0 0 0 0 0 0 0 0 0 0 0 0 0 0
0 0 0 0 0 0 0 0 0 0 0 0 0 0 0 0 0 0 0 0 0 0 0 0 0 0 0 0 0 0 0 0 0 0 0
0 0 0 0 0 0 0 0 0 0 0 0 0 0 0 0 0 0 0 0 0 0 0 0 0 0 0 0 0 0 0 0 0 0 0
0 0 0 0 0 0 0 0 0 0 0 0 0 0 0 0 0 0 0 0 0 0 0 0 0 0 0 0 0 0 0 0 0 0 0
0 0 0 0 0 0 0 0 0 0 0 0 0 0 0 0 0 0 0 0 0 0 0 0 0 0 0 0 0 0 0 0 0 0 0
0 0 0 0 0 0 0 0 0 0 0 0 0 0 0 0 0 0 0 0 0 0 0 0 0 0 0 0 0 0 0 0 0 0 0
0 0 0 0 0 0 0 0 0 0 0 0 0 0 0 0 0 0 0 0 0 0 0 0 0 0 0 0 0 0 0 0 0 0 0
0 0 0 0 0 0 0 0 0 0 0 0 0 0 0 0 0 0 0 0 0 0 0 0 0 0 0 0 0 0 0 0 0 0 0
0 0 0 0 0 0 0 0 0 0 0 0 0 0 0 0 0 0 0 0 0 0 0 0 0 0 0 0 0 0 0 0 0 0 0
0 0 0 0 0 0 0 0 0 0 0 0 0 0 0 0 0 0 0 0 0 0 0 0 0 0 0 0 0 0 0 0 0 0 0
0 0 0 0 0 0 0 0 0 0 0 0 0 0 0 0 0 0 0 0 0 0 0 0 0 0 0 0 0 0 0 0 0 0 0
0 0 0 0 0 0 0 0 0 0 0 0 0 0 0 0 0 0 0 0 0 0 0 0 0 0 0 0 0 0 0 0 0 0 0
0 0 0 0 0 0 0 0 0 0 0 0 0 0 0 0 0 0 0 0 0 0 0 0 0 0 0 0 0 0 0 0 0 0 0
0 0 0 0 0 0 0 0 0 0 0 0 0 0 0 0 0 0 0 0 0 0 0 0 0 0 0 0 0 0 0 0 0 0 0
0 0 0 0 0 0 0 0 0 0 0 0 0 0 0 0 0 0 0 0 0 0 0 0 0 0 0 0 0 0 0 0 0 0 0
0 0 0 0 0
0 0 0 0 0 0 0 0 0 0 0 0 0 0 0 0 0 0 0 0 0 0 0 0 0 0 0 0 0 0 0 0 0 0 0
0 0 0 0 0 0 0 0 0 0 0 0 0 0 0 0 0 0 0 0 0 0 0 0 0 0 0 0 0 0 0 0 0 0 0
0 0 0 0 0 0 0 0 0 0 0 0 0 0 0 0 0 0 0 0 0 0 0 0 0 0 0 0 0 0 0 0 0 0 0
0 0 0 0 0 0 0 0 0 0 0 0 0 0 0 0 0 0 0 0 0 0 0 0 0 0 0 0 0 0 0 0 0 0 0
0 0 0 0 0 0 0 0 0 0 0 0 0 0 0 0 0 0 0 0 0 0 0 0 0 0 0 0 0 0 0 0 0 0 0
0 0 0 0 0 0 0 0 0 0 0 0 0 0 0 0 0 0 0 0 0 0 0 0 0 0 0 0 0 0 0 0 0 0 0
0 0 0 0 0 0 0 0 0 0 0 0 0 0 0 0 0 0 0 0 0 0 0 0 0 0 0 0 0 0 0 0 0 0 0
0 0 0 0 0 0 0 0 0 0 0 0 0 0 0 0 0 0 0 0 0 0 0 0 0 0 0 0 0 0 0 0 0 0 0
0 0 0 0 0 0 0 0 0 0 0 0 0 0 0 0 0 0 0 0 0 0 0 0 0 0 0 0 0 0 0 0 0 0 0
0 0 0 0 0 0 0 0 0 0 0 0 0 0 0 0 0 0 0 0 0 0 0 0 0 0 0 0 0 0 0 0 0 0 0
0 0 0 0 0 0 0 0 0 0 0 0 0 0 0 0 0 0 0 0 0 0 0 0 0 0 0 0 0 0 0 0 0 0 0
0 0 0 0 0 0 0 0 0 0 0 0 0 0 0 0 0 0 0 0 0 0 0 0 0 0 0 0 0 0 0 0 0 0 0
0 0 0 0 0 0 0 0 0 0 0 0 107 38 114 110 39 116 109 39 116 108 38 114
105 37 111 102 36 108 98 35 104 93 33 99 87 31 92 80 28 85 70 25 74 0
0 0 0 0 0 0 0 0 0 0 0 0 0 0 0 0 0 0 0 0 0 0 0 0 0 0 0 0 0 0 0 0 0 0 0
0 0 0 0 0 0 0 0 0 0 0 0 0 0 0 0 0 0 0 0 0 0 0 0 0 0 0 0 0 0 0 0 0 0 0
0 0 0 0 0 0 0 0 0 0 0 0 0 0 0 0 0 0 0 0 0 0 0 0 0 0 0 0 0 0 0 0 0 0 0
0 0 0 0 0 0 0 0 0 0 0 0 0 0 0 0 0 0 0 0 0 0 0 0 0 0 0 0 0
0 0 0 0 0 0 0 0 0 0 0 0 0 0 0 0 0 0 0 0 0 0 0 0 0 0 0 0 0 0 0 0 0 0 0
0 0 0 0 0 0 0 0 0 0 0 0 0 0 0 0 0 0 0 0 0 0 0 0 0 0 0 0 0 0 0 0 0 0 0
0 0 0 0 0 0 0 0 0 0 0 0 0 0 0 0 0 0 0 0 0 0 0 0 0 0 0 0 0 0 0 0 0 0 0
0 0 0 0 0 0 0 0 0 0 0 0 0 0 0 0 0 0 0 0 0 0 0 0 0 0 0 0 0 0 0 0 0 0 0
0 0 0 0 0 0 0 0 0 0 0 0 0 0 0 0 0 0 0 0 0 0 0 0 0 0 0 0 0 0 0 0 0 0 0
0 0 0 0 0 0 0 0 0 0 0 0 0 0 0 0 0 0 0 0 0 0 0 0 0 0 0 0 0 0 0 0 0 0 0
0 0 0 0 0 0 0 0 0 0 0 0 0 0 0 0 0 0 0 0 0 0 0 0 0 0 0 0 0 0 0 0 0 0 0
0 0 0 0 0 0 0 0 0 0 0 0 0 0 0 0 0 0 0 0 0 0 0 0 0 0 0 0 0 0 0 0 0 0 0
0 0 0 0 0 0 0 0 0 0 0 0 0 0 0 0 0 0 0 0 0 0 0 0 0 0 0 0 0 0 0 0 0 0 0
0 0 0 0 0 0 0 0 0 0 0 0 0 0 0 0 0 0 0 0 0 0 0 0 0 0 0 0 0 0 0 0 0 0 0
0 0 0 0 0 0 0 0 0 0 0 0 0 0 0 0 0 0 0 0 0 0 0 0 0 0 0 0 0 0 0 0 0 0 0
0 0 0 0 0 0 0 0 0 0 0 0 0 0 0 0 0 0 0 0 0 0 0 0 0 0 0 0 0 0 0 0 0 0 0
0 0 0 114 40 120 120 42 127 121 43 128 121 43 129 121 43 128 119 42
126 116 41 123 114 40 120 110 39 117 106 38 113 102 36 108 97 34 103
91 32 97 85 30 90 77 27 82 68 24 72 50 18 53 0 0 0 0 0 0 0 0 0 0 0 0 0
0 0 0 0 0 0 0 0 0 0 0 0 0 0 0 0 0 0 0 0 0 0 0 0 0 0 0 0 0 0 0 0 0 0 0
0 0 0 0 0 0 0 0 0 0 0 0 0 0 0 0 0 0 0 0 0 0 0 0 0 0 0 0 0 0 0 0 0 0 0
0 0 0 0 0 0 0 0 0 0 0 0 0 0 0 0 0 0 0 0 0 0 0 0 0 0 0 0 0 0 0 0 0 0 0
0 0 0 0 0 0 0 0
0 0 0 0 0 0 0 0 0 0 0 0 0 0 0 0 0 0 0 0 0 0 0 0 0 0 0 0 0 0 0 0 0 0 0
0 0 0 0 0 0 0 0 0 0 0 0 0 0 0 0 0 0 0 0 0 0 0 0 0 0 0 0 0 0 0 0 0 0 0
0 0 0 0 0 0 0 0 0 0 0 0 0 0 0 0 0 0 0 0 0 0 0 0 0 0 0 0 0 0 0 0 0 0 0
0 0 0 0 0 0 0 0 0 0 0 0 0 0 0 0 0 0 0 0 0 0 0 0 0 0 0 0 0 0 0 0 0 0 0
0 0 0 0 0 0 0 0 0 0 0 0 0 0 0 0 0 0 0 0 0 0 0 0 0 0 0 0 0 0 0 0 0 0 0
0 0 0 0 0 0 0 0 0 0 0 0 0 0 0 0 0 0 0 0 0 0 0 0 0 0 0 0 0 0 0 0 0 0 0
0 0 0 0 0 0 0 0 0 0 0 0 0 0 0 0 0 0 0 0 0 0 0 0 0 0 0 0 0 0 0 0 0 0 0
0 0 0 0 0 0 0 0 0 0 0 0 0 0 0 0 0 0 0 0 0 0 0 0 0 0 0 0 0 0 0 0 0 0 0
0 0 0 0 0 0 0 0 0 0 0 0 0 0 0 0 0 0 0 0 0 0 0 0 0 0 0 0 0 0 0 0 0 0 0
0 0 0 0 0 0 0 0 0 0 0 0 0 0 0 0 0 0 0 0 0 0 0 0 0 0 0 0 0 0 0 0 0 0 0
0 0 0 0 0 0 0 0 0 0 0 0 0 0 0 0 0 0 0 0 0 0 0 0 0 0 0 0 0 0 0 0 0 0 0
0 0 0 0 0 0 0 0 0 0 0 0 0 0 0 0 0 0 0 0 0 0 0 0 0 0 0 0 0 0 0 0 117 41
124 125 44 133 128 45 136 129 46 137 129 45 136 128 45 135 126 45 134
124 44 131 121 43 129 118 42 125 115 41 122 111 39 118 107 38 113 102
36 108 97 34 103 91 32 97 85 30 90 78 27 82 69 24 73 58 21 62 0 0 0 0
0 0 0 0 0 0 0 0 0 0 0 0 0 0 0 0 0 0 0 0 0 0 0 0 0 0 0 0 0 0 0 0 0 0 0
0 0 0 0 0 0 0 0 0 0 0 0 0 0 0 0 0 0 0 0 0 0 0 0 0 0 0 0 0 0 0 0 0 0 0
0 0 0 0 0 0 0 0 0 0 0 0 0 0 0 0 0 0 0 0 0 0 0 0 0 0 0 0 0 0 0 0 0 0 0
0 0 0 0 0 0 0 0 0 0 0 0 0 0
0 0 0 0 0 0 0 0 0 0 0 0 0 0 0 0 0 0 0 0 0 0 0 0 0 0 0 0 0 0 0 0 0 0 0
0 0 0 0 0 0 0 0 0 0 0 0 0 0 0 0 0 0 0 0 0 0 0 0 0 0 0 0 0 0 0 0 0 0 0
0 0 0 0 0 0 0 0 0 0 0 0 0 0 0 0 0 0 0 0 0 0 0 0 0 0 0 0 0 0 0 0 0 0 0
0 0 0 0 0 0 0 0 0 0 0 0 0 0 0 0 0 0 0 0 0 0 0 0 0 0 0 0 0 0 0 0 0 0 0
0 0 0 0 0 0 0 0 0 0 0 0 0 0 0 0 0 0 0 0 0 0 0 0 0 0 0 0 0 0 0 0 0 0 0
0 0 0 0 0 0 0 0 0 0 0 0 0 0 0 0 0 0 0 0 0 0 0 0 0 0 0 0 0 0 0 0 0 0 0
0 0 0 0 0 0 0 0 0 0 0 0 0 0 0 0 0 0 0 0 0 0 0 0 0 0 0 0 0 0 0 0 0 0 0
0 0 0 0 0 0 0 0 0 0 0 0 0 0 0 0 0 0 0 0 0 0 0 0 0 0 0 0 0 0 0 0 0 0 0
0 0 0 0 0 0 0 0 0 0 0 0 0 0 0 0 0 0 0 0 0 0 0 0 0 0 0 0 0 0 0 0 0 0 0
0 0 0 0 0 0 0 0 0 0 0 0 0 0 0 0 0 0 0 0 0 0 0 0 0 0 0 0 0 0 0 0 0 0 0
0 0 0 0 0 0 0 0 0 0 0 0 0 0 0 0 0 0 0 0 0 0 0 0 0 0 0 0 0 0 0 0 0 0 0
0 0 0 0 0 0 0 0 0 0 0 0 0 0 0 0 0 0 0 0 0 0 0 0 0 0 0 0 0 126 45 134
131 46 139 134 47 141 134 47 142 134 47 142 133 47 141 132 47 140 130
46 137 127 45 135 125 44 132 122 43 129 118 42 125 114 40 121 110 39
117 106 37 112 101 36 107 95 34 101 89 32 95 83 29 88 76 27 80 67 24
71 57 20 61 42 15 45 0 0 0 0 0 0 0 0 0 0 0 0 0 0 0 0 0 0 0 0 0 0 0 0 0
0 0 0 0 0 0 0 0 0 0 0 0 0 0 0 0 0 0 0 0 0 0 0 0 0 0 0 0 0 0 0 0 0 0 0
0 0 0 0 0 0 0 0 0 0 0 0 0 0 0 0 0 0 0 0 0 0 0 0 0 0 0 0 0 0 0 0 0 0 0
0 0 0 0 0 0 0 0 0 0 0 0 0 0 0 0 0 0 0 0 0 0
0 0 0 0 0 0 0 0 0 0 0 0 0 0 0 0 0 0 0 0 0 0 0 0 0 0 0 0 0 0 0 0 0 0 0
0 0 0 0 0 0 0 0 0 0 0 0 0 0 0 0 0 0 0 0 0 0 0 0 0 0 0 0 0 0 0 0 0 0 0
0 0 0 0 0 0 0 0 0 0 0 0 0 0 0 0 0 0 0 0 0 0 0 0 0 0 0 0 0 0 0 0 0 0 0
0 0 0 0 0 0 0 0 0 0 0 0 0 0 0 0 0 0 0 0 0 0 0 0 0 0 0 0 0 0 0 0 0 0 0
0 29 73 146 29 73 147 29 73 146 29 72 144 28 71 141 28 69 138 27 67
134 26 65 130 25 63 125 24 60 119 23 57 113 21 53 106 19 48 95 0 0 0 0
0 0 0 0 0 0 0 0 0 0 0 0 0 0 0 0 0 0 0 0 0 0 0 0 0 0 0 0 0 0 0 0 0 0 0
0 0 0 0 0 0 0 0 0 0 0 0 0 0 0 0 0 0 0 0 0 0 0 0 0 0 0 0 0 0 0 0 0 0 0
0 0 0 0 0 0 0 0 0 0 0 0 0 0 0 0 0 0 0 0 0 0 0 0 0 0 0 0 0 0 0 0 0 0 0
0 0 0 0 0 0 0 0 0 0 0 0 0 0 0 0 0 0 0 0 0 0 0 0 0 0 0 0 0 0 0 0 0 0 0
0 0 0 0 0 0 0 0 0 0 0 0 0 0 0 0 0 0 0 0 0 0 0 0 0 0 0 0 0 0 0 0 0 0 0
0 0 0 0 0 0 0 0 0 0 0 0 0 0 0 0 0 0 0 0 0 0 0 0 0 0 0 0 0 0 0 0 0 0 0
0 0 0 0 0 0 0 0 0 0 0 0 0 0 115 41 122 131 46 138 135 48 143 137 48
145 138 49 146 138 49 146 137 48 145 136 48 144 134 47 142 132 47 140
130 46 137 127 45 134 124 44 131 120 42 127 116 41 123 112 40 119 108
38 114 103 36 109 98 35 104 92 33 98 86 30 91 80 28 84 72 26 77 64 23
68 54 19 57 40 14 42 0 0 0 0 0 0 0 0 0 0 0 0 0 0 0 0 0 0 0 0 0 0 0 0 0
0 0 0 0 0 0 0 0 0 0 0 0 0 0 0 0 0 0 0 0 0 0 0 0 0 0 0 0 0 0 0 0 0 0 0
0 0 0 0 0 0 0 0 0 0 0 0 0 0 0 0 0 0 0 0 0 0 0 0 0 0 0 0 0 0 0 0 0 0 0
0 0 0 0 0 0 0 0 0 0 0 0 0 0 0 0 0 0 0
0 0 0 0 0 0 0 0 0 0 0 0 0 0 0 0 0 0 0 0 0 0 0 0 0 0 0 0 0 0 0 0 0 0 0
0 0 0 0 0 0 0 0 0 0 0 0 0 0 0 0 0 0 0 0 0 0 0 0 0 0 0 0 0 0 0 0 0 0 0
0 0 0 0 0 0 0 0 0 0 0 0 0 0 0 0 0 0 0 0 0 0 0 0 0 0 0 0 0 0 0 0 0 0 0
0 0 0 0 0 0 0 0 0 0 0 0 0 0 0 0 0 0 0 0 0 0 0 0 0 0 0 30 76 151 31 78
156 31 78 156 31 78 156 31 77 154 30 76 152 30 75 149 29 73 146 29 71
143 28 70 139 27 68 135 26 65 130 25 63 125 24 60 120 23 57 114 21 54
107 20 50 100 18 45 90 15 37 74 0 0 0 0 0 0 0 0 0 0 0 0 0 0 0 0 0 0 0
0 0 0 0 0 0 0 0 0 0 0 0 0 0 0 0 0 0 0 0 0 0 0 0 0 0 0 0 0 0 0 0 0 0 0
0 0 0 0 0 0 0 0 0 0 0 0 0 0 0 0 0 0 0 0 0 0 0 0 0 0 0 0 0 0 0 0 0 0 0
0 0 0 0 0 0 0 0 0 0 0 0 0 0 0 0 0 0 0 0 0 0 0 0 0 0 0 0 0 0 0 0 0 0 0
0 0 0 0 0 0 0 0 0 0 0 0 0 0 0 0 0 0 0 0 0 0 0 0 0 0 0 0 0 0 0 0 0 0 0
0 0 0 0 0 0 0 0 0 0 0 0 0 0 0 0 0 0 0 0 0 0 0 0 0 0 0 0 0 0 0 0 0 0 0
0 0 0 0 0 0 0 0 0 0 0 0 0 0 0 0 0 0 0 0 0 0 120 42 127 133 47 141 138
49 146 140 49 148 141 50 149 141 50 149 140 50 149 139 49 148 138 49
146 136 48 144 134 47 141 131 46 139 128 45 136 125 44 132 121 43 128
118 41 124 113 40 120 109 39 116 104 37 111 99 35 105 94 33 100 88 31
94 82 29 87 75 27 80 68 24 72 59 21 63 49 17 52 34 12 36 0 0 0 0 0 0 0
0 0 0 0 0 0 0 0 0 0 0 0 0 0 0 0 0 0 0 0 0 0 0 0 0 0 0 0 0 0 0 0 0 0 0
0 0 0 0 0 0 0 0 0 0 0 0 0 0 0 0 0 0 0 0 0 0 0 0 0 0 0 0 0 0 0 0 0 0 0
0 0 0 0 0 0 0 0 0 0 0 0 0 0 0 0 0 0 0 0 0 0 0 0 0 0 0 0 0 0 0 0 0 0
0 0 0 0 0 0 0 0 0 0 0 0 0 0 0 0 0 0 0 0 0 0 0 0 0 0 0 0 0 0 0 0 0 0 0
0 0 0 0 0 0 0 0 0 0 0 0 0 0 0 0 0 0 0 0 0 0 0 0 0 0 0 0 0 0 0 0 0 0 0
0 0 0 0 0 0 0 0 0 0 0 0 0 0 0 0 0 0 0 0 0 0 0 0 0 0 0 0 0 0 0 0 0 0 0
0 0 0 0 0 0 0 0 0 0 0 0 0 0 0 0 0 0 0 0 0 31 77 154 32 80 160 32 81
162 32 81 162 32 81 161 32 80 160 31 79 157 31 78 155 30 76 152 30 74
149 29 73 145 28 71 142 28 69 138 27 67 133 26 64 128 25 62 123 24 59
118 22 56 112 21 53 106 20 49 98 18 45 90 16 40 80 0 0 0 0 0 0 0 0 0 0
0 0 0 0 0 0 0 0 0 0 0 0 0 0 0 0 0 0 0 0 0 0 0 0 0 0 0 0 0 0 0 0 0 0 0
0 0 0 0 0 0 0 0 0 0 0 0 0 0 0 0 0 0 0 0 0 0 0 0 0 0 0 0 0 0 0 0 0 0 0
0 0 0 0 0 0 0 0 0 0 0 0 0 0 0 0 0 0 0 0 0 0 0 0 0 0 0 0 0 0 0 0 0 0 0
0 0 0 0 0 0 0 0 0 0 0 0 0 0 0 0 0 0 0 0 0 0 0 0 0 0 0 0 0 0 0 0 0 0 0
0 0 0 0 0 0 0 0 0 0 0 0 0 0 0 0 0 0 0 0 0 0 0 0 0 0 0 0 0 0 0 0 0 0 0
0 0 0 0 0 0 0 0 0 0 0 0 0 0 0 0 0 0 0 0 0 0 0 0 0 117 41 124 133 47
141 139 49 147 141 50 150 143 50 151 143 50 151 143 50 151 142 50 150
141 50 149 139 49 147 137 48 145 134 47 142 132 46 139 129 45 136 125
44 133 122 43 129 118 42 125 114 40 121 110 39 116 105 37 111 100 35
106 95 34 101 90 32 95 84 29 88 77 27 82 70 25 74 62 22 66 53 19 56 42
15 45 26 9 28 0 0 0 0 0 0 0 0 0 0 0 0 0 0 0 0 0 0 0 0 0 0 0 0 0 0 0 0
0 0 0 0 0 0 0 0 0 0 0 0 0 0 0 0 0 0 0 0 0 0 0 0 0 0 0 0 0 0 0 0 0 0 0
0 0 0 0 0 0 0 0 0 0 0 0 0 0 0 0 0 0 0 0 0 0 0 0 0 0 0 0 0 0 0 0 0 0 0
0 0 0 0 0 0 0 0 0 0
0 0 0 0 0 0 0 0 0 0 0 0 0 0 0 0 0 0 0 0 0 0 0 0 0 0 0 0 0 0 0 0 0 0 0
0 0 0 0 0 0 0 0 0 0 0 0 0 0 0 0 0 0 0 0 0 0 0 0 0 0 0 0 0 0 0 0 0 0 0
0 0 0 0 0 0 0 0 0 0 0 0 0 0 0 0 0 0 0 0 0 0 0 0 0 0 0 0 0 0 0 0 0 0 0
0 0 0 0 0 0 0 0 0 0 0 0 0 0 0 0 0 0 32 81 161 33 82 165 33 83 166 33
83 166 33 82 165 33 82 163 32 81 161 32 80 159 31 78 156 31 77 153 30
75 150 29 73 147 29 71 143 28 69 139 27 67 135 26 65 130 25 63 125 24
60 120 23 57 114 22 54 108 20 51 102 19 47 95 17 43 87 16 39 78 13 33
65 0 0 0 0 0 0 0 0 0 0 0 0 0 0 0 0 0 0 0 0 0 0 0 0 0 0 0 0 0 0 0 0 0 0
0 0 0 0 0 0 0 0 0 0 0 0 0 0 0 0 0 0 0 0 0 0 0 0 0 0 0 0 0 0 0 0 0 0 0
0 0 0 0 0 0 0 0 0 0 0 0 0 0 0 0 0 0 0 0 0 0 0 0 0 0 0 0 0 0 0 0 0 0 0
0 0 0 0 0 0 0 0 0 0 0 0 0 0 0 0 0 0 0 0 0 0 0 0 0 0 0 0 0 0 0 0 0 0 0
0 0 0 0 0 0 0 0 0 0 0 0 0 0 0 0 0 0 0 0 0 0 0 0 0 0 0 0 0 0 0 0 0 0 0
0 0 0 0 0 0 0 0 0 0 0 0 0 0 0 0 0 0 0 0 0 0 0 0 0 0 0 0 0 0 132 47 140
139 49 147 142 50 150 144 51 152 144 51 153 144 51 153 144 51 152 143
50 151 141 50 149 139 49 147 137 48 145 135 47 142 132 47 140 129 45
136 126 44 133 122 43 129 118 42 125 114 40 121 110 39 116 105 37 112
101 36 107 96 34 101 90 32 95 84 30 89 78 28 83 71 25 76 64 23 68 56
20 59 46 16 49 34 12 36 26 9 28 0 0 0 0 0 0 0 0 0 0 0 0 0 0 0 0 0 0 0
0 0 0 0 0 0 0 0 0 0 0 0 0 0 0 0 0 0 0 0 0 0 0 0 0 0 0 0 0 0 0 0 0 0 0
0 0 0 0 0 0 0 0 0 0 0 0 0 0 0 0 0 0 0 0 0 0 0 0 0 0 0 0 0 0 0 0 0 0 0
0 0 0 0 0 0 0 0 0 0 0 0 0 0 0 0
0 0 0 0 0 0 0 0 0 0 0 0 0 0 0 0 0 0 0 0 0 0 0 0 0 0 0 0 0 0 0 0 0 0 0
0 0 0 0 0 0 0 0 0 0 0 0 0 0 0 0 0 0 0 0 0 0 0 0 0 0 0 0 0 0 0 0 0 0 0
0 0 0 0 0 0 0 0 0 0 0 0 0 0 0 0 0 0 0 0 0 0 0 0 0 0 0 0 0 0 0 0 0 0 0
0 0 0 0 0 0 0 0 0 0 0 0 31 77 154 33 82 165 33 84 167 34 84 168 34 84
168 33 84 167 33 83 166 33 82 164 32 81 162 32 80 160 31 78 157 31 77
154 30 75 150 29 73 147 29 72 143 28 70 139 27 67 135 26 65 130 25 63
126 24 60 121 23 58 115 22 55 110 21 52 104 19 49 97 18 45 90 16 41 82
15 37 73 12 31 62 0 0 0 0 0 0 0 0 0 0 0 0 0 0 0 0 0 0 0 0 0 0 0 0 0 0
0 0 0 0 0 0 0 0 0 0 0 0 0 0 0 0 0 0 0 0 0 0 0 0 0 0 0 0 0 0 0 0 0 0 0
0 0 0 0 0 0 0 0 0 0 0 0 0 0 0 0 0 0 0 0 0 0 0 0 0 0 0 0 0 0 0 0 0 0 0
0 0 0 0 0 0 0 0 0 0 0 0 0 0 0 0 0 0 0 0 0 0 0 0 0 0 0 0 0 0 0 0 0 0 0
0 0 0 0 0 0 0 0 0 0 0 0 0 0 0 0 0 0 0 0 0 0 0 0 0 0 0 0 0 0 0 0 0 0 0
0 0 0 0 0 0 0 0 0 0 0 0 0 0 0 0 0 0 0 0 0 0 0 0 0 0 0 0 0 0 0 0 129 45
136 137 48 145 141 50 150 144 51 152 145 51 153 145 51 154 145 51 153
144 51 152 143 50 151 141 50 149 139 49 147 137 48 145 134 47 142 132
46 139 128 45 136 125 44 133 122 43 129 118 42 125 114 40 121 110 39
116 105 37 111 101 35 106 96 34 101 90 32 95 85 30 89 78 28 83 72 25
76 65 23 69 57 20 60 48 17 51 38 13 40 26 9 28 0 0 0 0 0 0 0 0 0 0 0 0
0 0 0 0 0 0 0 0 0 0 0 0 0 0 0 0 0 0 0 0 0 0 0 0 0 0 0 0 0 0 0 0 0 0 0
0 0 0 0 0 0 0 0 0 0 0 0 0 0 0 0 0 0 0 0 0 0 0 0 0 0 0 0 0 0 0 0 0 0 0
0 0 0 0 0 0 0 0 0 0 0 0 0 0 0 0 0 0 0 0 0 0 0
0 0 0 0 0 0 0 0 0 0 0 0 0 0 0 0 0 0 0 0 0 0 0 0 0 0 0 0 0 0 0 0 0 0 0
0 0 0 0 0 0 0 0 0 0 0 0 0 0 0 0 0 0 0 0 0 0 0 0 0 0 0 0 0 0 0 0 0 0 0
0 0 0 0 0 0 0 0 0 0 0 0 0 0 0 0 0 0 0 0 0 0 0 0 0 0 0 0 0 0 0 0 0 0 0
0 0 0 0 0 0 0 0 0 31 78 157 33 83 166 34 84 169 34 85 170 34 85 170 34
85 169 34 84 168 33 83 166 33 82 164 32 81 162 32 80 159 31 78 157 31
77 153 30 75 150 29 73 147 29 71 143 28 69 139 27 67 135 26 65 130 25
63 126 24 60 121 23 58 116 22 55 110 21 52 105 20 49 98 18 46 92 17 42
85 15 38 77 14 34 68 11 28 56 7 19 37 0 0 0 0 0 0 0 0 0 0 0 0 0 0 0 0
0 0 0 0 0 0 0 0 0 0 0 0 0 0 0 0 0 0 0 0 0 0 0 0 0 0 0 0 0 0 0 0 0 0 0
0 0 0 0 0 0 0 0 0 0 0 0 0 0 0 0 0 0 0 0 0 0 0 0 0 0 0 0 0 0 0 0 0 0 0
0 0 0 0 0 0 0 0 0 0 0 0 0 0 0 0 0 0 0 0 0 0 0 0 0 0 0 0 0 0 0 0 0 0 0
0 0 0 0 0 0 0 0 0 0 0 0 0 0 0 0 0 0 0 0 0 0 0 0 0 0 0 0 0 0 0 0 0 0 0
0 0 0 0 0 0 0 0 0 0 0 0 0 0 0 0 0 0 0 0 0 0 0 0 0 0 0 0 0 0 0 0 0 121
43 128 134 47 142 140 49 148 143 50 151 144 51 153 145 51 154 145 51
154 145 51 153 144 51 152 142 50 151 141 50 149 139 49 147 136 48 144
134 47 142 131 46 139 128 45 135 124 44 132 121 43 128 117 41 124 113
40 120 109 39 116 105 37 111 100 35 106 95 34 101 90 32 95 84 30 89 78
28 83 72 25 76 65 23 69 58 20 61 49 17 52 40 14 42 28 10 30 26 9 28 0
0 0 0 0 0 0 0 0 0 0 0 0 0 0 0 0 0 0 0 0 0 0 0 0 0 0 0 0 0 0 0 0 0 0 0
0 0 0 0 0 0 0 0 0 0 0 0 0 0 0 0 0 0 0 0 0 0 0 0 0 0 0 0 0 0 0 0 0 0 0
0 0 0 0 0 0 0 0 0 0 0 0 0 0 0 0 0 0 0 0 0 0 0 0 0 0 0 0 0 0 0
0 0 0 0 0 0 0 0 0 0 0 0 0 0 0 0 0 0 0 0 0 0 0 0 0 0 0 0 0 0 0 0 0 0 0
0 0 0 0 0 0 0 0 0 0 0 0 0 0 0 0 0 0 0 0 0 0 0 0 0 0 0 0 0 0 0 0 0 0 0
0 0 0 0 0 0 0 0 0 0 0 0 0 0 0 0 0 0 0 0 0 0 0 0 0 0 0 0 0 0 0 0 0 0 0
0 0 0 0 0 0 31 78 155 33 83 166 34 85 169 34 85 170 34 85 171 34 85
170 34 85 169 34 84 168 33 83 166 33 82 164 32 81 161 32 79 159 31 78
156 31 76 153 30 75 149 29 73 146 28 71 142 28 69 138 27 67 134 26 65
130 25 63 125 24 60 120 23 58 115 22 55 110 21 52 105 20 49 99 18 46
92 17 43 86 16 39 78 14 35 70 12 30 61 10 25 50 6 15 31 0 0 0 0 0 0 0
0 0 0 0 0 0 0 0 0 0 0 0 0 0 0 0 0 0 0 0 0 0 0 0 0 0 0 0 0 0 0 0 0 0 0
0 0 0 0 0 0 0 0 0 0 0 0 0 0 0 0 0 0 0 0 0 0 0 0 0 0 0 0 0 0 0 0 0 0 0
0 0 0 0 0 0 0 0 0 0 0 0 0 0 0 0 0 0 0 0 0 0 0 0 0 0 0 0 0 0 0 0 0 0 0
0 0 0 0 0 0 0 0 0 0 0 0 0 0 0 0 0 0 0 0 0 0 0 0 0 0 0 0 0 0 0 0 0 0 0
0 0 0 0 0 0 0 0 0 0 0 0 0 0 0 0 0 0 0 0 0 0 0 0 0 0 0 0 0 0 0 0 0 0 0
0 0 0 0 129 46 137 137 48 145 141 50 149 143 51 152 144 51 153 145 51
153 145 51 153 144 51 153 143 50 151 141 50 150 140 49 148 138 49 146
135 48 143 133 47 140 130 46 137 127 45 134 123 44 131 120 42 127 116
41 123 112 40 119 108 38 114 104 37 110 99 35 105 94 33 100 89 31 94
84 29 88 78 27 82 72 25 76 65 23 69 58 20 61 50 17 52 41 14 43 30 11
32 26 9 28 0 0 0 0 0 0 0 0 0 0 0 0 0 0 0 0 0 0 0 0 0 0 0 0 0 0 0 0 0 0
0 0 0 0 0 0 0 0 0 0 0 0 0 0 0 0 0 0 0 0 0 0 0 0 0 0 0 0 0 0 0 0 0 0 0
0 0 0 0 0 0 0 0 0 0 0 0 0 0 0 0 0 0 0 0 0 0 0 0 0 0 0 0 0 0 0 0 0 0 0
0 0
0 0 0 0 0 0 0 0 0 0 0 0 0 0 0 0 0 0 0 0 0 0 0 0 0 0 0 0 0 0 0 0 0 0 0
0 0 0 0 0 0 0 0 0 0 0 0 0 0 0 0 0 0 0 0 0 0 0 0 0 0 0 0 0 0 0 0 0 0 0
0 0 0 0 0 0 0 0 0 0 0 0 0 0 0 0 0 0 0 0 0 0 0 0 0 0 0 0 0 0 0 0 0 0 0
0 0 0 0 0 0 33 82 164 34 84 168 34 85 170 34 85 171 34 85 171 34 85
170 34 84 169 33 83 167 33 82 165 33 81 163 32 80 160 32 79 158 31 77
155 30 76 151 30 74 148 29 72 145 28 70 141 27 68 137 27 66 133 26 64
129 25 62 124 24 60 119 23 57 115 22 55 109 21 52 104 20 49 98 18 46
92 17 43 86 16 39 79 14 36 71 13 32 63 11 27 53 8 21 42 0 0 0 0 0 0 0
0 0 0 0 0 0 0 0 0 0 0 0 0 0 0 0 0 0 0 0 0 0 0 0 0 0 0 0 0 0 0 0 0 0 0
0 0 0 0 0 0 0 0 0 0 0 0 0 0 0 0 0 0 0 0 0 0 0 0 0 0 0 0 0 0 0 0 0 0 0
0 0 0 0 0 0 0 0 0 0 0 0 0 0 0 0 0 0 0 0 0 0 0 0 0 0 0 0 0 0 0 0 0 0 0
0 0 0 0 0 0 0 0 0 0 0 0 0 0 0 0 0 0 0 0 0 0 0 0 0 0 0 0 0 0 0 0 0 0 0
0 0 0 0 0 0 0 0 0 0 0 0 0 0 0 0 0 0 0 0 0 0 0 0 0 0 0 0 0 0 0 0 0 0 0
0 118 42 125 132 47 140 138 49 146 141 50 149 143 50 151 144 51 152
144 51 153 144 51 152 143 50 151 142 50 150 141 50 149 143 53 151 141
53 149 135 48 143 131 46 139 128 45 136 125 44 133 122 43 129 119 42
126 115 41 122 111 39 118 107 38 113 102 36 108 98 35 104 93 33 98 88
31 93 82 29 87 77 27 81 71 25 75 64 23 68 57 20 60 49 17 52 41 14 43
31 11 32 26 9 28 26 9 28 0 0 0 0 0 0 0 0 0 0 0 0 0 0 0 0 0 0 0 0 0 0 0
0 0 0 0 0 0 0 0 0 0 0 0 0 0 0 0 0 0 0 0 0 0 0 0 0 0 0 0 0 0 0 0 0 0 0
0 0 0 0 0 0 0 0 0 0 0 0 0 0 0 0 0 0 0 0 0 0 0 0 0 0 0 0 0 0 0 0 0 0 0
0 0 0 0 0 0
0 0 0 0 0 0 0 0 0 0 0 0 0 0 0 0 0 0 0 0 0 0 0 0 0 0 0 0 0 0 0 0 0 0 0
0 0 0 0 0 0 0 0 0 0 0 0 0 0 0 0 0 0 0 0 0 0 0 0 0 0 0 0 0 0 0 0 0 0 0
0 0 0 0 0 0 0 0 0 0 0 0 0 0 0 0 0 0 0 0 0 0 0 0 0 0 0 0 0 0 0 0 0 0 0
0 0 0 32 81 162 33 83 167 34 85 169 34 85 170 34 85 170 34 85 170 34
84 169 33 84 167 33 83 166 33 82 164 32 81 161 32 79 159 31 78 156 31
77 153 30 75 150 29 73 147 29 72 143 28 70 139 27 68 135 26 66 131 25
64 127 25 61 123 24 59 118 23 57 113 22 54 108 21 52 103 19 49 97 18
46 92 17 43 85 16 39 79 14 36 72 13 32 64 11 28 55 9 23 45 6 16 32 0 0
0 0 0 0 0 0 0 0 0 0 0 0 0 0 0 0 0 0 0 0 0 0 0 0 0 0 0 0 0 0 0 0 0 0 0
0 0 0 0 0 0 0 0 0 0 0 0 0 0 0 0 0 0 0 0 0 0 0 0 0 0 0 0 0 0 0 0 0 0 0
0 0 0 0 0 0 0 0 0 0 0 0 0 0 0 0 0 0 0 0 0 0 0 0 0 0 0 0 0 0 0 0 0 0 0
0 0 0 0 0 0 0 0 0 0 0 0 0 0 0 0 0 0 0 0 0 0 0 0 0 0 0 0 0 0 0 0 0 0 0
0 0 0 0 0 0 0 0 0 0 0 0 0 0 0 0 0 0 0 0 0 0 0 0 0 0 0 0 0 0 0 0 0 0 0
0 0 0 124 44 132 133 47 141 138 49 146 141 50 149 142 50 151 143 50
151 143 50 151 143 50 151 142 50 150 141 50 149 154 64 162 231 142 239
205 118 213 140 54 147 130 46 137 127 45 134 124 44 131 120 43 128 117
41 124 113 40 120 109 39 116 105 37 111 101 36 107 96 34 102 92 32 97
86 31 92 81 29 86 75 27 80 69 25 74 63 22 67 56 20 59 48 17 51 40 14
42 31 11 32 26 9 28 26 9 28 0 0 0 0 0 0 0 0 0 0 0 0 0 0 0 0 0 0 0 0 0
0 0 0 0 0 0 0 0 0 0 0 0 0 0 0 0 0 0 0 0 0 0 0 0 0 0 0 0 0 0 0 0 0 0 0
0 0 0 0 0 0 0 0 0 0 0 0 0 0 0 0 0 0 0 0 0 0 0 0 0 0 0 0 0 0 0 0 0 0 0
0 0 0 0 0 0 0 0
0 0 0 0 0 0 0 0 0 0 0 0 0 0 0 0 0 0 0 0 0 0 0 0 0 0 0 0 0 0 0 0 0 0 0
0 0 0 0 0 0 0 0 0 0 0 0 0 0 0 0 0 0 0 0 0 0 0 0 0 0 0 0 0 0 0 0 0 0 0
0 0 0 0 0 0 0 0 0 0 0 0 0 0 0 0 0 0 0 0 0 0 0 0 0 0 0 0 0 0 0 0 0 0 0
31 78 156 33 82 164 33 84 167 34 85 169 34 85 169 34 85 169 34 84 169
33 84 167 33 83 166 33 82 164 32 81 162 32 80 160 31 78 157 31 77 154
30 76 151 30 74 148 29 72 145 28 71 141 28 69 138 27 67 134 26 65 130
25 63 126 24 61 121 23 58 117 22 56 112 21 53 107 20 51 102 19 48 96
18 45 91 17 42 85 16 39 78 14 36 71 13 32 64 11 28 56 9 23 47 7 18 36
6 15 31 0 0 0 0 0 0 0 0 0 0 0 0 0 0 0 0 0 0 0 0 0 0 0 0 0 0 0 0 0 0 0
0 0 0 0 0 0 0 0 0 0 0 0 0 0 0 0 0 0 0 0 0 0 0 0 0 0 0 0 0 0 0 0 0 0 0
0 0 0 0 0 0 0 0 0 0 0 0 0 0 0 0 0 0 0 0 0 0 0 0 0 0 0 0 0 0 0 0 0 0 0
0 0 0 0 0 0 0 0 0 0 0 0 0 0 0 0 0 0 0 0 0 0 0 0 0 0 0 0 0 0 0 0 0 0 0
0 0 0 0 0 0 0 0 0 0 0 0 0 0 0 0 0 0 0 0 0 0 0 0 0 0 0 0 0 0 0 0 0 0 0
0 0 0 0 0 0 126 45 134 133 47 141 137 48 145 140 49 148 141 50 149 142
50 150 142 50 150 141 50 149 140 49 148 140 51 148 198 110 206 255 255
255 249 163 255 139 54 146 128 45 135 125 44 132 122 43 129 119 42 126
115 41 122 111 39 118 108 38 114 103 37 110 99 35 105 95 33 100 90 32
95 85 30 90 79 28 84 74 26 78 68 24 72 61 22 65 55 19 58 47 17 50 39
14 41 30 11 32 26 9 28 26 9 28 0 0 0 0 0 0 0 0 0 0 0 0 0 0 0 0 0 0 0 0
0 0 0 0 0 0 0 0 0 0 0 0 0 0 0 0 0 0 0 0 0 0 0 0 0 0 0 0 0 0 0 0 0 0 0
0 0 0 0 0 0 0 0 0 0 0 0 0 0 0 0 0 0 0 0 0 0 0 0 0 0 0 0 0 0 0 0 0 0 0
0 0 0 0 0 0 0 0 0
0 0 0 0 0 0 0 0 0 0 0 0 0 0 0 0 0 0 0 0 0 0 0 0 0 0 0 0 0 0 0 0 0 0 0
0 0 0 0 0 0 0 0 0 0 0 0 0 0 0 0 0 0 0 0 0 0 0 0 0 0 0 0 0 0 0 0 0 0 0
0 0 0 0 0 0 0 0 0 0 0 0 0 0 0 0 0 0 0 0 0 0 0 0 0 0 0 0 0 0 0 0 0 0 0
32 80 160 33 82 165 33 84 167 34 84 168 34 84 168 34 84 168 33 83 167
33 83 166 33 82 164 32 81 162 32 80 160 33 80 159 33 80 157 31 77 153
30 75 149 29 73 146 29 71 143 28 70 139 27 68 136 26 66 132 26 64 128
25 62 124 24 60 119 23 57 115 22 55 110 21 53 105 20 50 100 19 47 95
18 45 89 17 42 83 15 39 77 14 35 70 13 32 63 11 28 56 9 24 47 7 19 37
6 15 31 6 15 31 0 0 0 0 0 0 0 0 0 0 0 0 0 0 0 0 0 0 0 0 0 0 0 0 0 0 0
0 0 0 0 0 0 0 0 0 0 0 0 0 0 0 0 0 0 0 0 0 0 0 0 0 0 0 0 0 0 0 0 0 0 0
0 0 0 0 0 0 0 0 0 0 0 0 0 0 0 0 0 0 0 0 0 0 0 0 0 0 0 0 0 0 0 0 0 0 0
0 0 0 0 0 0 0 0 0 0 0 0 0 0 0 0 0 0 0 0 0 0 0 0 0 0 0 0 0 0 0 0 0 0 0
0 0 0 0 0 0 0 0 0 0 0 0 0 0 0 0 0 0 0 0 0 0 0 0 0 0 0 0 0 0 0 0 0 0 0
0 0 0 0 112 40 119 126 45 134 133 47 140 136 48 144 138 49 146 139 49
148 140 49 148 140 49 148 139 49 147 138 49 146 138 49 146 165 78 173
210 124 218 157 72 165 130 47 137 126 44 133 123 43 130 120 42 127 116
41 123 113 40 120 109 39 116 105 37 112 101 36 107 97 34 103 93 33 98
88 31 93 83 29 88 77 27 82 72 25 76 66 23 70 60 21 63 53 19 56 46 16
48 38 13 40 28 10 30 26 9 28 26 9 28 0 0 0 0 0 0 0 0 0 0 0 0 0 0 0 0 0
0 0 0 0 0 0 0 0 0 0 0 0 0 0 0 0 0 0 0 0 0 0 0 0 0 0 0 0 0 0 0 0 0 0 0
0 0 0 0 0 0 0 0 0 0 0 0 0 0 0 0 0 0 0 0 0 0 0 0 0 0 0 0 0 0 0 0 0 0 0
0 0 0 0 0 0 0 0 0 0 0 0
0 0 0 0 0 0 0 0 0 0 0 0 0 0 0 0 0 0 0 0 0 0 0 0 0 0 0 0 0 0 0 0 0 0 0
0 0 0 0 0 0 0 0 0 0 0 0 0 0 0 0 0 0 0 0 0 0 0 0 0 0 0 0 0 0 0 0 0 0 0
0 0 0 0 0 0 0 0 0 0 0 0 0 0 0 0 0 0 0 0 0 0 0 0 0 0 0 0 0 0 0 0 31 76
153 32 80 161 33 82 164 33 83 166 33 83 166 33 83 166 33 83 166 33 82
165 33 82 163 32 81 162 32 80 160 41 88 167 75 122 199 74 120 196 40
85 160 30 74 147 29 72 144 28 70 140 27 68 137 27 67 133 26 65 129 25
63 125 24 61 121 23 59 117 23 56 113 22 54 108 21 52 103 20 49 98 19
46 93 17 44 87 16 41 82 15 38 76 14 35 69 12 31 62 11 27 55 9 23 47 8
19 38 6 15 31 6 15 31 0 0 0 0 0 0 0 0 0 0 0 0 0 0 0 0 0 0 0 0 0 0 0 0
0 0 0 0 0 0 0 0 0 0 0 0 0 0 0 0 0 0 0 0 0 0 0 0 0 0 0 0 0 0 0 0 0 0 0
0 0 0 0 0 0 0 0 0 0 0 0 0 0 0 0 0 0 0 0 0 0 0 0 0 0 0 0 0 0 0 0 0 0 0
0 0 0 0 0 0 0 0 0 0 0 0 0 0 0 0 0 0 0 0 0 0 0 0 0 0 0 0 0 0 0 0 0 0 0
0 0 0 0 0 0 0 0 0 0 0 0 0 0 0 0 0 0 0 0 0 0 0 0 0 0 0 0 0 0 0 0 0 0 0
0 0 0 0 0 0 0 115 40 121 126 44 133 131 46 139 134 47 142 136 48 144
137 48 145 138 49 146 137 49 146 137 48 145 136 48 144 134 48 142 135
49 142 134 50 142 129 46 137 126 45 133 123 44 131 120 43 128 117 41
124 114 40 121 111 39 117 107 38 113 103 36 109 99 35 105 95 33 100 90
32 96 85 30 90 80 28 85 75 27 80 70 25 74 64 23 68 58 20 61 51 18 54
44 15 46 36 13 38 27 9 28 26 9 28 26 9 28 0 0 0 0 0 0 0 0 0 0 0 0 0 0
0 0 0 0 0 0 0 0 0 0 0 0 0 0 0 0 0 0 0 0 0 0 0 0 0 0 0 0 0 0 0 0 0 0 0
0 0 0 0 0 0 0 0 0 0 0 0 0 0 0 0 0 0 0 0 0 0 0 0 0 0 0 0 0 0 0 0 0 0 0
0 0 0 0 0 0 0 0 0 0 0 0 0 0 0
0 0 0 0 0 0 0 0 0 0 0 0 0 0 0 0 0 0 0 0 0 0 0 0 0 0 0 0 0 0 0 0 0 0 0
0 0 0 0 0 0 0 0 0 0 0 0 0 0 0 0 0 0 0 0 0 0 0 0 0 0 0 0 0 0 0 0 0 0 0
0 0 0 0 0 0 0 0 0 0 0 0 0 0 0 0 0 0 0 0 0 0 0 0 0 0 0 0 0 0 0 0 31 77
155 32 80 160 33 81 163 33 82 164 33 82 165 33 82 164 33 82 164 32 81
162 32 80 161 32 80 159 36 83 162 98 145 222 237 255 255 172 217 255
53 97 171 30 73 145 28 71 141 28 69 138 27 67 134 26 65 131 25 63 127
25 62 123 24 59 119 23 57 115 22 55 110 21 53 106 20 50 101 19 48 96
18 45 91 17 43 85 16 40 80 15 37 74 13 34 67 12 30 61 11 27 54 9 23 46
7 19 37 6 15 31 6 15 31 6 15 31 0 0 0 0 0 0 0 0 0 0 0 0 0 0 0 0 0 0 0
0 0 0 0 0 0 0 0 0 0 0 0 0 0 0 0 0 0 0 0 0 0 0 0 0 0 0 0 0 0 0 0 0 0 0
0 0 0 0 0 0 0 0 0 0 0 0 0 0 0 0 0 0 0 0 0 0 0 0 0 0 0 0 0 0 0 0 0 0 0
0 0 0 0 0 0 0 0 0 0 0 0 0 0 0 0 0 0 0 0 0 0 0 0 0 0 0 0 0 0 0 0 0 0 0
0 0 0 0 0 0 0 0 0 0 0 0 0 0 0 0 0 0 0 0 0 0 0 0 0 0 0 0 0 0 0 0 0 0 0
0 0 0 0 0 0 0 0 0 114 40 121 124 44 131 129 46 137 132 47 140 134 47
142 135 48 143 137 52 151 135 48 143 134 47 142 133 47 141 132 46 139
130 46 138 128 45 136 126 44 133 123 44 131 121 43 128 118 42 125 115
41 122 112 39 118 108 38 114 104 37 111 100 35 106 96 34 102 92 33 98
88 31 93 83 29 88 78 28 83 73 26 77 67 24 71 61 22 65 55 19 58 48 17
51 41 15 44 33 12 35 26 9 28 26 9 28 26 9 28 26 9 28 0 0 0 0 0 0 0 0 0
0 0 0 0 0 0 0 0 0 0 0 0 0 0 0 0 0 0 0 0 0 0 0 0 0 0 0 0 0 0 0 0 0 0 0
0 0 0 0 0 0 0 0 0 0 0 0 0 0 0 0 0 0 0 0 0 0 0 0 0 0 0 0 0 0 0 0 0 0 0
0 0 0 0 0 0 0 0 0 0 0 0 0 0 0 0 0
0 0 0 0 0 0 0 0 0 0 0 0 0 0 0 0 0 0 0 0 0 0 0 0 0 0 0 0 0 0 0 0 0 0 0
0 0 0 0 0 0 0 0 0 0 0 0 0 0 0 0 0 0 0 0 0 0 0 0 0 0 0 0 0 0 0 0 0 0 0
0 0 0 0 0 0 0 0 0 0 0 0 0 0 0 0 0 0 0 0 0 0 0 0 0 0 0 0 0 29 72 144 31
77 155 32 79 159 32 81 161 32 81 162 32 81 162 32 81 162 32 81 161 32
80 160 32 79 158 31 78 157 39 86 163 117 163 239 214 255 255 121 166
239 40 84 156 29 71 142 28 69 138 27 68 135 26 66 132 26 64 128 25 62
124 24 60 120 23 58 116 22 56 112 22 54 108 21 52 103 20 49 99 19 47
94 18 44 88 17 42 83 16 39 78 14 36 72 13 33 65 12 29 59 10 26 52 9 22
44 7 18 36 6 15 31 6 15 31 6 15 31 0 0 0 0 0 0 0 0 0 0 0 0 0 0 0 0 0 0
0 0 0 0 0 0 0 0 0 0 0 0 0 0 0 0 0 0 0 0 0 0 0 0 0 0 0 0 0 0 0 0 0 0 0
0 0 0 0 0 0 0 0 0 0 0 0 0 0 0 0 0 0 0 0 0 0 0 0 0 0 0 0 0 0 0 0 0 0 0
0 0 0 0 0 0 0 0 0 0 0 0 0 0 0 0 0 0 0 0 0 0 0 0 0 0 0 0 0 0 0 0 0 0 0
0 0 0 0 0 0 0 0 0 0 0 0 0 0 0 0 0 0 0 0 0 0 0 0 0 0 0 0 0 0 0 0 0 0 0
0 0 0 0 0 0 0 0 0 0 113 40 119 122 43 129 126 45 134 129 46 137 131 46
139 133 48 142 133 48 143 134 52 151 131 46 139 130 46 138 129 45 136
127 45 135 125 44 133 123 43 130 121 43 128 118 42 125 115 41 122 112
40 119 109 38 115 105 37 111 102 36 108 98 34 103 94 33 99 89 32 95 85
30 90 80 28 85 75 27 80 70 25 74 64 23 68 59 21 62 52 18 55 46 16 48
39 14 41 31 11 32 26 9 28 26 9 28 26 9 28 26 9 28 0 0 0 0 0 0 0 0 0 0
0 0 0 0 0 0 0 0 0 0 0 0 0 0 0 0 0 0 0 0 0 0 0 0 0 0 0 0 0 0 0 0 0 0 0
0 0 0 0 0 0 0 0 0 0 0 0 0 0 0 0 0 0 0 0 0 0 0 0 0 0 0 0 0 0 0 0 0 0 0
0 0 0 0 0 0 0 0 0 0 0 0 0 0 0 0
0 0 0 0 0 0 0 0 0 0 0 0 0 0 0 0 0 0 0 0 0 0 0 0 0 0 0 0 0 0 0 0 0 0 0
0 0 0 0 0 0 0 0 0 0 0 0 0 0 0 0 0 0 0 0 0 0 0 0 0 0 0 0 0 0 0 0 0 0 0
0 0 0 0 0 0 0 0 0 0 0 0 0 0 0 0 0 0 0 0 0 0 0 0 0 0 0 0 0 29 73 146 31
77 153 31 78 157 32 79 159 32 80 159 32 80 160 32 80 159 32 79 158 31
78 157 31 78 155 31 77 154 34 79 155 53 98 172 65 109 183 42 85 158 30
72 143 28 69 139 27 68 135 26 66 132 26 64 129 25 63 125 24 61 121 24
59 118 23 57 114 22 55 109 21 53 105 20 50 101 19 48 96 18 46 91 17 43
86 16 40 81 15 38 75 14 35 69 13 32 63 11 28 57 10 25 50 9 21 43 7 17
34 6 15 31 6 15 31 6 15 31 0 0 0 0 0 0 0 0 0 0 0 0 0 0 0 0 0 0 0 0 0 0
0 0 0 0 0 0 0 0 0 0 0 0 0 0 0 0 0 0 0 0 0 0 0 0 0 0 0 0 0 0 0 0 0 0 0
0 0 0 0 0 0 0 0 0 0 0 0 0 0 0 0 0 0 0 0 0 0 0 0 0 0 0 0 0 0 0 0 0 0 0
0 137 109 27 137 110 27 135 108 27 132 105 26 127 102 25 122 97 24 116
92 23 108 86 22 98 79 20 0 0 0 0 0 0 0 0 0 0 0 0 0 0 0 0 0 0 0 0 0 0 0
0 0 0 0 0 0 0 0 0 0 0 0 0 0 0 0 0 0 0 0 0 0 0 0 0 110 39 116 119 42
126 123 44 131 126 45 134 129 46 138 129 47 139 130 47 139 130 48 142
128 45 136 132 49 136 132 50 136 124 44 131 122 43 129 120 42 127 117
41 124 115 41 122 112 40 119 109 38 115 106 37 112 102 36 108 99 35
104 95 33 100 91 32 96 86 30 91 82 29 87 77 27 82 72 25 76 67 24 71 61
22 65 56 20 59 49 17 52 43 15 45 35 13 38 28 10 29 26 9 28 26 9 28 26
9 28 26 9 28 0 0 0 0 0 0 0 0 0 0 0 0 0 0 0 0 0 0 0 0 0 0 0 0 0 0 0 0 0
0 0 0 0 0 0 0 0 0 0 0 0 0 0 0 0 0 0 0 0 0 0 0 0 0 0 0 0 0 0 0 0 0 0 0
0 0 0 0 0 0 0 0 0 0 0 0 0 0 0 0 0 0 0 0 0 0 0 0 0 0 0 0 0 0 0 0
0 0 0 0 0 0 0 0 0 0 0 0 0 0 0 0 0 0 0 0 0 0 0 0 0 0 0 0 0 0 0 0 0 0 0
0 0 0 0 0 0 0 0 0 0 0 0 0 0 0 0 0 0 0 0 0 0 0 0 0 0 0 0 0 0 0 0 0 0 0
0 0 0 0 0 0 0 0 0 0 0 0 0 0 0 0 0 0 0 0 0 0 0 0 0 0 0 0 0 29 73 145 30
76 151 31 77 154 31 78 156 31 78 157 31 78 157 31 78 156 31 78 155 31
77 154 30 76 152 30 75 151 30 75 149 31 74 148 30 74 145 29 71 142 28
69 138 27 68 136 26 66 132 26 65 129 25 63 126 24 61 122 24 59 119 23
57 115 22 55 111 21 53 107 20 51 102 20 49 98 19 47 93 18 44 88 17 42
83 16 39 78 15 36 73 13 33 67 12 30 61 11 27 54 10 24 48 8 20 40 7 16
33 6 15 31 6 15 31 6 15 31 6 15 31 0 0 0 0 0 0 0 0 0 0 0 0 0 0 0 0 0 0
0 0 0 0 0 0 0 0 0 0 0 0 0 0 0 0 0 0 0 0 0 0 0 0 0 0 0 0 0 0 0 0 0 0 0
0 0 0 0 0 0 0 0 0 0 0 0 0 0 0 0 0 0 0 0 0 0 0 0 0 0 0 0 147 118 29 151
121 30 151 121 30 149 119 30 147 117 29 143 115 29 139 111 28 135 108
27 130 104 26 124 99 25 118 94 24 110 88 22 102 82 20 93 74 19 80 64
16 0 0 0 0 0 0 0 0 0 0 0 0 0 0 0 0 0 0 0 0 0 0 0 0 0 0 0 0 0 0 0 0 0 0
0 0 0 0 0 106 37 112 115 41 122 120 42 127 123 43 130 125 45 134 126
46 135 127 46 136 126 46 136 127 46 133 126 46 132 125 45 130 123 45
128 123 45 127 117 41 123 114 40 121 112 39 118 109 38 115 106 37 112
102 36 108 99 35 105 95 34 101 91 32 97 87 31 92 83 29 88 79 28 83 74
26 78 69 24 73 64 22 67 58 21 62 52 18 55 46 16 49 39 14 42 32 11 34
26 9 28 26 9 28 26 9 28 26 9 28 0 0 0 0 0 0 0 0 0 0 0 0 0 0 0 0 0 0 0
0 0 0 0 0 0 0 0 0 0 0 0 0 0 0 0 0 0 0 0 0 0 0 0 0 0 0 0 0 0 0 0 0 0 0
0 0 0 0 0 0 0 0 0 0 0 0 0 0 0 0 0 0 0 0 0 0 0 0 0 0 0 0 0 0 0 0 0 0 0
0 0 0 0 0 0 0 0 0 0
0 0 0 0 0 0 0 0 0 0 0 0 0 0 0 0 0 0 0 0 0 0 0 0 0 0 0 0 0 0 0 0 0 0 0
0 0 0 0 0 0 0 0 0 0 0 0 0 0 0 0 0 0 0 0 0 0 0 0 0 0 0 0 0 0 0 0 0 0 0
0 0 0 0 0 0 0 0 0 0 0 0 0 0 0 0 0 0 0 0 0 0 0 0 0 0 0 0 0 29 72 144 30
74 149 30 76 152 31 77 153 31 77 154 31 77 153 31 76 153 30 76 152 30
75 151 30 75 149 29 74 147 29 73 145 29 72 143 28 70 141 28 69 138 27
68 135 26 66 132 26 65 129 25 63 126 25 61 123 24 60 119 23 58 115 22
56 112 22 54 108 21 52 103 20 50 99 19 47 95 18 45 90 17 43 85 16 40
80 15 38 75 14 35 70 13 32 64 12 29 58 10 26 52 9 23 45 8 19 38 6 15
31 6 15 31 6 15 31 6 15 31 6 15 31 0 0 0 0 0 0 0 0 0 0 0 0 0 0 0 0 0 0
0 0 0 0 0 0 0 0 0 0 0 0 0 0 0 0 0 0 0 0 0 0 0 0 0 0 0 0 0 0 0 0 0 0 0
0 0 0 0 0 0 0 0 0 0 0 0 0 0 0 0 0 0 0 0 0 0 152 121 30 158 126 32 159
127 32 158 127 32 156 125 31 154 123 31 151 121 30 147 118 29 143 114
29 138 111 28 133 107 27 128 102 26 122 97 24 115 92 23 108 87 22 100
80 20 91 73 18 81 65 16 66 53 13 0 0 0 0 0 0 0 0 0 0 0 0 0 0 0 0 0 0 0
0 0 0 0 0 0 0 0 0 0 0 0 0 0 102 36 107 111 39 117 116 41 123 119 42
126 121 43 128 122 44 131 123 44 132 124 45 130 124 45 129 123 44 128
121 44 126 120 43 125 118 43 122 113 40 120 111 39 117 108 38 114 105
37 111 102 36 108 99 35 105 95 34 101 92 32 97 88 31 93 84 30 89 80 28
84 75 27 80 70 25 75 65 23 69 60 21 64 55 19 58 49 17 52 42 15 45 36
13 38 28 10 30 26 9 28 26 9 28 26 9 28 26 9 28 0 0 0 0 0 0 0 0 0 0 0 0
0 0 0 0 0 0 0 0 0 0 0 0 0 0 0 0 0 0 0 0 0 0 0 0 0 0 0 0 0 0 0 0 0 0 0
0 0 0 0 0 0 0 0 0 0 0 0 0 0 0 0 0 0 0 0 0 0 0 0 0 0 0 0 0 0 0 0 0 0 0
0 0 0 0 0 0 0 0 0 0 0 0 0 0 0 0 0
0 0 0 0 0 0 0 0 0 0 0 0 0 0 0 0 0 0 0 0 0 0 0 0 0 0 0 0 0 0 0 0 0 0 0
0 0 0 0 0 0 0 0 0 0 0 0 0 0 0 0 0 0 0 0 0 0 0 0 0 0 0 0 0 0 0 0 0 0 0
0 0 0 0 0 0 0 0 0 0 0 0 0 0 0 0 0 0 0 0 0 0 0 0 0 0 25 63 127 28 71
141 29 73 146 30 74 148 30 75 150 30 75 150 30 75 150 30 75 149 30 74
149 29 74 147 29 73 146 29 72 144 28 71 142 28 70 140 27 69 137 27 67
135 26 66 132 26 64 129 25 63 126 25 61 123 24 60 119 23 58 116 22 56
112 22 54 108 21 52 104 20 50 100 19 48 96 18 46 92 17 43 87 16 41 82
15 39 77 14 36 72 13 33 67 12 31 61 11 28 55 10 24 49 20 25 54 17 21
46 6 15 31 6 15 31 6 15 31 6 15 31 6 15 31 0 0 0 0 0 0 0 0 0 0 0 0 0 0
0 0 0 0 0 0 0 0 0 0 0 0 0 0 0 0 0 0 0 0 0 0 0 0 0 0 0 0 0 0 0 0 0 0 0
0 0 0 0 0 0 0 0 0 0 0 0 0 0 0 0 0 0 0 0 0 0 0 160 128 32 163 131 33
164 131 33 163 131 33 162 129 32 159 127 32 156 125 31 153 122 31 149
119 30 145 116 29 140 112 28 135 108 27 130 104 26 124 99 25 118 94 24
111 89 22 104 83 21 96 77 19 87 70 17 77 61 15 64 51 13 0 0 0 0 0 0 0
0 0 0 0 0 0 0 0 0 0 0 0 0 0 0 0 0 0 0 0 0 0 0 96 34 101 106 37 112 111
39 118 115 40 121 117 41 123 119 43 127 119 43 128 120 44 125 120 43
125 119 43 124 118 43 123 116 42 120 114 41 118 112 41 116 107 38 113
104 37 110 101 36 107 98 35 104 95 34 101 92 32 97 88 31 93 84 30 89
80 28 85 76 27 80 71 25 76 67 24 71 62 22 65 56 20 60 51 18 54 45 16
47 39 14 41 32 11 34 26 9 28 26 9 28 26 9 28 26 9 28 26 9 28 0 0 0 0 0
0 0 0 0 0 0 0 0 0 0 0 0 0 0 0 0 0 0 0 0 0 0 0 0 0 0 0 0 0 0 0 0 0 0 0
0 0 0 0 0 0 0 0 0 0 0 0 0 0 0 0 0 0 0 0 0 0 0 0 0 0 0 0 0 0 0 0 0 0 0
0 0 0 0 0 0 0 0 0 0 0 0 0 0 0 0 0 0 0 0 0 0 0 0
0 0 0 0 0 0 0 0 0 0 0 0 0 0 0 0 0 0 0 0 0 0 0 0 0 0 0 0 0 0 0 0 0 0 0
0 0 0 0 0 0 0 0 0 0 0 0 0 0 0 0 0 0 0 0 0 0 0 0 0 0 0 0 0 0 0 0 0 0 0
0 0 0 0 0 0 0 0 0 0 0 0 0 0 0 0 0 0 0 0 0 0 0 0 0 0 25 63 126 28 69
138 28 71 142 29 72 145 29 73 146 29 73 147 29 73 146 29 73 146 29 72
145 29 72 144 28 71 142 28 70 140 28 69 138 27 68 136 27 67 134 26 65
131 26 64 128 25 63 125 24 61 122 24 60 119 23 58 116 22 56 112 22 54
109 21 52 105 20 50 101 19 48 97 19 46 93 18 44 88 17 42 84 16 39 79
15 37 74 14 34 69 13 32 63 12 29 58 10 26 52 9 23 46 19 24 52 17 20 43
13 18 38 6 15 31 6 15 31 6 15 31 6 15 31 0 0 0 0 0 0 0 0 0 0 0 0 0 0 0
0 0 0 0 0 0 0 0 0 0 0 0 0 0 0 0 0 0 0 0 0 0 0 0 0 0 0 0 0 0 0 0 0 0 0
0 0 0 0 0 0 0 0 0 0 0 0 0 0 0 0 0 0 0 163 131 33 167 133 33 167 134 33
167 133 33 165 132 33 163 130 33 160 128 32 157 126 31 154 123 31 150
120 30 145 116 29 141 113 28 136 109 27 131 104 26 125 100 25 119 95
24 113 90 23 106 85 21 98 79 20 90 72 18 81 65 16 71 57 14 58 47 12 36
29 7 0 0 0 0 0 0 0 0 0 0 0 0 0 0 0 0 0 0 0 0 0 0 0 0 88 31 93 100 35
106 106 38 113 110 39 116 122 41 120 124 42 122 125 42 122 117 42 121
115 42 120 115 42 119 114 41 118 112 40 116 110 40 114 109 39 112 115
38 111 112 37 108 109 36 105 106 35 102 102 34 98 99 33 95 95 31 91 80
28 85 76 27 81 72 25 76 67 24 71 63 22 66 58 20 61 52 18 55 47 16 49
41 14 43 34 12 36 27 10 29 26 9 28 26 9 28 26 9 28 26 9 28 26 9 28 0 0
0 0 0 0 0 0 0 0 0 0 0 0 0 0 0 0 0 0 0 0 0 0 0 0 0 0 0 0 0 0 0 0 0 0 0
0 0 0 0 0 0 0 0 0 0 0 0 0 0 0 0 0 0 0 0 0 0 0 0 0 0 0 0 0 0 0 0 0 0 0
0 0 0 0 0 0 0 0 0 0 0 0 0 0 0 0 0 0 0 0 0 0 0 0 0 0 0
0 0 0 0 0 0 0 0 0 0 0 0 0 0 0 0 0 0 0 0 0 0 0 0 0 0 0 0 0 0 0 0 0 0 0
0 0 0 0 0 0 0 0 0 0 0 0 0 0 0 0 0 0 0 0 0 0 0 0 0 0 0 0 0 0 0 0 0 0 0
0 0 0 0 0 0 0 0 0 0 0 0 0 0 0 0 0 0 0 0 0 0 0 0 0 0 25 62 123 27 67
134 28 69 139 28 71 141 28 71 142 29 71 143 29 71 143 28 71 142 28 71
141 28 70 140 28 69 138 27 68 136 27 67 134 26 66 132 26 65 130 25 64
127 25 62 125 24 61 122 24 59 119 23 58 115 22 56 112 22 54 109 21 52
105 20 51 101 19 49 97 19 47 93 18 45 89 17 42 85 16 40 80 15 38 75 14
35 71 13 33 65 12 30 60 23 37 57 20 32 51 9 21 43 18 22 47 16 19 41 13
18 37 6 15 31 6 15 31 6 15 31 6 15 31 0 0 0 0 0 0 0 0 0 0 0 0 0 0 0 0
0 0 0 0 0 0 0 0 0 0 0 0 0 0 0 0 0 0 0 0 0 0 0 0 0 0 0 0 0 0 0 0 0 0 0
0 0 0 0 0 0 0 0 0 0 0 0 0 0 0 165 132 33 168 135 34 169 136 34 169 135
34 168 134 34 166 133 33 163 131 33 161 128 32 157 126 31 154 123 31
150 120 30 145 116 29 141 113 28 136 109 27 131 104 26 125 100 25 119
95 24 113 90 23 106 85 21 99 79 20 92 73 18 83 67 17 74 59 15 63 51 13
62 44 22 31 24 6 0 0 0 0 0 0 0 0 0 0 0 0 0 0 0 0 0 0 0 0 0 73 26 77 94
33 99 101 36 107 114 39 112 117 40 115 119 40 116 120 40 117 120 40
117 111 40 115 111 40 114 109 40 113 108 39 112 106 38 110 113 38 109
110 37 106 108 36 104 105 35 101 101 34 97 98 33 94 94 31 90 90 30 86
86 29 82 82 27 78 77 26 73 72 24 68 58 21 62 53 19 56 48 17 51 42 15
45 36 13 38 30 10 31 26 9 28 26 9 28 26 9 28 26 9 28 26 9 28 0 0 0 0 0
0 0 0 0 0 0 0 0 0 0 0 0 0 0 0 0 0 0 0 0 0 0 0 0 0 0 0 0 0 0 0 0 0 0 0
0 0 0 0 0 0 0 0 0 0 0 0 0 0 0 0 0 0 0 0 0 0 0 0 0 0 0 0 0 0 0 0 0 0 0
0 0 0 0 0 0 0 0 0 0 0 0 0 0 0 0 0 0 0 0 0 0 0 0 0 0 0
0 0 0 0 0 0 0 0 0 0 0 0 0 0 0 0 0 0 0 0 0 0 0 0 0 0 0 0 0 0 0 0 0 0 0
0 0 0 0 0 0 0 0 0 0 0 0 0 0 0 0 0 0 0 0 0 0 0 0 0 0 0 0 0 0 0 0 0 0 0
0 0 0 0 0 0 0 0 0 0 0 0 0 0 0 0 0 0 0 0 0 0 0 0 0 0 24 60 119 26 65
130 27 67 135 27 68 137 28 69 138 28 69 139 28 69 139 28 69 138 27 69
137 27 68 136 27 67 134 26 66 132 26 65 130 26 64 128 25 63 126 25 62
123 24 60 121 24 59 118 23 57 115 22 56 112 22 54 108 21 52 105 20 51
101 19 49 97 19 47 94 18 45 90 17 43 85 16 41 81 15 38 77 14 36 72 13
33 67 12 31 62 25 39 59 22 35 53 19 31 47 15 26 41 15 19 42 14 18 39
11 17 36 6 15 31 6 15 31 6 15 31 6 15 31 0 0 0 0 0 0 0 0 0 0 0 0 0 0 0
0 0 0 0 0 0 0 0 0 0 0 0 0 0 0 0 0 0 0 0 0 0 0 0 0 0 0 0 0 0 0 0 0 0 0
0 0 0 0 0 0 0 0 0 0 0 0 0 164 131 33 169 135 34 170 136 34 170 136 34
170 136 34 168 134 34 166 133 33 163 130 33 160 128 32 157 125 31 153
122 31 149 119 30 145 116 29 140 112 28 135 108 27 130 104 26 124 100
25 119 95 24 113 90 23 106 85 21 99 79 20 92 74 18 84 67 17 75 60 15
66 53 13 66 48 22 52 37 20 0 0 0 0 0 0 0 0 0 0 0 0 0 0 0 0 0 0 0 0 0 0
0 0 86 30 91 103 35 101 108 36 106 104 36 108 106 37 109 107 37 110
115 39 112 115 38 112 106 38 109 104 38 108 103 37 107 102 37 105 109
37 105 106 36 102 103 34 99 100 33 96 97 32 93 93 31 89 90 30 85 86 28
82 82 27 77 77 26 73 73 24 68 68 22 64 63 21 58 58 19 53 43 15 46 37
13 40 31 11 33 26 9 28 26 9 28 26 9 28 26 9 28 26 9 28 26 9 28 0 0 0 0
0 0 0 0 0 0 0 0 0 0 0 0 0 0 0 0 0 0 0 0 0 0 0 0 0 0 0 0 0 0 0 0 0 0 0
0 0 0 0 0 0 0 0 0 0 0 0 0 0 0 0 0 0 0 0 0 0 0 0 0 0 0 0 0 0 0 0 0 0 0
0 0 0 0 0 0 0 0 0 0 0 0 0 0 0 0 0 0 0 0 0 0 0 0 0 0 0 0
0 0 0 0 0 0 0 0 0 0 0 0 0 0 0 0 0 0 0 0 0 0 0 0 0 0 0 0 0 0 0 0 0 0 0
0 0 0 0 0 0 0 0 0 0 0 0 0 0 0 0 0 0 0 0 0 0 0 0 0 0 0 0 0 0 0 0 0 0 0
0 0 0 0 0 0 0 0 0 0 0 0 0 0 0 0 0 0 0 0 0 0 0 0 0 0 23 57 113 25 63
125 26 65 130 26 66 132 27 67 134 27 67 134 27 67 134 27 67 134 27 66
133 26 66 132 26 65 130 26 64 128 25 63 126 25 62 124 24 61 122 24 60
119 23 58 117 23 57 114 22 55 111 22 54 108 21 52 104 20 50 101 19 49
97 19 47 94 18 45 90 17 43 86 16 41 82 15 39 77 15 36 73 14 34 68 13
32 63 24 39 61 23 37 55 21 33 50 18 28 43 14 24 37 10 18 31 12 17 36 9
16 33 6 15 31 6 15 31 6 15 31 6 15 31 0 0 0 0 0 0 0 0 0 0 0 0 0 0 0 0
0 0 0 0 0 0 0 0 0 0 0 0 0 0 0 0 0 0 0 0 0 0 0 0 0 0 0 0 0 0 0 0 0 0 0
0 0 0 0 0 0 0 0 0 162 129 32 168 134 34 170 136 34 171 137 34 170 136
34 169 135 34 167 134 33 165 132 33 162 130 32 159 127 32 155 124 31
152 121 30 148 118 30 143 115 29 139 111 28 134 107 27 129 103 26 123
99 25 118 94 24 112 89 22 105 84 21 99 79 20 92 73 18 84 67 17 76 61
15 67 53 13 57 45 11 56 40 21 41 28 17 0 0 0 0 0 0 0 0 0 0 0 0 0 0 0 0
0 0 0 0 0 75 26 79 95 32 93 95 33 98 98 34 101 100 35 103 101 35 104
109 37 106 109 37 106 109 37 105 108 37 105 108 37 104 106 37 103 104
36 100 101 35 97 98 33 94 95 32 91 92 30 87 88 29 84 85 28 80 81 27 76
77 25 72 73 24 68 68 22 63 63 21 58 58 19 53 53 17 48 47 15 42 41 13
36 26 9 28 26 9 28 26 9 28 26 9 28 26 9 28 26 9 28 26 9 28 0 0 0 0 0 0
0 0 0 0 0 0 0 0 0 0 0 0 0 0 0 0 0 0 0 0 0 0 0 0 0 0 0 0 0 0 0 0 0 0 0
0 0 0 0 0 0 0 0 0 0 0 0 0 0 0 0 0 0 0 0 0 0 0 0 0 0 0 0 0 0 0 0 0 0 0
0 0 0 0 0 0 0 0 0 0 0 0 0 0 0 0 0 0 0 0 0 0 0 0 0 0
0 0 0 0 0 0 0 0 0 0 0 0 0 0 0 0 0 0 0 0 0 0 0 0 0 0 0 0 0 0 0 0 0 0 0
0 0 0 0 0 0 0 0 0 0 0 0 0 0 0 0 0 0 0 0 0 0 0 0 0 0 0 0 0 0 0 0 0 0 0
0 0 0 0 0 0 0 0 0 0 0 0 0 0 0 0 0 0 0 0 0 0 0 0 0 0 21 52 104 24 60
120 25 63 125 26 64 128 26 65 129 26 65 130 26 65 130 26 65 129 26 64
128 25 64 127 25 63 126 25 62 124 24 61 122 24 60 120 24 59 118 23 58
115 22 56 112 22 55 110 21 53 107 21 52 104 20 50 100 19 48 97 19 47
93 18 45 90 17 43 86 16 41 82 16 39 78 15 37 73 14 34 69 13 32 64 12
30 59 23 37 57 22 34 51 19 30 46 16 26 40 13 21 33 9 18 31 9 16 33 6
15 31 6 15 31 6 15 31 6 15 31 6 15 31 0 0 0 0 0 0 0 0 0 0 0 0 0 0 0 0
0 0 0 0 0 0 0 0 0 0 0 0 0 0 0 0 0 0 0 0 0 0 0 0 0 0 0 0 0 0 0 0 0 0 0
0 0 0 0 0 0 156 124 31 166 133 33 169 135 34 170 136 34 170 136 34 169
136 34 168 134 34 166 133 33 163 131 33 160 128 32 157 126 31 154 123
31 150 120 30 146 117 29 142 113 28 137 110 27 132 106 26 127 102 25
122 97 24 116 93 23 110 88 22 104 83 21 98 78 20 91 73 18 83 67 17 75
60 15 67 53 13 57 46 11 55 40 18 45 31 18 40 28 16 0 0 0 0 0 0 0 0 0 0
0 0 0 0 0 0 0 0 0 0 0 77 27 82 87 30 90 91 32 94 94 33 97 95 33 98 103
35 100 103 35 100 103 34 99 102 35 99 102 35 98 101 35 97 99 34 95 96
33 92 93 31 89 90 30 85 86 29 82 83 27 79 79 26 75 76 25 71 72 23 67
67 22 63 63 20 58 58 19 53 53 17 48 48 15 42 42 13 36 36 11 30 34 11
29 26 9 28 26 9 28 26 9 28 26 9 28 26 9 28 0 0 0 0 0 0 0 0 0 0 0 0 0 0
0 0 0 0 0 0 0 0 0 0 0 0 0 0 0 0 0 0 0 0 0 0 0 0 0 0 0 0 0 0 0 0 0 0 0
0 0 0 0 0 0 0 0 0 0 0 0 0 0 0 0 0 0 0 0 0 0 0 0 0 0 0 0 0 0 0 0 0 0 0
0 0 0 0 0 0 0 0 0 0 0 0 0 0 0 0 0 0 0 0 0
0 0 0 0 0 0 0 0 0 0 0 0 0 0 0 0 0 0 0 0 0 0 0 0 0 0 0 0 0 0 0 0 0 0 0
0 0 0 0 0 0 0 0 0 0 0 0 0 0 0 0 0 0 0 0 0 0 0 0 0 0 0 0 0 0 0 0 0 0 0
0 0 0 0 0 0 0 0 0 0 0 0 0 0 0 0 0 0 0 0 0 0 0 0 0 0 0 0 0 23 57 114 24
60 120 25 61 123 25 62 124 25 62 125 25 63 125 25 62 125 25 62 124 25
61 123 24 61 121 24 60 120 24 59 118 23 58 116 23 57 113 22 55 111 22
54 108 21 53 105 20 51 102 20 50 99 19 48 96 19 46 93 18 45 89 17 43
85 16 41 82 16 39 78 15 37 73 14 35 69 13 32 65 12 30 60 11 28 55 21
34 52 19 31 47 17 27 41 14 23 35 11 19 32 9 17 31 6 15 31 6 15 31 6 15
31 6 15 31 6 15 31 6 15 31 0 0 0 0 0 0 0 0 0 0 0 0 0 0 0 0 0 0 0 0 0 0
0 0 0 0 0 0 0 0 0 0 0 0 0 0 0 0 0 0 0 0 0 0 0 0 0 0 0 0 0 0 0 0 0 0 0
161 129 32 167 135 36 169 135 34 169 136 34 169 135 34 168 134 34 166
133 33 164 131 33 162 129 32 159 127 32 156 125 31 152 121 30 148 118
30 144 115 29 140 112 28 135 108 27 130 104 26 125 100 25 120 96 24
114 91 23 109 87 22 102 82 20 96 77 19 89 71 18 82 66 16 74 59 15 66
53 13 57 46 11 47 38 9 45 32 17 40 28 17 0 0 0 0 0 0 0 0 0 0 0 0 0 0 0
0 0 0 0 0 0 64 23 68 78 27 80 83 29 86 87 30 89 88 31 91 97 32 93 97
32 93 97 32 93 96 32 92 95 32 91 94 32 90 92 32 88 90 31 86 87 29 83
84 28 80 81 27 76 77 25 73 74 24 69 70 23 65 66 22 61 62 20 57 57 18
52 52 17 47 47 15 42 42 13 36 36 11 30 35 11 29 35 11 29 34 11 29 26 9
28 26 9 28 26 9 28 0 0 0 0 0 0 0 0 0 0 0 0 0 0 0 0 0 0 0 0 0 0 0 0 0 0
0 0 0 0 0 0 0 0 0 0 0 0 0 0 0 0 0 0 0 0 0 0 0 0 0 0 0 0 0 0 0 0 0 0 0
0 0 0 0 0 0 0 0 0 0 0 0 0 0 0 0 0 0 0 0 0 0 0 0 0 0 0 0 0 0 0 0 0 0 0
0 0 0 0 0 0 0 0 0 0 0 0
0 0 0 0 0 0 0 0 0 0 0 0 0 0 0 0 0 0 0 0 0 0 0 0 0 0 0 0 0 0 0 0 0 0 0
0 0 0 0 0 0 0 0 0 0 0 0 0 0 0 0 0 0 0 0 0 0 0 0 0 0 0 0 0 0 0 0 0 0 0
0 0 0 0 0 0 0 0 0 0 0 0 0 0 0 0 0 0 0 0 0 0 0 0 0 0 0 0 0 21 54 107 23
57 114 23 59 117 24 59 119 24 60 120 24 60 120 24 60 120 24 59 119 24
59 118 23 58 117 23 57 115 23 57 113 22 56 111 22 54 109 21 53 106 21
52 104 20 50 101 20 49 98 19 47 95 18 46 92 18 44 88 17 42 85 16 41 81
15 39 77 15 37 73 14 35 69 13 32 65 12 30 60 21 30 57 20 27 53 19 30
48 18 27 42 15 24 37 13 20 32 10 18 31 9 17 31 14 17 32 6 15 31 6 15
31 6 15 31 6 15 31 6 15 31 0 0 0 0 0 0 0 0 0 0 0 0 0 0 0 0 0 0 0 0 0 0
0 0 0 0 0 0 0 0 0 0 0 0 0 0 0 0 0 0 0 0 0 0 0 0 0 0 0 0 0 0 0 0 152
122 30 163 131 35 167 135 38 168 134 34 168 134 34 167 134 33 166 133
33 164 131 33 162 130 33 168 136 41 190 159 65 165 135 43 150 120 30
146 116 29 141 113 28 137 110 27 133 106 27 128 102 26 123 98 25 118
94 24 112 90 22 106 85 21 100 80 20 94 75 19 87 70 17 80 64 16 73 58
15 65 52 13 56 45 11 46 37 9 42 31 14 40 28 16 40 28 15 0 0 0 0 0 0 0
0 0 0 0 0 0 0 0 0 0 0 0 0 0 72 24 69 74 26 76 78 27 81 88 29 84 89 30
86 90 30 86 90 30 86 89 30 85 88 29 84 79 27 81 85 29 81 83 28 79 81
27 76 78 26 73 75 25 70 71 23 67 68 22 63 64 21 59 60 19 55 56 18 50
51 16 46 46 15 41 41 13 35 35 11 29 35 11 29 35 11 29 35 11 29 34 11
29 26 9 28 26 9 28 26 9 28 0 0 0 0 0 0 0 0 0 0 0 0 0 0 0 0 0 0 0 0 0 0
0 0 0 0 0 0 0 0 0 0 0 0 0 0 0 0 0 0 0 0 0 0 0 0 0 0 0 0 0 0 0 0 0 0 0
0 0 0 0 0 0 0 0 0 0 0 0 0 0 0 0 0 0 0 0 0 0 0 0 0 0 0 0 0 0 0 0 0 0 0
0 0 0 0 0 0 0 0 0 0 0 0 0 0 0 0
0 0 0 0 0 0 0 0 0 0 0 0 0 0 0 0 0 0 0 0 0 0 0 0 0 0 0 0 0 0 0 0 0 0 0
0 0 0 0 0 0 0 0 0 0 0 0 0 0 0 0 0 0 0 0 0 0 0 0 0 0 0 0 0 0 0 0 0 0 0
0 0 0 0 0 0 0 0 0 0 0 0 0 0 0 0 0 0 0 0 0 0 0 0 0 0 0 0 0 20 50 99 22
54 108 22 56 111 23 57 113 23 57 114 23 57 115 23 57 115 23 57 114 23
56 113 22 56 112 22 55 110 22 54 108 21 53 106 21 52 104 20 51 102 20
50 99 19 48 96 19 47 93 18 45 90 31 46 89 30 44 86 29 42 82 28 40 79
27 38 75 25 36 71 24 34 67 23 32 62 22 30 58 21 27 53 20 25 48 19 22
43 14 23 38 12 19 32 10 18 31 9 17 31 15 17 32 15 17 32 15 17 32 15 17
32 14 17 32 6 15 31 6 15 31 0 0 0 0 0 0 0 0 0 0 0 0 0 0 0 0 0 0 0 0 0
0 0 0 0 0 0 0 0 0 0 0 0 0 0 0 0 0 0 0 0 0 0 0 0 0 0 0 0 0 0 0 0 0 156
125 31 163 131 35 166 135 39 166 133 33 166 133 33 165 132 33 164 131
33 162 129 32 163 132 36 255 226 132 255 255 233 194 164 74 148 118 30
143 114 29 139 111 28 135 108 27 130 104 26 125 100 25 120 96 24 115
92 23 110 88 22 104 83 21 98 78 20 92 73 18 85 68 17 78 63 16 71 57 14
63 50 13 54 44 11 45 36 9 35 28 7 39 27 15 39 28 15 0 0 0 0 0 0 0 0 0
0 0 0 0 0 0 0 0 0 0 0 0 0 0 0 63 22 64 69 24 71 79 26 75 81 27 77 82
27 78 83 27 78 75 26 77 74 26 76 73 25 74 71 24 73 69 24 70 67 23 68
71 23 66 68 22 63 65 21 60 62 20 56 58 19 52 54 17 48 49 16 44 45 14
39 40 12 34 35 11 29 35 11 29 35 11 29 35 11 29 35 11 29 34 11 29 26 9
28 26 9 28 0 0 0 0 0 0 0 0 0 0 0 0 0 0 0 0 0 0 0 0 0 0 0 0 0 0 0 0 0 0
0 0 0 0 0 0 0 0 0 0 0 0 0 0 0 0 0 0 0 0 0 0 0 0 0 0 0 0 0 0 0 0 0 0 0
0 0 0 0 0 0 0 0 0 0 0 0 0 0 0 0 0 0 0 0 0 0 0 0 0 0 0 0 0 0 0 0 0 0 0
0 0 0 0 0 0 0 0 0 0 0
0 0 0 0 0 0 0 0 0 0 0 0 0 0 0 0 0 0 0 0 0 0 0 0 0 0 0 0 0 0 0 0 0 0 0
0 0 0 0 0 0 0 0 0 0 0 0 0 0 0 0 0 0 0 0 0 0 0 0 0 0 0 0 0 0 0 0 0 0 0
0 0 0 0 0 0 0 0 0 0 0 0 0 0 0 0 0 0 0 0 0 0 0 0 0 0 0 0 0 18 44 88 20
50 100 21 53 105 22 54 108 22 54 109 22 55 109 22 55 109 22 54 109 22
54 108 21 53 107 21 53 105 21 52 103 20 51 101 20 50 99 33 51 99 33 50
97 32 48 94 31 47 91 30 45 88 29 43 85 29 42 81 28 40 78 27 38 74 26
36 70 25 34 66 24 32 62 23 30 58 21 28 53 20 25 49 19 23 44 18 20 39
17 18 33 9 17 31 9 17 31 9 16 31 9 16 31 9 16 31 15 17 32 15 17 32 15
17 32 6 15 31 6 15 31 0 0 0 0 0 0 0 0 0 0 0 0 0 0 0 0 0 0 0 0 0 0 0 0
0 0 0 0 0 0 0 0 0 0 0 0 0 0 0 0 0 0 0 0 0 0 0 0 0 0 0 135 108 27 156
126 34 161 130 35 164 134 40 164 131 33 163 131 33 162 130 32 161 129
32 159 127 32 165 134 40 255 234 141 255 250 160 165 135 47 144 115 29
140 112 28 136 109 27 132 105 26 127 102 25 122 98 24 117 94 23 112 90
22 107 85 21 101 81 20 95 76 19 89 71 18 83 66 17 76 61 15 68 55 14 61
49 12 52 42 10 43 35 9 33 27 7 36 26 12 39 27 14 34 26 10 0 0 0 0 0 0
0 0 0 0 0 0 0 0 0 0 0 0 0 0 0 41 14 43 63 21 59 69 23 65 72 24 68 74
24 69 75 24 70 67 23 69 67 23 68 65 23 67 64 22 65 62 21 63 60 21 61
57 20 58 54 19 55 58 19 53 55 18 49 51 16 45 47 15 41 42 13 36 38 12
31 35 11 29 35 11 29 35 11 29 35 11 29 35 11 29 35 11 29 29 10 28 26 9
28 0 0 0 0 0 0 0 0 0 0 0 0 0 0 0 0 0 0 0 0 0 0 0 0 0 0 0 0 0 0 0 0 0 0
0 0 0 0 0 0 0 0 0 0 0 0 0 0 0 0 0 0 0 0 0 0 0 0 0 0 0 0 0 0 0 0 0 0 0
0 0 0 0 0 0 0 0 0 0 0 0 0 0 0 0 0 0 0 0 0 0 0 0 0 0 0 0 0 0 0 0 0 0 0
0 0 0 0 0 0 0 0 0 0
0 0 0 0 0 0 0 0 0 0 0 0 0 0 0 0 0 0 0 0 0 0 0 0 0 0 0 0 0 0 0 0 0 0 0
0 0 0 0 0 0 0 0 0 0 0 0 0 0 0 0 0 0 0 0 0 0 0 0 0 0 0 0 0 0 0 0 0 0 0
0 0 0 0 0 0 0 0 0 0 0 0 0 0 0 0 0 0 0 0 0 0 0 0 0 0 0 0 0 0 0 0 18 46
92 20 49 98 20 51 101 21 51 103 21 52 104 21 52 104 21 52 103 20 51
102 20 51 101 34 52 102 33 51 101 33 50 99 32 49 96 32 48 94 31 47 92
31 46 89 30 44 86 29 43 83 28 41 80 27 39 76 27 38 73 26 36 69 25 34
65 24 32 61 23 30 57 22 27 53 21 25 48 20 23 44 18 20 39 17 18 34 17
17 32 17 17 32 9 16 31 9 16 31 9 16 31 9 16 31 16 17 32 15 17 32 15 17
32 6 15 31 0 0 0 0 0 0 0 0 0 0 0 0 0 0 0 0 0 0 0 0 0 0 0 0 0 0 0 0 0 0
0 0 0 0 0 0 0 0 0 0 0 0 0 0 0 0 0 0 0 0 0 0 0 0 144 115 29 156 125 34
159 129 35 164 134 42 161 129 32 160 128 32 159 127 32 158 126 32 156
125 31 155 124 33 165 135 44 158 128 40 145 116 30 141 112 28 137 109
27 133 106 27 128 103 26 124 99 25 119 95 24 114 91 23 109 87 22 104
83 21 98 79 20 92 74 18 86 69 17 80 64 16 73 58 15 66 53 13 58 47 12
50 40 10 41 33 8 31 25 6 31 24 6 38 27 13 38 27 13 0 0 0 0 0 0 0 0 0 0
0 0 0 0 0 0 0 0 0 0 0 0 0 0 34 12 36 56 18 51 61 20 56 64 21 59 65 21
60 59 20 60 58 20 59 57 20 58 56 19 57 54 19 55 52 18 53 50 17 50 47
16 47 44 15 44 40 14 40 43 14 37 39 12 33 36 11 29 35 11 29 35 11 29
35 11 29 35 11 29 35 11 29 35 11 29 29 10 28 26 9 28 0 0 0 0 0 0 0 0 0
0 0 0 0 0 0 0 0 0 0 0 0 0 0 0 0 0 0 0 0 0 0 0 0 0 0 0 0 0 0 0 0 0 0 0
0 0 0 0 0 0 0 0 0 0 0 0 0 0 0 0 0 0 0 0 0 0 0 0 0 0 0 0 0 0 0 0 0 0 0
0 0 0 0 0 0 0 0 0 0 0 0 0 0 0 0 0 0 0 0 0 0 0 0 0 0 0 0 0 0 0 0 0 0 0
0 0 0
0 0 0 0 0 0 0 0 0 0 0 0 0 0 0 0 0 0 0 0 0 0 0 0 0 0 0 0 0 0 0 0 0 0 0
0 0 0 0 0 0 0 0 0 0 0 0 0 0 0 0 0 0 0 0 0 0 0 0 0 0 0 0 0 0 0 0 0 0 0
0 0 0 0 0 0 0 0 0 0 0 0 0 0 0 0 0 0 0 0 0 0 0 0 0 0 0 0 0 0 0 0 16 41
81 18 45 90 19 47 94 19 48 96 19 49 97 20 49 98 19 49 97 32 51 99 32
50 98 32 49 97 32 49 95 32 48 93 31 47 91 31 46 89 30 44 86 29 43 84
29 42 81 28 40 78 27 38 75 26 37 71 25 35 68 25 33 64 24 31 60 23 29
56 22 27 52 21 25 48 20 23 43 19 20 39 17 18 34 17 17 32 17 17 32 17
17 32 9 16 31 9 16 31 9 16 31 16 17 32 16 17 32 15 17 32 15 17 32 6 15
31 0 0 0 0 0 0 0 0 0 0 0 0 0 0 0 0 0 0 0 0 0 0 0 0 0 0 0 0 0 0 0 0 0 0
0 0 0 0 0 0 0 0 0 0 0 0 0 0 0 0 0 0 0 0 144 115 29 153 123 33 156 126
35 159 130 40 158 126 32 157 126 31 156 125 31 154 123 31 152 122 30
150 120 30 147 118 30 144 115 29 141 112 28 137 110 27 133 107 27 129
103 26 125 100 25 121 96 24 116 93 23 111 89 22 106 85 21 101 80 20 95
76 19 89 71 18 83 66 17 77 61 15 70 56 14 63 50 13 55 44 11 47 38 9 38
31 8 31 24 6 31 24 6 35 26 11 36 26 12 0 0 0 0 0 0 0 0 0 0 0 0 0 0 0 0
0 0 0 0 0 0 0 0 0 0 0 0 0 0 46 15 41 52 17 46 54 17 49 56 18 50 49 17
49 48 17 49 47 16 48 46 16 46 44 15 44 41 14 41 39 13 38 36 12 35 32
11 31 29 10 28 29 10 28 35 11 29 35 11 29 35 11 29 35 11 29 35 11 29
35 11 29 29 10 28 26 9 28 0 0 0 0 0 0 0 0 0 0 0 0 0 0 0 0 0 0 0 0 0 0
0 0 0 0 0 0 0 0 0 0 0 0 0 0 0 0 0 0 0 0 0 0 0 0 0 0 0 0 0 0 0 0 0 0 0
0 0 0 0 0 0 0 0 0 0 0 0 0 0 0 0 0 0 0 0 0 0 0 0 0 0 0 0 0 0 0 0 0 0 0
0 0 0 0 0 0 0 0 0 0 0 0 0 0 0 0 0 0 0 0 0 0 0 0 0 0 0 0
0 0 0 0 0 0 0 0 0 0 0 0 0 0 0 0 0 0 0 0 0 0 0 0 0 0 0 0 0 0 0 0 0 0 0
0 0 0 0 0 0 0 0 0 0 0 0 0 0 0 0 0 0 0 0 0 0 0 0 0 0 0 0 0 0 0 0 0 0 0
0 0 0 0 0 0 0 0 0 0 0 0 0 0 0 0 0 0 0 0 0 0 0 0 0 0 0 0 0 0 0 0 0 0 0
16 40 81 17 43 86 18 45 89 18 45 91 31 48 93 31 48 93 31 48 93 31 47
92 31 47 91 30 46 89 30 45 88 30 44 86 30 43 84 29 42 81 28 41 79 28
39 76 27 38 73 26 36 69 25 34 66 24 32 63 23 31 59 23 29 55 22 27 51
21 25 47 20 22 43 19 20 38 18 18 34 17 17 33 17 17 32 17 17 32 17 17
32 17 17 32 16 17 32 16 17 32 16 17 32 16 17 32 9 16 31 9 16 31 6 15
31 0 0 0 0 0 0 0 0 0 0 0 0 0 0 0 0 0 0 0 0 0 0 0 0 0 0 0 0 0 0 0 0 0 0
0 0 0 0 0 0 0 0 0 0 0 0 0 0 0 0 0 0 0 0 143 115 31 150 121 32 153 124
34 156 128 40 154 123 31 153 123 31 152 122 30 151 120 30 148 119 30
146 117 29 143 115 29 140 112 28 137 110 27 133 107 27 130 104 26 126
100 25 121 97 24 117 94 23 112 90 22 107 86 21 102 82 20 97 78 19 91
73 18 86 69 17 80 64 16 73 59 15 67 53 13 59 48 12 52 42 10 44 35 9 35
28 7 31 24 6 31 24 6 31 24 6 35 26 11 0 0 0 0 0 0 0 0 0 0 0 0 0 0 0 0
0 0 0 0 0 0 0 0 0 0 0 0 0 0 0 0 0 35 11 29 40 13 34 43 14 37 45 14 39
38 13 38 37 13 37 36 12 36 34 12 34 32 11 31 29 10 29 29 10 28 29 10
28 29 10 28 29 10 28 29 10 28 29 10 28 35 11 29 35 11 29 29 10 28 29
10 28 0 0 0 0 0 0 0 0 0 0 0 0 0 0 0 0 0 0 0 0 0 0 0 0 0 0 0 0 0 0 0 0
0 0 0 0 0 0 0 0 0 0 0 0 0 0 0 0 0 0 0 0 0 0 0 0 0 0 0 0 0 0 0 0 0 0 0
0 0 0 0 0 0 0 0 0 0 0 0 0 0 0 0 0 0 0 0 0 0 0 0 0 0 0 0 0 0 0 0 0 0 0
0 0 0 0 0 0 0 0 0 0 0 0 0 0 0 0 0 0 0 0 0 0 0 0
0 0 0 0 0 0 0 0 0 0 0 0 0 0 0 0 0 0 0 0 0 0 0 0 0 0 0 0 0 0 0 0 0 0 0
0 0 0 0 0 0 0 0 0 0 0 0 0 0 0 0 0 0 0 0 0 0 0 0 0 0 0 0 0 0 0 0 0 0 0
0 0 0 0 0 0 0 0 0 0 0 0 0 0 0 0 0 0 0 0 0 0 0 0 0 0 0 0 0 0 0 0 0 0 0
14 34 68 16 39 78 16 41 82 29 44 86 29 44 87 29 45 87 29 44 87 29 44
86 29 44 85 29 43 84 29 42 82 29 42 80 29 41 79 28 40 76 28 38 74 27
37 71 26 35 68 25 33 64 24 31 61 23 30 57 22 28 54 21 26 50 21 24 46
20 22 42 19 20 37 18 17 33 17 17 33 17 17 33 17 17 32 17 17 32 17 17
32 17 17 32 17 17 32 16 17 32 16 17 32 16 17 32 9 16 31 15 17 32 0 0 0
0 0 0 0 0 0 0 0 0 0 0 0 0 0 0 0 0 0 0 0 0 0 0 0 0 0 0 0 0 0 0 0 0 0 0
0 0 0 0 0 0 0 0 0 0 0 0 0 0 0 0 0 0 0 140 112 30 147 118 32 150 121 33
150 120 30 150 120 30 149 120 30 148 119 30 147 117 29 144 116 29 142
114 28 139 111 28 136 109 27 133 106 27 129 104 26 126 101 25 122 97
24 117 94 23 113 90 23 108 87 22 104 83 21 99 79 20 93 75 19 88 70 18
82 66 16 76 61 15 70 56 14 63 50 13 56 45 11 48 39 10 40 32 8 32 26 6
31 24 6 31 24 6 31 24 6 34 25 9 0 0 0 0 0 0 0 0 0 0 0 0 0 0 0 0 0 0 0
0 0 0 0 0 0 0 0 0 0 0 0 0 0 0 0 0 0 0 0 35 11 29 35 11 29 35 11 29 29
10 28 29 10 28 29 10 28 29 10 28 29 10 28 29 10 28 29 10 28 29 10 28
29 10 28 29 10 28 35 11 29 35 11 29 29 10 28 0 0 0 0 0 0 0 0 0 0 0 0 0
0 0 0 0 0 0 0 0 0 0 0 0 0 0 0 0 0 0 0 0 0 0 0 0 0 0 0 0 0 0 0 0 0 0 0
0 0 0 0 0 0 0 0 0 0 0 0 0 0 0 0 0 0 0 0 0 0 0 0 0 0 0 0 0 0 0 0 0 0 0
0 0 0 0 0 0 0 0 0 0 0 0 0 0 0 0 0 0 0 0 0 0 0 0 0 0 0 0 0 0 0 0 0 0 0
0 0 0 0 0 0 0 0 0 0 0 0 0 0
0 0 0 0 0 0 0 0 0 0 0 0 0 0 0 0 0 0 0 0 0 0 0 0 0 0 0 0 0 0 0 0 0 0 0
0 0 0 0 0 0 0 0 0 0 0 0 0 0 0 0 0 0 0 0 0 0 0 0 0 0 0 0 0 0 0 0 0 0 0
0 0 0 0 0 0 0 0 0 0 0 0 0 0 0 0 0 0 0 0 0 0 0 0 0 0 0 0 0 0 0 0 0 0 0
0 0 0 13 33 67 15 36 73 27 40 78 27 41 79 28 41 80 28 41 80 28 41 79
28 40 79 28 40 77 28 39 76 28 39 75 28 38 73 28 38 71 27 36 69 26 35
66 25 33 62 24 31 59 23 29 55 22 27 52 21 25 48 20 23 44 19 21 40 18
19 36 18 17 33 18 17 33 17 17 33 17 17 33 17 17 32 17 17 32 17 17 32
17 17 32 17 17 32 16 17 32 16 17 32 9 16 31 9 16 31 0 0 0 0 0 0 0 0 0
0 0 0 0 0 0 0 0 0 0 0 0 0 0 0 0 0 0 0 0 0 0 0 0 0 0 0 0 0 0 0 0 0 0 0
0 0 0 0 0 0 0 0 0 0 0 0 0 0 0 0 136 109 29 143 114 31 146 117 32 145
116 29 146 117 29 145 116 29 144 115 29 142 114 28 140 112 28 138 110
28 135 108 27 132 106 26 129 103 26 125 100 25 122 97 24 118 94 24 113
91 23 109 87 22 104 83 21 100 80 20 94 76 19 89 71 18 84 67 17 78 62
16 72 58 14 66 53 13 59 47 12 52 42 10 45 36 9 37 29 7 31 24 6 31 24 6
31 24 6 31 24 6 33 25 8 0 0 0 0 0 0 0 0 0 0 0 0 0 0 0 0 0 0 0 0 0 0 0
0 0 0 0 0 0 0 0 0 0 0 0 0 0 0 0 0 0 0 0 0 0 26 9 28 35 11 29 35 11 29
35 11 29 35 11 29 35 11 29 29 10 28 35 11 29 35 11 29 35 11 29 34 11
29 26 9 28 0 0 0 0 0 0 0 0 0 0 0 0 0 0 0 0 0 0 0 0 0 0 0 0 0 0 0 0 0 0
0 0 0 0 0 0 0 0 0 0 0 0 0 0 0 0 0 0 0 0 0 0 0 0 0 0 0 0 0 0 0 0 0 0 0
0 0 0 0 0 0 0 0 0 0 0 0 0 0 0 0 0 0 0 0 0 0 0 0 0 0 0 0 0 0 0 0 0 0 0
0 0 0 0 0 0 0 0 0 0 0 0 0 0 0 0 0 0 0 0 0 0 0 0 0 0 0 0 0 0 0 0 0 0 0
0 0 0
0 0 0 0 0 0 0 0 0 0 0 0 0 0 0 0 0 0 0 0 0 0 0 0 0 0 0 0 0 0 0 0 0 0 0
0 0 0 0 0 0 0 0 0 0 0 0 0 0 0 0 0 0 0 0 0 0 0 0 0 0 0 0 0 0 0 0 0 0 0
0 0 0 0 0 0 0 0 0 0 0 0 0 0 0 0 0 0 0 0 0 0 0 0 0 0 0 0 0 0 0 0 0 0 0
0 0 0 0 0 0 12 31 62 25 35 69 26 37 71 26 37 72 26 37 73 26 37 72 26
37 72 26 36 71 26 36 70 26 36 68 26 35 67 26 35 65 26 33 63 25 32 60
24 30 57 23 28 53 22 26 49 21 24 46 20 22 42 19 20 38 18 18 34 18 17
33 18 17 33 17 17 33 17 17 33 17 17 33 17 17 32 17 17 32 17 17 32 17
17 32 17 17 32 16 17 32 9 16 31 9 16 31 15 17 32 0 0 0 0 0 0 0 0 0 0 0
0 0 0 0 0 0 0 0 0 0 0 0 0 0 0 0 0 0 0 0 0 0 0 0 0 0 0 0 0 0 0 0 0 0 0
0 0 0 0 0 0 0 0 0 0 0 0 0 0 130 105 28 138 111 30 141 113 31 141 113
28 141 113 28 141 112 28 139 111 28 138 110 28 136 109 27 133 107 27
131 104 26 128 102 26 124 99 25 121 97 24 117 94 23 113 91 23 109 87
22 105 84 21 100 80 20 95 76 19 90 72 18 85 68 17 80 64 16 74 59 15 68
54 14 61 49 12 55 44 11 48 38 10 40 32 8 33 26 7 31 24 6 31 24 6 31 24
6 31 24 6 31 24 6 0 0 0 0 0 0 0 0 0 0 0 0 0 0 0 0 0 0 0 0 0 0 0 0 0 0
0 0 0 0 0 0 0 0 0 0 0 0 0 0 0 0 0 0 0 0 0 0 0 0 0 0 0 0 0 0 0 0 0 0 0
0 0 0 0 0 0 0 0 0 0 0 0 0 0 0 0 0 0 0 0 0 0 0 0 0 0 0 0 0 0 0 0 0 0 0
0 0 0 0 0 0 0 0 0 0 0 0 0 0 0 0 0 0 0 0 0 0 0 0 0 0 0 0 0 0 0 0 0 0 0
0 0 0 0 0 0 0 0 0 0 0 0 0 0 0 0 0 0 0 0 0 0 0 0 0 0 0 0 0 0 0 0 0 0 0
0 0 0 0 0 0 0 0 0 0 0 0 0 0 0 0 0 0 0 0 0 0 0 0 0 0 0 0 0 0 0 0 0 0 0
0 0 0 0 0 0 0 0 0 0 0 0 0 0 0 0 0 0
0 0 0 0 0 0 0 0 0 0 0 0 0 0 0 0 0 0 0 0 0 0 0 0 0 0 0 0 0 0 0 0 0 0 0
0 0 0 0 0 0 0 0 0 0 0 0 0 0 0 0 0 0 0 0 0 0 0 0 0 0 0 0 0 0 0 0 0 0 0
0 0 0 0 0 0 0 0 0 0 0 0 0 0 0 0 0 0 0 0 0 0 0 0 0 0 0 0 0 0 0 0 0 0 0
0 0 0 0 0 0 9 23 45 22 30 58 23 32 62 24 33 64 25 33 65 25 34 65 25 33
65 25 33 64 24 32 62 24 32 61 24 31 60 24 31 58 24 30 56 24 28 53 23
27 50 22 25 47 21 23 43 20 21 40 19 19 36 18 17 33 18 17 33 18 17 33
18 17 33 17 17 33 17 17 33 17 17 33 17 17 32 17 17 32 17 17 32 17 17
32 17 17 32 9 16 31 9 16 31 9 16 31 0 0 0 0 0 0 0 0 0 0 0 0 0 0 0 0 0
0 0 0 0 0 0 0 0 0 0 0 0 0 0 0 0 0 0 0 0 0 0 0 0 0 0 0 0 0 0 0 0 0 0 0
0 0 0 0 0 0 0 0 0 0 0 124 99 25 132 106 29 135 109 29 136 109 27 136
109 27 136 108 27 135 108 27 133 106 27 131 105 26 129 103 26 126 101
25 123 98 25 120 96 24 116 93 23 113 90 23 109 87 22 105 84 21 100 80
20 96 76 19 91 73 18 86 69 17 81 64 16 75 60 15 69 55 14 63 51 13 57
46 11 50 40 10 43 35 9 36 29 7 31 24 6 31 24 6 31 24 6 31 24 6 31 24 6
31 24 6 0 0 0 0 0 0 0 0 0 0 0 0 0 0 0 0 0 0 0 0 0 0 0 0 0 0 0 0 0 0 0
0 0 0 0 0 0 0 0 0 0 0 0 0 0 0 0 0 0 0 0 0 0 0 0 0 0 0 0 0 0 0 0 0 0 0
0 0 0 0 0 0 0 0 0 0 0 0 0 0 0 0 0 0 0 0 0 0 0 0 0 0 0 0 0 0 0 0 0 0 0
0 0 0 0 0 0 0 0 0 0 0 0 0 0 0 0 0 0 0 0 0 0 0 0 0 0 0 0 0 0 0 0 0 0 0
0 0 0 0 0 0 0 0 0 0 0 0 0 0 0 0 0 0 0 0 0 0 0 0 0 0 0 0 0 0 0 0 0 0 0
0 0 0 0 0 0 0 0 0 0 0 0 0 0 0 0 0 0 0 0 0 0 0 0 0 0 0 0 0 0 0 0 0 0 0
0 0 0 0 0 0 0 0 0 0 0 0 0
0 0 0 0 0 0 0 0 0 0 0 0 0 0 0 0 0 0 0 0 0 0 0 0 0 0 0 0 0 0 0 0 0 0 0
0 0 0 0 0 0 0 0 0 0 0 0 0 0 0 0 0 0 0 0 0 0 0 0 0 0 0 0 0 0 0 0 0 0 0
0 0 0 0 0 0 0 0 0 0 0 0 0 0 0 0 0 0 0 0 0 0 0 0 0 0 0 0 0 0 0 0 0 0 0
0 0 0 0 0 0 0 0 0 8 20 40 21 26 51 22 28 54 23 29 56 23 29 57 23 29 57
23 29 56 23 29 55 23 28 54 22 27 52 22 27 50 22 26 48 21 24 46 21 23
43 20 21 40 19 19 36 18 18 33 18 17 33 18 17 33 18 17 33 18 17 33 18
17 33 17 17 33 17 17 33 17 17 33 17 17 32 17 17 32 17 17 32 9 16 31 9
16 31 9 16 31 9 16 31 0 0 0 0 0 0 0 0 0 0 0 0 0 0 0 0 0 0 0 0 0 0 0 0
0 0 0 0 0 0 0 0 0 0 0 0 0 0 0 0 0 0 0 0 0 0 0 0 0 0 0 0 0 0 0 0 0 0 0
0 0 0 0 0 0 0 117 94 23 126 101 28 129 103 26 130 104 26 131 105 26
130 104 26 129 103 26 128 102 26 126 101 25 124 99 25 121 97 24 118 94
24 115 92 23 111 89 22 108 86 22 104 83 21 100 80 20 95 76 19 91 73 18
86 69 17 81 65 16 76 61 15 70 56 14 65 52 13 59 47 12 52 42 10 46 37 9
39 31 8 31 25 6 31 24 6 31 24 6 31 24 6 31 24 6 31 24 6 31 24 6 0 0 0
0 0 0 0 0 0 0 0 0 0 0 0 0 0 0 0 0 0 0 0 0 0 0 0 0 0 0 0 0 0 0 0 0 0 0
0 0 0 0 0 0 0 0 0 0 0 0 0 0 0 0 0 0 0 0 0 0 0 0 0 0 0 0 0 0 0 0 0 0 0
0 0 0 0 0 0 0 0 0 0 0 0 0 0 0 0 0 0 0 0 0 0 0 0 0 0 0 0 0 0 0 0 0 0 0
0 0 0 0 0 0 0 0 0 0 0 0 0 0 0 0 0 0 0 0 0 0 0 0 0 0 0 0 0 0 0 0 0 0 0
0 0 0 0 0 0 0 0 0 0 0 0 0 0 0 0 0 0 0 0 0 0 0 0 0 0 0 0 0 0 0 0 0 0 0
0 0 0 0 0 0 0 0 0 0 0 0 0 0 0 0 0 0 0 0 0 0 0 0 0 0 0 0 0 0 0 0 0 0 0
0 0 0 0 0 0
0 0 0 0 0 0 0 0 0 0 0 0 0 0 0 0 0 0 0 0 0 0 0 0 0 0 0 0 0 0 0 0 0 0 0
0 0 0 0 0 0 0 0 0 0 0 0 0 0 0 0 0 0 0 0 0 0 0 0 0 0 0 0 0 0 0 0 0 0 0
0 0 0 0 0 0 0 0 0 0 0 0 0 0 0 0 0 0 0 0 0 0 0 0 0 0 0 0 0 0 0 0 0 0 0
0 0 0 0 0 0 0 0 0 0 0 0 6 16 32 19 22 43 20 24 46 21 25 48 21 25 48 21
25 48 21 25 47 21 24 46 20 23 44 20 22 43 20 21 40 19 20 38 19 19 35
18 18 33 18 17 33 18 17 33 18 17 33 18 17 33 18 17 33 18 17 33 17 17
33 17 17 33 17 17 33 17 17 32 17 17 32 17 17 32 9 16 31 9 16 31 9 16
31 9 16 31 0 0 0 0 0 0 0 0 0 0 0 0 0 0 0 0 0 0 0 0 0 0 0 0 0 0 0 0 0 0
0 0 0 0 0 0 0 0 0 0 0 0 0 0 0 0 0 0 0 0 0 0 0 0 0 0 0 0 0 0 0 0 0 0 0
0 0 0 0 109 87 22 129 97 25 134 100 26 136 102 27 138 102 27 138 102
27 137 101 27 122 98 24 121 96 24 118 95 24 116 93 23 113 90 23 110 88
22 106 85 21 103 82 21 99 79 20 95 76 19 90 72 18 86 69 17 81 65 16 76
61 15 71 57 14 65 52 13 60 48 12 54 43 11 47 38 9 41 33 8 34 27 7 31
24 6 31 24 6 31 24 6 31 24 6 31 24 6 31 24 6 31 24 6 0 0 0 0 0 0 0 0 0
0 0 0 0 0 0 0 0 0 0 0 0 0 0 0 0 0 0 0 0 0 0 0 0 0 0 0 0 0 0 0 0 0 0 0
0 0 0 0 0 0 0 0 0 0 0 0 0 0 0 0 0 0 0 0 0 0 0 0 0 0 0 0 0 0 0 0 0 0 0
0 0 0 0 0 0 0 0 0 0 0 0 0 0 0 0 0 0 0 0 0 0 0 0 0 0 0 0 0 0 0 0 0 0 0
0 0 0 0 0 0 0 0 0 0 0 0 0 0 0 0 0 0 0 0 0 0 0 0 0 0 0 0 0 0 0 0 0 0 0
0 0 0 0 0 0 0 0 0 0 0 0 0 0 0 0 0 0 0 0 0 0 0 0 0 0 0 0 0 0 0 0 0 0 0
0 0 0 0 0 0 0 0 0 0 0 0 0 0 0 0 0 0 0 0 0 0 0 0 0 0 0 0 0 0 0 0 0 0 0
0 0 0 0 0 0 0 0 0 0 0 0 0 0 0 0 0 0 0 0 0 0 0 0 0 0 0 0 0 0 0 0 0 0 0
0 0 0 0 0 0 0 0 0 0 0 0 0 0 0 0 0 0 0 0 0 0 0 0 0 0 0 0 0 0 0 0 0 0 0
0 0 0 0 0 0 0 0 0 0 0 0 0 0 0 0 0 0 0 0 0 0 0 0 0 0 0 0 0 0 0 0 0 0 0
0 0 0 0 0 0 0 0 0 0 0 0 0 0 0 6 15 31 17 17 33 18 19 37 19 20 38 19 20
39 19 20 38 19 20 37 19 19 36 18 18 34 18 17 33 18 17 33 18 17 33 18
17 33 18 17 33 18 17 33 18 17 33 18 17 33 18 17 33 17 17 33 17 17 33
17 17 33 17 17 33 17 17 32 17 17 32 9 16 31 9 16 31 9 16 31 9 16 31 0
0 0 0 0 0 0 0 0 0 0 0 0 0 0 0 0 0 0 0 0 0 0 0 0 0 0 0 0 0 0 0 0 0 0 0
0 0 0 0 0 0 0 0 0 0 0 0 0 0 0 0 0 0 0 0 0 0 0 0 0 0 0 0 0 0 0 0 0 0 0
0 97 77 19 121 90 24 127 95 25 130 96 26 131 97 26 131 97 26 131 97 26
130 96 26 128 94 25 126 93 25 124 91 24 121 88 24 117 86 23 114 83 22
110 80 22 106 77 21 102 74 20 97 70 19 92 67 18 87 63 17 82 59 16 77
54 15 71 50 14 65 45 13 59 41 11 52 35 10 45 30 9 40 26 8 40 26 8 40
26 8 39 26 8 39 26 8 39 26 8 33 25 7 31 24 6 0 0 0 0 0 0 0 0 0 0 0 0 0
0 0 0 0 0 0 0 0 0 0 0 0 0 0 0 0 0 0 0 0 0 0 0 0 0 0 0 0 0 0 0 0 0 0 0
0 0 0 0 0 0 0 0 0 0 0 0 0 0 0 0 0 0 0 0 0 0 0 0 0 0 0 0 0 0 0 0 0 0 0
0 0 0 0 0 0 0 0 0 0 0 0 0 0 0 0 0 0 0 0 0 0 0 0 0 0 0 0 0 0 0 0 0 0 0
0 0 0 0 0 0 0 0 0 0 0 0 0 0 0 0 0 0 0 0 0 0 0 0 0 0 0 0 0 0 0 0 0 0 0
0 0 0 0 0 0 0 0 0 0 0 0 0 0 0 0 0 0 0 0 0 0 0 0 0 0 0 0 0 0 0 0 0 0 0
0 0 0 0 0 0 0 0 0 0 0 0 0 0 0 0 0 0 0 0 0 0 0 0 0 0 0 0 0 0 0
0 0 0 0 0 0 0 0 0 0 0 0 0 0 0 0 0 0 0 0 0 0 0 0 0 0 0 0 0 0 0 0 0 0 0
0 0 0 0 0 0 0 0 0 0 0 0 0 0 0 0 0 0 0 0 0 0 0 0 0 0 0 0 0 0 0 0 0 0 0
0 0 0 0 0 0 0 0 0 0 0 0 0 0 0 0 0 0 0 0 0 0 0 0 0 0 0 0 0 0 0 0 0 0 0
0 0 0 0 0 0 0 0 0 0 0 0 0 0 0 0 0 0 0 0 0 17 17 32 17 17 33 18 17 33
18 17 33 18 17 33 18 17 33 18 17 33 18 17 33 18 17 33 18 17 33 18 17
33 18 17 33 18 17 33 18 17 33 18 17 33 17 17 33 17 17 33 17 17 33 17
17 33 17 17 32 17 17 32 9 16 31 9 16 31 9 16 31 9 16 31 0 0 0 0 0 0 0
0 0 0 0 0 0 0 0 0 0 0 0 0 0 0 0 0 0 0 0 0 0 0 0 0 0 0 0 0 0 0 0 0 0 0
0 0 0 0 0 0 0 0 0 0 0 0 0 0 0 0 0 0 0 0 0 0 0 0 0 0 0 0 0 0 0 0 0 0 0
0 112 83 22 119 89 24 123 91 24 124 92 25 125 92 25 124 92 25 123 91
24 122 89 24 120 88 24 117 86 23 115 84 23 111 81 22 108 79 21 104 76
20 100 73 20 96 69 19 92 66 18 87 62 17 82 58 16 77 54 15 71 50 14 66
46 13 60 41 12 53 36 10 47 31 9 41 26 8 40 26 8 40 26 8 40 26 8 40 26
8 40 26 8 39 26 8 33 25 7 0 0 0 0 0 0 0 0 0 0 0 0 0 0 0 0 0 0 0 0 0 0
0 0 0 0 0 0 0 0 0 0 0 0 0 0 0 0 0 0 0 0 0 0 0 0 0 0 0 0 0 0 0 0 0 0 0
0 0 0 0 0 0 0 0 0 0 0 0 0 0 0 0 0 0 0 0 0 0 0 0 0 0 0 0 0 0 0 0 0 0 0
0 0 0 0 0 0 0 0 0 0 0 0 0 0 0 0 0 0 0 0 0 0 0 0 0 0 0 0 0 0 0 0 0 0 0
0 0 0 0 0 0 0 0 0 0 0 0 0 0 0 0 0 0 0 0 0 0 0 0 0 0 0 0 0 0 0 0 0 0 0
0 0 0 0 0 0 0 0 0 0 0 0 0 0 0 0 0 0 0 0 0 0 0 0 0 0 0 0 0 0 0 0 0 0 0
0 0 0 0 0 0 0 0 0 0 0 0 0 0 0 0 0 0 0 0 0 0 0 0 0
0 0 0 0 0 0 0 0 0 0 0 0 0 0 0 0 0 0 0 0 0 0 0 0 0 0 0 0 0 0 0 0 0 0 0
0 0 0 0 0 0 0 0 0 0 0 0 0 0 0 0 0 0 0 0 0 0 0 0 0 0 0 0 0 0 0 0 0 0 0
0 0 0 0 0 0 0 0 0 0 0 0 0 0 0 0 0 0 0 0 0 0 0 0 0 0 0 0 0 0 0 0 0 0 0
0 0 0 0 0 0 0 0 0 0 0 0 0 0 0 0 0 0 0 0 0 0 0 0 6 15 31 17 17 32 17 17
33 17 17 33 18 17 33 18 17 33 18 17 33 18 17 33 18 17 33 18 17 33 18
17 33 18 17 33 17 17 33 17 17 33 17 17 33 17 17 33 17 17 33 17 17 32 9
16 31 9 16 31 9 16 31 9 16 31 0 0 0 0 0 0 0 0 0 0 0 0 0 0 0 0 0 0 0 0
0 0 0 0 0 0 0 0 0 0 0 0 0 0 0 0 0 0 0 0 0 0 0 0 0 0 0 0 0 0 0 0 0 0 0
0 0 0 0 0 0 0 0 0 0 0 0 0 0 0 0 0 0 0 0 0 0 0 0 0 0 0 0 0 94 73 19 111
82 22 115 85 23 117 86 23 118 87 23 118 86 23 117 86 23 115 85 23 114
83 23 111 81 22 109 79 22 105 77 21 102 74 20 98 71 19 94 68 19 90 65
18 86 61 17 81 58 16 76 54 15 71 50 14 66 46 13 60 41 12 54 36 10 48
32 9 41 26 8 41 26 8 41 26 8 40 26 8 40 26 8 40 26 8 40 26 8 40 26 8
39 26 8 0 0 0 0 0 0 0 0 0 0 0 0 0 0 0 0 0 0 0 0 0 0 0 0 0 0 0 0 0 0 0
0 0 0 0 0 0 0 0 0 0 0 0 0 0 0 0 0 0 0 0 0 0 0 0 0 0 0 0 0 0 0 0 0 0 0
0 0 0 0 0 0 0 0 0 0 0 0 0 0 0 0 0 0 0 0 0 0 0 0 0 0 0 0 0 0 0 0 0 0 0
0 0 0 0 0 0 0 0 0 0 0 0 0 0 0 0 0 0 0 0 0 0 0 0 0 0 0 0 0 0 0 0 0 0 0
0 0 0 0 0 0 0 0 0 0 0 0 0 0 0 0 0 0 0 0 0 0 0 0 0 0 0 0 0 0 0 0 0 0 0
0 0 0 0 0 0 0 0 0 0 0 0 0 0 0 0 0 0 0 0 0 0 0 0 0 0 0 0 0 0 0 0 0 0 0
0 0 0 0 0 0 0 0 0 0 0 0 0 0 0 0
0 0 0 0 0 0 0 0 0 0 0 0 0 0 0 0 0 0 0 0 0 0 0 0 0 0 0 0 0 0 0 0 0 0 0
0 0 0 0 0 0 0 0 0 0 0 0 0 0 0 0 0 0 0 0 0 0 0 0 0 0 0 0 0 0 0 0 0 0 0
0 0 0 0 0 0 0 0 0 0 0 0 0 0 0 0 0 0 0 0 0 0 0 0 0 0 0 0 0 0 0 0 0 0 0
0 0 0 0 0 0 0 0 0 0 0 0 0 0 0 0 0 0 0 0 0 0 0 0 0 0 0 0 0 0 0 0 0 17
17 32 17 17 33 17 17 33 17 17 33 17 17 33 17 17 33 17 17 33 17 17 33
17 17 33 17 17 33 17 17 33 17 17 33 17 17 32 9 16 31 9 16 31 9 16 31 9
16 31 0 0 0 0 0 0 0 0 0 0 0 0 0 0 0 0 0 0 0 0 0 0 0 0 0 0 0 0 0 0 0 0
0 0 0 0 0 0 0 0 0 0 0 0 0 0 0 0 0 0 0 0 0 0 0 0 0 0 0 0 0 0 0 0 0 0 0
0 0 0 0 0 0 0 0 0 0 0 0 0 0 0 0 0 0 0 0 0 0 0 0 0 0 93 72 18 106 78 21
109 80 21 110 81 22 110 81 22 110 80 22 109 79 22 107 78 22 105 77 22
103 75 21 99 72 20 96 69 19 92 66 18 88 63 17 84 60 16 79 56 16 75 53
15 70 49 14 65 45 13 60 41 12 54 36 10 48 32 9 42 27 8 41 26 8 41 26 8
41 26 8 41 26 8 40 26 8 40 26 8 40 26 8 33 25 7 0 0 0 0 0 0 0 0 0 0 0
0 0 0 0 0 0 0 0 0 0 0 0 0 0 0 0 0 0 0 0 0 0 0 0 0 0 0 0 0 0 0 0 0 0 0
0 0 0 0 0 0 0 0 0 0 0 0 0 0 0 0 0 0 0 0 0 0 0 0 0 0 0 0 0 0 0 0 0 0 0
0 0 0 0 0 0 0 0 0 0 0 0 0 0 0 0 0 0 0 0 0 0 0 0 0 0 0 0 0 0 0 0 0 0 0
0 0 0 0 0 0 0 0 0 0 0 0 0 0 0 0 0 0 0 0 0 0 0 0 0 0 0 0 0 0 0 0 0 0 0
0 0 0 0 0 0 0 0 0 0 0 0 0 0 0 0 0 0 0 0 0 0 0 0 0 0 0 0 0 0 0 0 0 0 0
0 0 0 0 0 0 0 0 0 0 0 0 0 0 0 0 0 0 0 0 0 0 0 0 0 0 0 0 0 0 0 0 0 0 0
0 0 0 0
0 0 0 0 0 0 0 0 0 0 0 0 0 0 0 0 0 0 0 0 0 0 0 0 0 0 0 0 0 0 0 0 0 0 0
0 0 0 0 0 0 0 0 0 0 0 0 0 0 0 0 0 0 0 0 0 0 0 0 0 0 0 0 0 0 0 0 0 0 0
0 0 0 0 0 0 0 0 0 0 0 0 0 0 0 0 0 0 0 0 0 0 0 0 0 0 0 0 0 0 0 0 0 0 0
0 0 0 0 0 0 0 0 0 0 0 0 0 0 0 0 0 0 0 0 0 0 0 0 0 0 0 0 0 0 0 0 0 0 0
0 0 0 0 16 17 32 17 17 32 17 17 32 17 17 32 17 17 32 17 17 32 17 17 32
17 17 32 17 17 32 9 16 31 9 16 31 9 16 31 6 15 31 0 0 0 0 0 0 0 0 0 0
0 0 0 0 0 0 0 0 0 0 0 0 0 0 0 0 0 0 0 0 0 0 0 0 0 0 0 0 0 0 0 0 0 0 0
0 0 0 0 0 0 0 0 0 0 0 0 0 0 0 0 0 0 0 0 0 0 0 0 0 0 0 0 0 0 0 0 0 0 0
0 0 0 0 0 0 0 0 0 0 0 0 0 0 0 0 0 0 0 80 62 16 96 70 19 100 73 20 102
74 20 102 75 20 102 74 20 101 74 20 100 73 20 99 72 21 97 70 20 93 68
20 90 65 18 86 61 17 82 58 16 77 55 15 73 51 14 68 48 13 64 44 12 59
40 11 53 36 10 47 31 9 41 26 8 41 26 8 41 26 8 41 26 8 41 26 8 41 26 8
41 26 8 40 26 8 33 25 7 40 26 8 0 0 0 0 0 0 0 0 0 0 0 0 0 0 0 0 0 0 0
0 0 0 0 0 0 0 0 0 0 0 0 0 0 0 0 0 0 0 0 0 0 0 0 0 0 0 0 0 0 0 0 0 0 0
0 0 0 0 0 0 0 0 0 0 0 0 0 0 0 0 0 0 0 0 0 0 0 0 0 0 0 0 0 0 0 0 0 0 0
0 0 0 0 0 0 0 0 0 0 0 0 0 0 0 0 0 0 0 0 0 0 0 0 0 0 0 0 0 0 0 0 0 0 0
0 0 0 0 0 0 0 0 0 0 0 0 0 0 0 0 0 0 0 0 0 0 0 0 0 0 0 0 0 0 0 0 0 0 0
0 0 0 0 0 0 0 0 0 0 0 0 0 0 0 0 0 0 0 0 0 0 0 0 0 0 0 0 0 0 0 0 0 0 0
0 0 0 0 0 0 0 0 0 0 0 0 0 0 0 0 0 0 0 0 0 0 0 0 0 0 0 0 0 0 0
0 0 0 0 0 0 0 0 0 0 0 0 0 0 0 0 0 0 0 0 0 0 0 0 0 0 0 0 0 0 0 0 0 0 0
0 0 0 0 0 0 0 0 0 0 0 0 0 0 0 0 0 0 0 0 0 0 0 0 0 0 0 0 0 0 0 0 0 0 0
0 0 0 0 0 0 0 0 0 0 0 0 0 0 0 0 0 0 0 0 0 0 0 0 0 0 0 0 0 0 0 0 0 0 0
0 0 0 0 0 0 0 0 0 0 0 0 0 0 0 0 0 0 0 0 0 0 0 0 0 0 0 0 0 0 0 0 0 0 0
0 0 0 0 0 0 0 0 0 0 0 0 0 0 0 0 0 0 0 0 0 0 0 0 0 0 0 0 0 0 0 0 0 0 0
0 0 0 0 0 0 0 0 0 0 0 0 0 0 0 0 0 0 0 0 0 0 0 0 0 0 0 0 0 0 0 0 0 0 0
0 0 0 0 0 0 0 0 0 0 0 0 0 0 0 0 0 0 0 0 0 0 0 0 0 0 0 0 0 0 0 0 0 0 0
0 0 0 0 0 0 0 0 0 0 0 0 0 0 0 0 0 0 0 0 0 0 0 0 0 0 0 0 0 0 0 0 0 0 0
0 0 0 0 0 76 59 15 90 65 18 93 67 18 94 68 18 94 68 18 93 67 18 92 67
19 91 66 19 89 64 19 87 62 18 83 59 17 79 56 16 75 53 15 71 49 14 66
46 13 62 42 12 57 38 11 52 34 10 46 30 9 41 26 8 41 26 8 41 26 8 41 26
8 41 26 8 41 26 8 41 26 8 41 26 8 33 25 7 33 25 7 0 0 0 0 0 0 0 0 0 0
0 0 0 0 0 0 0 0 0 0 0 0 0 0 0 0 0 0 0 0 0 0 0 0 0 0 0 0 0 0 0 0 0 0 0
0 0 0 0 0 0 0 0 0 0 0 0 0 0 0 0 0 0 0 0 0 0 0 0 0 0 0 0 0 0 0 0 0 0 0
0 0 0 0 0 0 0 0 0 0 0 0 0 0 0 0 0 0 0 0 0 0 0 0 0 0 0 0 0 0 0 0 0 0 0
0 0 0 0 0 0 0 0 0 0 0 0 0 0 0 0 0 0 0 0 0 0 0 0 0 0 0 0 0 0 0 0 0 0 0
0 0 0 0 0 0 0 0 0 0 0 0 0 0 0 0 0 0 0 0 0 0 0 0 0 0 0 0 0 0 0 0 0 0 0
0 0 0 0 0 0 0 0 0 0 0 0 0 0 0 0 0 0 0 0 0 0 0 0 0 0 0 0 0 0 0 0 0 0 0
0 0 0 0 0 0 0 0
0 0 0 0 0 0 0 0 0 0 0 0 0 0 0 0 0 0 0 0 0 0 0 0 0 0 0 0 0 0 0 0 0 0 0
0 0 0 0 0 0 0 0 0 0 0 0 0 0 0 0 0 0 0 0 0 0 0 0 0 0 0 0 0 0 0 0 0 0 0
0 0 0 0 0 0 0 0 0 0 0 0 0 0 0 0 0 0 0 0 0 0 0 0 0 0 0 0 0 0 0 0 0 0 0
0 0 0 0 0 0 0 0 0 0 0 0 0 0 0 0 0 0 0 0 0 0 0 0 0 0 0 0 0 0 0 0 0 0 0
0 0 0 0 0 0 0 0 0 0 0 0 0 0 0 0 0 0 0 0 0 0 0 0 0 0 0 0 0 0 0 0 0 0 0
0 0 0 0 0 0 0 0 0 0 0 0 0 0 0 0 0 0 0 0 0 0 0 0 0 0 0 0 0 0 0 0 0 0 0
0 0 0 0 0 0 0 0 0 0 0 0 0 0 0 0 0 0 0 0 0 0 0 0 0 0 0 0 0 0 0 0 0 0 0
0 0 0 0 0 0 0 0 0 0 0 0 0 0 0 0 0 0 0 94 16 16 99 17 17 100 17 17 101
17 17 101 17 17 101 17 17 102 17 17 57 44 11 78 56 15 83 59 16 85 61
17 85 61 17 85 61 17 84 60 17 83 59 17 81 58 17 78 56 16 75 53 16 71
50 15 67 47 13 63 44 12 59 40 12 54 37 11 50 33 10 44 29 9 41 26 8 41
26 8 41 26 8 41 26 8 41 26 8 41 26 8 41 26 8 41 26 8 33 25 7 33 25 7
40 26 8 0 0 0 0 0 0 0 0 0 0 0 0 0 0 0 0 0 0 0 0 0 0 0 0 0 0 0 0 0 0 0
0 0 0 0 0 0 0 0 0 0 0 0 0 0 0 0 0 0 0 0 0 0 0 0 0 0 0 0 0 0 0 0 0 0 0
0 0 0 0 0 0 0 0 0 0 0 0 0 0 0 0 0 0 0 0 0 0 0 0 0 0 0 0 0 0 0 0 0 0 0
0 0 0 0 0 0 0 0 0 0 0 0 0 0 0 0 0 0 0 0 0 0 0 0 0 0 0 0 0 0 0 0 0 0 0
0 0 0 0 0 0 0 0 0 0 0 0 0 0 0 0 0 0 0 0 0 0 0 0 0 0 0 0 0 0 0 0 0 0 0
0 0 0 0 0 0 0 0 0 0 0 0 0 0 0 0 0 0 0 0 0 0 0 0 0 0 0 0 0 0 0 0 0 0 0
0 0 0 0 0 0 0 0 0 0 0 0 0 0 0 0 0 0 0 0 0 0
0 0 0 0 0 0 0 0 0 0 0 0 0 0 0 0 0 0 0 0 0 0 0 0 0 0 0 0 0 0 0 0 0 0 0
0 0 0 0 0 0 0 0 0 0 0 0 0 0 0 0 0 0 0 0 0 0 0 0 0 0 0 0 0 0 0 0 0 0 0
0 0 0 0 0 0 0 0 0 0 0 0 0 0 0 0 0 0 0 0 0 0 0 0 0 0 0 0 0 0 0 0 0 0 0
0 0 0 0 0 0 0 0 0 0 0 0 0 0 0 0 0 0 0 0 0 0 0 0 0 0 0 0 0 0 0 0 0 0 0
0 0 0 0 0 0 0 0 0 0 0 0 0 0 0 0 0 0 0 0 0 0 0 0 0 0 0 0 0 0 0 0 0 0 0
0 0 0 0 0 0 0 0 0 0 0 0 0 0 0 0 0 0 0 0 0 0 0 0 0 0 0 0 0 0 0 0 0 0 0
104 18 18 107 18 18 108 19 19 109 19 19 109 19 19 109 19 19 110 19 19
110 19 19 110 19 19 110 19 19 110 19 19 110 19 19 110 19 19 110 19 19
110 19 19 110 19 19 110 19 19 110 19 19 110 19 19 110 19 19 109 19 19
109 19 19 109 19 19 109 19 19 109 19 19 109 19 19 53 41 11 70 49 14 74
52 14 75 53 15 75 53 15 75 53 15 73 52 15 72 50 14 69 48 14 67 46 13
63 44 13 59 41 12 55 37 11 51 34 10 47 30 9 42 27 8 42 26 8 41 26 8 41
26 8 41 26 8 41 26 8 41 26 8 41 26 8 41 26 8 33 25 7 33 25 7 33 25 7
101 17 17 100 17 17 99 17 17 98 17 17 97 17 17 95 16 16 92 16 16 0 0 0
0 0 0 0 0 0 0 0 0 0 0 0 0 0 0 0 0 0 0 0 0 0 0 0 0 0 0 0 0 0 0 0 0 0 0
0 0 0 0 0 0 0 0 0 0 0 0 0 0 0 0 0 0 0 0 0 0 0 0 0 0 0 0 0 0 0 0 0 0 0
0 0 0 0 0 0 0 0 0 0 0 0 0 0 0 0 0 0 0 0 0 0 0 0 0 0 0 0 0 0 0 0 0 0 0
0 0 0 0 0 0 0 0 0 0 0 0 0 0 0 0 0 0 0 0 0 0 0 0 0 0 0 0 0 0 0 0 0 0 0
0 0 0 0 0 0 0 0 0 0 0 0 0 0 0 0 0 0 0 0 0 0 0 0 0 0 0 0 0 0 0 0 0 0 0
0 0 0 0 0 0 0 0 0 0 0 0 0 0 0 0 0 0 0 0 0 0 0 0 0 0 0 0 0 0 0 0
0 0 0 0 0 0 0 0 0 0 0 0 0 0 0 0 0 0 0 0 0 0 0 0 0 0 0 0 0 0 0 0 0 0 0
0 0 0 0 0 0 0 0 0 0 0 0 0 0 0 0 0 0 0 0 0 0 0 0 0 0 0 0 0 0 0 0 0 0 0
0 0 0 0 0 0 0 0 0 0 0 0 0 0 0 0 0 0 0 0 0 0 0 0 0 0 0 0 0 0 0 0 0 0 0
0 0 0 0 0 0 0 0 0 0 0 0 0 0 0 0 0 0 0 0 0 0 0 0 0 0 0 0 0 0 0 0 0 0 0
0 0 0 0 0 0 0 0 0 0 0 0 0 0 0 0 0 0 0 0 0 0 0 0 0 0 0 0 0 0 0 0 0 0 0
0 0 107 18 18 111 19 19 112 19 19 113 19 19 113 19 19 113 19 19 114 19
19 114 20 20 114 20 20 114 20 20 114 20 20 114 20 20 114 20 20 114 20
20 114 20 20 114 20 20 114 20 20 114 20 20 114 20 20 114 20 20 114 20
20 114 20 20 114 19 19 114 19 19 113 19 19 113 19 19 113 19 19 113 19
19 113 19 19 113 19 19 113 19 19 113 19 19 112 19 19 112 19 19 112 19
19 112 19 19 112 19 19 36 6 6 44 34 9 61 42 12 64 44 12 65 45 13 65 45
13 64 44 12 62 43 12 60 41 12 57 39 11 54 36 11 51 34 10 47 31 9 43 27
8 42 26 8 42 26 8 41 26 8 41 26 8 41 26 8 41 26 8 41 26 8 41 26 8 41
26 8 33 25 7 33 25 7 33 25 7 106 18 18 105 18 18 105 18 18 105 18 18
104 18 18 104 18 18 103 18 18 103 18 18 103 18 18 102 18 18 102 17 17
101 17 17 100 17 17 100 17 17 99 17 17 98 17 17 96 17 17 94 16 16 88
15 15 0 0 0 0 0 0 0 0 0 0 0 0 0 0 0 0 0 0 0 0 0 0 0 0 0 0 0 0 0 0 0 0
0 0 0 0 0 0 0 0 0 0 0 0 0 0 0 0 0 0 0 0 0 0 0 0 0 0 0 0 0 0 0 0 0 0 0
0 0 0 0 0 0 0 0 0 0 0 0 0 0 0 0 0 0 0 0 0 0 0 0 0 0 0 0 0 0 0 0 0 0 0
0 0 0 0 0 0 0 0 0 0 0 0 0 0 0 0 0 0 0 0 0 0 0 0 0 0 0 0 0 0 0 0 0 0 0
0 0 0 0 0 0 0 0 0 0 0 0 0 0 0 0 0 0 0 0 0 0 0 0 0 0 0 0 0 0 0 0 0 0 0
0 0 0 0 0
0 0 0 0 0 0 0 0 0 0 0 0 0 0 0 0 0 0 0 0 0 0 0 0 0 0 0 0 0 0 0 0 0 0 0
0 0 0 0 0 0 0 0 0 0 0 0 0 0 0 0 0 0 0 0 0 0 0 0 0 0 0 0 0 0 0 0 0 0 0
0 0 0 0 0 0 0 0 0 0 0 0 0 0 0 0 0 0 0 0 0 0 0 0 0 0 0 0 0 0 0 0 0 0 0
0 0 0 0 0 0 0 0 0 0 0 0 0 0 0 0 0 0 0 0 0 0 0 0 0 0 0 0 0 0 0 0 0 0 0
0 0 0 0 0 0 0 0 0 0 0 0 0 112 19 19 114 20 20 115 20 20 116 20 20 117
20 20 117 20 20 117 20 20 117 20 20 117 20 20 117 20 20 117 20 20 118
20 20 118 20 20 118 20 20 118 20 20 118 20 20 117 20 20 117 20 20 117
20 20 117 20 20 117 20 20 117 20 20 117 20 20 117 20 20 117 20 20 117
20 20 117 20 20 117 20 20 116 20 20 116 20 20 116 20 20 116 20 20 116
20 20 36 6 6 36 6 6 36 6 6 36 6 6 36 6 6 36 6 6 36 6 6 36 6 6 36 6 6
36 6 6 36 6 6 36 6 6 36 6 6 36 6 6 33 25 7 49 33 10 52 35 10 53 36 10
53 36 10 52 35 10 50 33 10 48 31 9 45 29 9 42 26 8 42 26 8 42 26 8 42
26 8 41 26 8 41 26 8 41 26 8 41 26 8 41 26 8 41 26 8 41 26 8 33 25 7
33 25 7 40 26 8 108 19 19 108 19 19 108 18 18 108 18 18 107 18 18 107
18 18 107 18 18 106 18 18 106 18 18 106 18 18 106 18 18 105 18 18 105
18 18 104 18 18 104 18 18 104 18 18 103 18 18 103 18 18 102 18 18 102
17 17 101 17 17 101 17 17 100 17 17 99 17 17 98 17 17 97 17 17 95 16
16 91 16 16 0 0 0 0 0 0 0 0 0 0 0 0 0 0 0 0 0 0 0 0 0 0 0 0 0 0 0 0 0
0 0 0 0 0 0 0 0 0 0 0 0 0 0 0 0 0 0 0 0 0 0 0 0 0 0 0 0 0 0 0 0 0 0 0
0 0 0 0 0 0 0 0 0 0 0 0 0 0 0 0 0 0 0 0 0 0 0 0 0 0 0 0 0 0 0 0 0 0 0
0 0 0 0 0 0 0 0 0 0 0 0 0 0 0 0 0 0 0 0 0 0 0 0 0 0 0 0 0 0 0 0 0 0 0
0 0 0 0 0 0 0 0 0 0 0 0 0 0 0 0 0 0 0
0 0 0 0 0 0 0 0 0 0 0 0 0 0 0 0 0 0 0 0 0 0 0 0 0 0 0 0 0 0 0 0 0 0 0
0 0 0 0 0 0 0 0 0 0 0 0 0 0 0 0 0 0 0 0 0 0 0 0 0 0 0 0 0 0 0 0 0 0 0
0 0 0 0 0 0 0 0 0 0 0 0 0 0 0 0 0 0 0 0 0 0 0 0 0 0 0 0 0 0 0 0 0 0 0
0 0 0 0 0 0 0 0 0 0 0 0 0 0 0 0 0 0 0 0 0 0 0 0 0 0 0 115 20 20 117 20
20 118 20 20 119 20 20 119 20 20 120 21 21 120 21 21 120 21 21 120 21
21 120 21 21 120 21 21 120 21 21 120 21 21 120 21 21 120 21 21 120 21
21 120 21 21 120 21 21 120 21 21 120 21 21 120 21 21 120 21 21 120 21
21 120 21 21 120 21 21 120 21 21 120 21 21 120 21 21 120 20 20 119 20
20 119 20 20 119 20 20 119 20 20 119 20 20 36 6 6 36 6 6 36 6 6 36 6 6
36 6 6 36 6 6 36 6 6 36 6 6 36 6 6 36 6 6 36 6 6 36 6 6 36 6 6 36 6 6
36 6 6 36 6 6 36 6 6 36 6 6 36 6 6 36 6 6 36 6 6 36 6 6 41 26 8 41 26
8 42 26 8 42 26 8 42 26 8 42 26 8 42 26 8 42 26 8 42 26 8 42 26 8 41
26 8 41 26 8 41 26 8 41 26 8 41 26 8 41 26 8 33 25 7 33 25 7 33 25 7
111 19 19 111 19 19 110 19 19 110 19 19 110 19 19 110 19 19 109 19 19
109 19 19 109 19 19 109 19 19 108 19 19 108 19 19 108 18 18 108 18 18
107 18 18 107 18 18 107 18 18 106 18 18 106 18 18 106 18 18 105 18 18
105 18 18 105 18 18 104 18 18 104 18 18 103 18 18 103 18 18 103 18 18
102 17 17 101 17 17 101 17 17 100 17 17 99 17 17 98 17 17 97 17 17 95
16 16 91 16 16 0 0 0 0 0 0 0 0 0 0 0 0 0 0 0 0 0 0 0 0 0 0 0 0 0 0 0 0
0 0 0 0 0 0 0 0 0 0 0 0 0 0 0 0 0 0 0 0 0 0 0 0 0 0 0 0 0 0 0 0 0 0 0
0 0 0 0 0 0 0 0 0 0 0 0 0 0 0 0 0 0 0 0 0 0 0 0 0 0 0 0 0 0 0 0 0 0 0
0 0 0 0 0 0 0 0 0 0 0 0 0 0 0 0 0 0 0 0 0 0 0 0 0 0 0 0 0 0 0 0 0 0
0 0 0 0 0 0 0 0 0 0 0 0 0 0 0 0 0 0 0 0 0 0 0 0 0 0 0 0 0 0 0 0 0 0 0
0 0 0 0 0 0 0 0 0 0 0 0 0 0 0 0 0 0 0 0 0 0 0 0 0 0 0 0 0 0 0 0 0 0 0
0 0 0 0 0 0 0 0 0 0 0 0 0 0 0 0 0 0 0 0 0 0 0 0 0 0 0 0 0 0 0 0 0 0 0
0 0 0 0 0 0 0 0 0 118 20 20 120 21 21 121 21 21 122 21 21 122 21 21
122 21 21 122 21 21 123 21 21 123 21 21 123 21 21 123 21 21 123 21 21
123 21 21 123 21 21 123 21 21 123 21 21 123 21 21 123 21 21 123 21 21
123 21 21 123 21 21 123 21 21 123 21 21 123 21 21 123 21 21 122 21 21
122 21 21 122 21 21 122 21 21 122 21 21 122 21 21 122 21 21 122 21 21
122 21 21 122 21 21 36 6 6 36 6 6 36 6 6 36 6 6 36 6 6 36 6 6 36 6 6
36 6 6 36 6 6 36 6 6 36 6 6 36 6 6 36 6 6 36 6 6 36 6 6 36 6 6 36 6 6
36 6 6 36 6 6 36 6 6 36 6 6 36 6 6 36 6 6 36 6 6 36 6 6 36 6 6 36 6 6
36 6 6 33 25 7 41 26 8 41 26 8 41 26 8 41 26 8 41 26 8 41 26 8 41 26 8
41 26 8 41 26 8 41 26 8 41 26 8 41 26 8 41 26 8 33 25 7 33 25 7 40 26
8 113 19 19 113 19 19 113 19 19 112 19 19 112 19 19 112 19 19 112 19
19 111 19 19 111 19 19 111 19 19 111 19 19 110 19 19 110 19 19 110 19
19 109 19 19 109 19 19 109 19 19 109 19 19 108 19 19 108 19 19 108 18
18 107 18 18 107 18 18 107 18 18 107 18 18 106 18 18 106 18 18 106 18
18 105 18 18 105 18 18 104 18 18 104 18 18 104 18 18 103 18 18 103 18
18 102 18 18 102 17 17 101 17 17 100 17 17 100 17 17 99 17 17 97 17 17
95 16 16 92 16 16 0 0 0 0 0 0 0 0 0 0 0 0 0 0 0 0 0 0 0 0 0 0 0 0 0 0
0 0 0 0 0 0 0 0 0 0 0 0 0 0 0 0 0 0 0 0 0 0 0 0 0 0 0 0 0 0 0 0 0 0 0
0 0 0 0 0 0 0 0 0 0 0 0 0 0 0 0 0 0 0 0 0 0 0 0 0 0 0 0 0 0 0 0 0 0 0
0 0 0 0 0 0 0 0 0 0 0 0 0 0 0 0 0 0
0 0 0 0 0 0 0 0 0 0 0 0 0 0 0 0 0 0 0 0 0 0 0 0 0 0 0 0 0 0 0 0 0 0 0
0 0 0 0 0 0 0 0 0 0 0 0 0 0 0 0 0 0 0 0 0 0 0 0 0 0 0 0 0 0 0 0 0 0 0
0 0 0 0 0 0 0 0 0 0 0 0 0 0 0 0 0 0 0 0 0 0 0 0 0 0 119 20 20 122 21
21 123 21 21 124 21 21 124 21 21 125 21 21 125 21 21 125 21 21 125 21
21 125 21 21 125 21 21 125 21 21 125 21 21 125 21 21 125 22 22 125 22
22 125 21 21 125 21 21 125 21 21 125 21 21 125 21 21 125 21 21 125 21
21 125 21 21 125 21 21 125 21 21 125 21 21 125 21 21 125 21 21 125 21
21 125 21 21 124 21 21 124 21 21 124 21 21 124 21 21 124 21 21 124 21
21 124 21 21 36 6 6 36 6 6 36 6 6 36 6 6 36 6 6 36 6 6 36 6 6 36 6 6
36 6 6 36 6 6 36 6 6 36 6 6 36 6 6 36 6 6 36 6 6 36 6 6 36 6 6 36 6 6
36 6 6 36 6 6 36 6 6 36 6 6 36 6 6 36 6 6 36 6 6 36 6 6 36 6 6 36 6 6
36 6 6 36 6 6 36 6 6 36 6 6 36 6 6 36 6 6 41 26 8 41 26 8 41 26 8 41
26 8 41 26 8 41 26 8 41 26 8 41 26 8 41 26 8 33 25 7 33 25 7 115 20 20
115 20 20 115 20 20 115 20 20 114 20 20 114 20 20 114 20 20 114 19 19
113 19 19 113 19 19 113 19 19 113 19 19 112 19 19 112 19 19 112 19 19
112 19 19 111 19 19 111 19 19 111 19 19 111 19 19 110 19 19 110 19 19
110 19 19 110 19 19 109 19 19 109 19 19 109 19 19 108 19 19 108 19 19
108 18 18 108 18 18 107 18 18 107 18 18 107 18 18 106 18 18 106 18 18
106 18 18 105 18 18 105 18 18 104 18 18 104 18 18 104 18 18 103 18 18
103 18 18 102 17 17 101 17 17 101 17 17 100 17 17 36 6 6 36 6 6 36 6 6
36 6 6 36 6 6 0 0 0 0 0 0 0 0 0 0 0 0 0 0 0 0 0 0 0 0 0 0 0 0 0 0 0 0
0 0 0 0 0 0 0 0 0 0 0 0 0 0 0 0 0 0 0 0 0 0 0 0 0 0 0 0 0 0 0 0 0 0 0
0 0 0 0 0 0 0 0 0 0 0 0 0 0 0 0 0 0 0 0 0 0 0 0 0 0 0 0 0 0 0 0 0
0 0 0 0 0 0 0 0 0 0 0 0 0 0 0 0 0 0 0 0 0 0 0 0 0 0 0 0 0 0 0 0 0 0 0
0 0 0 0 0 0 0 0 0 0 0 0 0 0 0 0 0 0 0 0 0 0 0 0 0 0 0 0 0 0 0 0 0 0 0
0 0 0 0 0 0 0 0 0 0 0 121 21 21 124 21 21 125 22 22 126 22 22 126 22
22 127 22 22 127 22 22 127 22 22 127 22 22 127 22 22 127 22 22 128 22
22 128 22 22 128 22 22 128 22 22 128 22 22 128 22 22 128 22 22 128 22
22 128 22 22 128 22 22 128 22 22 127 22 22 127 22 22 127 22 22 127 22
22 127 22 22 127 22 22 127 22 22 127 22 22 127 22 22 127 22 22 127 22
22 127 22 22 126 22 22 126 22 22 126 22 22 126 22 22 126 22 22 126 22
22 36 6 6 36 6 6 36 6 6 36 6 6 36 6 6 36 6 6 36 6 6 36 6 6 36 6 6 36 6
6 36 6 6 36 6 6 36 6 6 36 6 6 36 6 6 36 6 6 36 6 6 36 6 6 36 6 6 36 6
6 36 6 6 36 6 6 36 6 6 36 6 6 36 6 6 36 6 6 36 6 6 36 6 6 36 6 6 36 6
6 36 6 6 36 6 6 36 6 6 36 6 6 36 6 6 36 6 6 36 6 6 36 6 6 36 6 6 36 6
6 36 6 6 36 6 6 36 6 6 36 6 6 36 6 6 117 20 20 117 20 20 117 20 20 117
20 20 117 20 20 116 20 20 116 20 20 116 20 20 116 20 20 115 20 20 115
20 20 115 20 20 115 20 20 114 20 20 114 20 20 114 20 20 114 19 19 113
19 19 113 19 19 113 19 19 113 19 19 112 19 19 112 19 19 112 19 19 112
19 19 111 19 19 111 19 19 111 19 19 111 19 19 110 19 19 110 19 19 110
19 19 110 19 19 109 19 19 109 19 19 109 19 19 108 19 19 108 19 19 108
18 18 107 18 18 107 18 18 107 18 18 106 18 18 106 18 18 106 18 18 105
18 18 105 18 18 105 18 18 104 18 18 104 18 18 36 6 6 36 6 6 36 6 6 36
6 6 36 6 6 36 6 6 36 6 6 36 6 6 36 6 6 36 6 6 36 6 6 0 0 0 0 0 0 0 0 0
0 0 0 0 0 0 0 0 0 0 0 0 0 0 0 0 0 0 0 0 0 0 0 0 0 0 0 0 0 0 0 0 0 0 0
0 0 0 0 0 0 0 0 0 0 0 0 0 0 0 0 0 0 0 0 0 0 0 0 0 0 0 0 0 0 0 0 0 0 0
0 0
0 0 0 0 0 0 0 0 0 0 0 0 0 0 0 0 0 0 0 0 0 0 0 0 0 0 0 0 0 0 0 0 0 0 0
0 0 0 0 0 0 0 0 0 0 0 0 0 0 0 0 0 0 0 0 0 0 0 0 0 0 0 0 0 0 0 0 0 0
126 22 22 127 22 22 128 22 22 128 22 22 129 22 22 129 22 22 129 22 22
129 22 22 129 22 22 130 22 22 130 22 22 130 22 22 130 22 22 130 22 22
130 22 22 130 22 22 130 22 22 130 22 22 130 22 22 130 22 22 130 22 22
130 22 22 130 22 22 130 22 22 129 22 22 129 22 22 129 22 22 129 22 22
129 22 22 129 22 22 129 22 22 129 22 22 129 22 22 129 22 22 129 22 22
128 22 22 128 22 22 128 22 22 128 22 22 128 22 22 128 22 22 36 6 6 36
6 6 36 6 6 36 6 6 36 6 6 36 6 6 36 6 6 36 6 6 36 6 6 36 6 6 36 6 6 36
6 6 36 6 6 36 6 6 36 6 6 36 6 6 36 6 6 36 6 6 36 6 6 36 6 6 36 6 6 36
6 6 36 6 6 36 6 6 36 6 6 36 6 6 36 6 6 36 6 6 36 6 6 36 6 6 36 6 6 36
6 6 36 6 6 36 6 6 36 6 6 36 6 6 36 6 6 36 6 6 36 6 6 36 6 6 36 6 6 36
6 6 36 6 6 36 6 6 36 6 6 36 6 6 36 6 6 119 20 20 119 20 20 119 20 20
118 20 20 118 20 20 118 20 20 118 20 20 117 20 20 117 20 20 117 20 20
117 20 20 117 20 20 116 20 20 116 20 20 116 20 20 116 20 20 115 20 20
115 20 20 115 20 20 115 20 20 114 20 20 114 20 20 114 20 20 114 19 19
113 19 19 113 19 19 113 19 19 113 19 19 112 19 19 112 19 19 112 19 19
112 19 19 111 19 19 111 19 19 111 19 19 110 19 19 110 19 19 110 19 19
110 19 19 109 19 19 109 19 19 109 19 19 108 19 19 108 19 19 108 18 18
108 18 18 107 18 18 107 18 18 107 18 18 106 18 18 36 6 6 36 6 6 36 6 6
36 6 6 36 6 6 36 6 6 36 6 6 36 6 6 36 6 6 36 6 6 36 6 6 36 6 6 36 6 6
36 6 6 36 6 6 36 6 6 0 0 0 0 0 0 0 0 0 0 0 0 0 0 0 0 0 0 0 0 0 0 0 0 0
0 0 0 0 0 0 0 0 0 0 0 0 0 0 0 0 0 0 0 0 0 0 0 0 0 0 0 0 0 0 0 0 0 0 0
0 0 0 0 0 0 0 0 0
0 0 0 0 0 0 0 0 0 0 0 0 0 0 0 0 0 0 0 0 0 0 0 0 0 0 0 0 0 0 0 0 0 0 0
0 0 0 0 0 0 0 0 0 0 0 0 0 0 0 0 0 0 0 126 22 22 129 22 22 130 22 22
130 22 22 131 22 22 131 22 22 131 22 22 131 23 23 131 23 23 131 23 23
132 23 23 132 23 23 132 23 23 132 23 23 132 23 23 132 23 23 132 23 23
132 23 23 132 23 23 132 23 23 132 23 23 132 23 23 132 23 23 132 23 23
132 23 23 131 23 23 131 23 23 131 23 23 131 22 22 131 22 22 131 22 22
131 22 22 131 22 22 131 22 22 131 22 22 131 22 22 130 22 22 130 22 22
130 22 22 130 22 22 130 22 22 130 22 22 130 22 22 130 22 22 36 6 6 36
6 6 36 6 6 36 6 6 36 6 6 36 6 6 36 6 6 36 6 6 36 6 6 36 6 6 36 6 6 36
6 6 36 6 6 36 6 6 36 6 6 36 6 6 36 6 6 36 6 6 36 6 6 36 6 6 36 6 6 36
6 6 36 6 6 36 6 6 36 6 6 36 6 6 36 6 6 36 6 6 36 6 6 36 6 6 36 6 6 36
6 6 36 6 6 36 6 6 36 6 6 36 6 6 36 6 6 36 6 6 36 6 6 36 6 6 36 6 6 36
6 6 36 6 6 36 6 6 36 6 6 36 6 6 36 6 6 121 21 21 121 21 21 120 21 21
120 21 21 120 21 21 120 21 21 119 20 20 119 20 20 119 20 20 119 20 20
119 20 20 118 20 20 118 20 20 118 20 20 118 20 20 117 20 20 117 20 20
117 20 20 117 20 20 116 20 20 116 20 20 116 20 20 116 20 20 115 20 20
115 20 20 115 20 20 115 20 20 114 20 20 114 20 20 114 20 20 114 19 19
113 19 19 113 19 19 113 19 19 113 19 19 112 19 19 112 19 19 112 19 19
112 19 19 111 19 19 111 19 19 111 19 19 110 19 19 110 19 19 110 19 19
110 19 19 109 19 19 109 19 19 109 19 19 108 19 19 108 19 19 108 18 18
107 18 18 36 6 6 36 6 6 36 6 6 36 6 6 36 6 6 36 6 6 36 6 6 36 6 6 36 6
6 36 6 6 36 6 6 36 6 6 36 6 6 36 6 6 36 6 6 36 6 6 36 6 6 36 6 6 36 6
6 36 6 6 0 0 0 0 0 0 0 0 0 0 0 0 0 0 0 0 0 0 0 0 0 0 0 0 0 0 0 0 0 0 0
0 0 0 0 0 0 0 0 0 0 0 0 0 0 0 0 0 0 0 0 0 0 0
0 0 0 0 0 0 0 0 0 0 0 0 0 0 0 0 0 0 0 0 0 0 0 0 0 0 0 0 0 0 0 0 0 0 0
0 0 0 0 0 0 0 128 22 22 131 22 22 132 23 23 132 23 23 133 23 23 133 23
23 133 23 23 133 23 23 133 23 23 133 23 23 133 23 23 134 23 23 134 23
23 134 23 23 134 23 23 134 23 23 134 23 23 134 23 23 134 23 23 134 23
23 134 23 23 134 23 23 134 23 23 133 23 23 133 23 23 133 23 23 133 23
23 133 23 23 133 23 23 133 23 23 133 23 23 133 23 23 133 23 23 133 23
23 133 23 23 133 23 23 132 23 23 132 23 23 132 23 23 132 23 23 132 23
23 132 23 23 132 23 23 132 23 23 132 23 23 131 23 23 131 22 22 36 6 6
36 6 6 36 6 6 36 6 6 36 6 6 36 6 6 36 6 6 36 6 6 36 6 6 36 6 6 36 6 6
36 6 6 36 6 6 36 6 6 36 6 6 36 6 6 36 6 6 36 6 6 36 6 6 36 6 6 36 6 6
36 6 6 36 6 6 36 6 6 36 6 6 36 6 6 36 6 6 36 6 6 36 6 6 36 6 6 36 6 6
36 6 6 36 6 6 36 6 6 36 6 6 36 6 6 36 6 6 36 6 6 36 6 6 36 6 6 36 6 6
36 6 6 36 6 6 36 6 6 36 6 6 36 6 6 123 21 21 122 21 21 122 21 21 122
21 21 122 21 21 121 21 21 121 21 21 121 21 21 121 21 21 121 21 21 120
21 21 120 21 21 120 21 21 120 20 20 119 20 20 119 20 20 119 20 20 119
20 20 118 20 20 118 20 20 118 20 20 118 20 20 117 20 20 117 20 20 117
20 20 117 20 20 116 20 20 116 20 20 116 20 20 116 20 20 115 20 20 115
20 20 115 20 20 115 20 20 114 20 20 114 20 20 114 20 20 114 19 19 113
19 19 113 19 19 113 19 19 113 19 19 112 19 19 112 19 19 112 19 19 112
19 19 111 19 19 111 19 19 111 19 19 110 19 19 110 19 19 110 19 19 110
19 19 109 19 19 109 19 19 109 19 19 36 6 6 36 6 6 36 6 6 36 6 6 36 6 6
36 6 6 36 6 6 36 6 6 36 6 6 36 6 6 36 6 6 36 6 6 36 6 6 36 6 6 36 6 6
36 6 6 36 6 6 36 6 6 36 6 6 36 6 6 36 6 6 36 6 6 36 6 6 0 0 0 0 0 0 0
0 0 0 0 0 0 0 0 0 0 0 0 0 0 0 0 0 0 0 0 0 0 0 0 0 0 0 0 0 0 0 0 0 0 0
0 0 0 0 0 0 0 0 0 0 0 0 0 0 0 0 0 0 0 0 0 0 0 0 0 0 0 0 0 0 128 22 22
132 23 23 133 23 23 134 23 23 134 23 23 135 23 23 135 23 23 135 23 23
135 23 23 135 23 23 135 23 23 135 23 23 135 23 23 135 23 23 135 23 23
135 23 23 135 23 23 135 23 23 135 23 23 135 23 23 135 23 23 135 23 23
135 23 23 135 23 23 135 23 23 135 23 23 135 23 23 135 23 23 135 23 23
135 23 23 135 23 23 135 23 23 135 23 23 135 23 23 135 23 23 134 23 23
134 23 23 134 23 23 134 23 23 134 23 23 134 23 23 134 23 23 134 23 23
134 23 23 133 23 23 133 23 23 133 23 23 133 23 23 133 23 23 133 23 23
36 6 6 36 6 6 36 6 6 36 6 6 36 6 6 36 6 6 36 6 6 36 6 6 36 6 6 36 6 6
36 6 6 36 6 6 36 6 6 36 6 6 36 6 6 36 6 6 36 6 6 36 6 6 36 6 6 36 6 6
36 6 6 36 6 6 36 6 6 36 6 6 36 6 6 36 6 6 36 6 6 36 6 6 36 6 6 36 6 6
36 6 6 36 6 6 36 6 6 36 6 6 36 6 6 36 6 6 36 6 6 36 6 6 36 6 6 36 6 6
36 6 6 36 6 6 36 6 6 36 6 6 124 21 21 124 21 21 124 21 21 124 21 21
123 21 21 123 21 21 123 21 21 123 21 21 123 21 21 122 21 21 122 21 21
122 21 21 122 21 21 121 21 21 121 21 21 121 21 21 121 21 21 121 21 21
120 21 21 120 21 21 120 21 21 120 20 20 119 20 20 119 20 20 119 20 20
119 20 20 118 20 20 118 20 20 118 20 20 118 20 20 117 20 20 117 20 20
117 20 20 117 20 20 116 20 20 116 20 20 116 20 20 116 20 20 115 20 20
36 6 6 36 6 6 36 6 6 36 6 6 36 6 6 114 20 20 114 19 19 113 19 19 113
19 19 113 19 19 113 19 19 112 19 19 112 19 19 112 19 19 111 19 19 111
19 19 111 19 19 111 19 19 110 19 19 110 19 19 110 19 19 109 19 19 109
19 19 36 6 6 36 6 6 36 6 6 36 6 6 36 6 6 36 6 6 36 6 6 36 6 6 36 6 6
36 6 6 36 6 6 36 6 6 36 6 6 36 6 6 36 6 6 36 6 6 36 6 6 36 6 6 36 6 6
36 6 6 36 6 6 36 6 6 36 6 6 36 6 6 0 0 0 0 0 0 0 0 0 0 0 0 0 0 0 0 0 0
0 0 0 0 0 0 0 0 0 0 0 0
0 0 0 0 0 0 0 0 0 0 0 0 0 0 0 0 0 0 0 0 0 133 23 23 135 23 23 135 23
23 136 23 23 136 23 23 136 23 23 137 23 23 137 23 23 137 23 23 137 23
23 137 23 23 137 24 24 137 24 24 137 24 24 137 24 24 137 24 24 137 24
24 137 24 24 137 24 24 137 24 24 137 24 24 137 24 24 137 23 23 137 23
23 137 23 23 137 23 23 137 23 23 137 23 23 137 23 23 137 23 23 137 23
23 137 23 23 136 23 23 136 23 23 136 23 23 136 23 23 136 23 23 136 23
23 136 23 23 136 23 23 136 23 23 136 23 23 135 23 23 135 23 23 135 23
23 135 23 23 135 23 23 135 23 23 135 23 23 134 23 23 134 23 23 134 23
23 36 6 6 36 6 6 36 6 6 36 6 6 36 6 6 36 6 6 36 6 6 36 6 6 36 6 6 36 6
6 36 6 6 36 6 6 36 6 6 36 6 6 36 6 6 36 6 6 36 6 6 36 6 6 36 6 6 36 6
6 36 6 6 36 6 6 36 6 6 36 6 6 36 6 6 36 6 6 36 6 6 36 6 6 36 6 6 36 6
6 36 6 6 36 6 6 36 6 6 36 6 6 36 6 6 36 6 6 36 6 6 36 6 6 36 6 6 36 6
6 36 6 6 36 6 6 126 22 22 126 22 22 126 22 22 125 22 22 125 21 21 125
21 21 125 21 21 125 21 21 124 21 21 124 21 21 124 21 21 124 21 21 123
21 21 123 21 21 123 21 21 123 21 21 123 21 21 122 21 21 122 21 21 122
21 21 122 21 21 121 21 21 121 21 21 121 21 21 121 21 21 120 21 21 120
21 21 120 21 21 120 21 21 119 20 20 119 20 20 36 6 6 36 6 6 36 6 6 36
6 6 36 6 6 36 6 6 36 6 6 36 6 6 36 6 6 36 6 6 36 6 6 36 6 6 36 6 6 36
6 6 36 6 6 36 6 6 36 6 6 36 6 6 36 6 6 36 6 6 36 6 6 36 6 6 36 6 6 36
6 6 36 6 6 113 19 19 112 19 19 112 19 19 112 19 19 112 19 19 111 19 19
111 19 19 111 19 19 110 19 19 110 19 19 110 19 19 110 19 19 109 19 19
109 19 19 109 19 19 36 6 6 36 6 6 36 6 6 36 6 6 36 6 6 36 6 6 36 6 6
36 6 6 36 6 6 36 6 6 36 6 6 36 6 6 36 6 6 36 6 6 36 6 6 36 6 6 36 6 6
36 6 6 36 6 6 36 6 6 36 6 6 0 0 0 0 0 0 0 0 0 0 0 0 0 0 0 0 0 0 0 0 0
0 0 0 0 0 0 0 0 0 133 23 23 136 23 23 137 23 23 137 24 24 138 24 24
138 24 24 138 24 24 138 24 24 138 24 24 139 24 24 139 24 24 139 24 24
139 24 24 139 24 24 139 24 24 139 24 24 139 24 24 139 24 24 139 24 24
139 24 24 139 24 24 139 24 24 139 24 24 139 24 24 139 24 24 139 24 24
139 24 24 139 24 24 138 24 24 138 24 24 138 24 24 138 24 24 138 24 24
138 24 24 138 24 24 138 24 24 138 24 24 138 24 24 138 24 24 137 24 24
137 24 24 137 24 24 137 24 24 137 23 23 137 23 23 137 23 23 137 23 23
137 23 23 136 23 23 136 23 23 136 23 23 136 23 23 136 23 23 136 23 23
136 23 23 135 23 23 36 6 6 36 6 6 36 6 6 36 6 6 36 6 6 36 6 6 36 6 6
36 6 6 36 6 6 36 6 6 36 6 6 36 6 6 36 6 6 36 6 6 36 6 6 36 6 6 36 6 6
36 6 6 36 6 6 36 6 6 36 6 6 36 6 6 36 6 6 36 6 6 36 6 6 36 6 6 36 6 6
36 6 6 36 6 6 36 6 6 36 6 6 36 6 6 36 6 6 36 6 6 36 6 6 36 6 6 36 6 6
36 6 6 36 6 6 128 22 22 128 22 22 127 22 22 127 22 22 127 22 22 127 22
22 127 22 22 126 22 22 126 22 22 126 22 22 126 22 22 125 22 22 125 21
21 125 21 21 125 21 21 125 21 21 124 21 21 124 21 21 124 21 21 124 21
21 123 21 21 123 21 21 123 21 21 123 21 21 122 21 21 122 21 21 122 21
21 122 21 21 121 21 21 36 6 6 36 6 6 36 6 6 36 6 6 36 6 6 36 6 6 36 6
6 36 6 6 36 6 6 36 6 6 36 6 6 36 6 6 36 6 6 36 6 6 36 6 6 36 6 6 36 6
6 36 6 6 36 6 6 36 6 6 36 6 6 36 6 6 36 6 6 36 6 6 36 6 6 36 6 6 36 6
6 36 6 6 36 6 6 36 6 6 36 6 6 36 6 6 36 6 6 36 6 6 113 19 19 112 19 19
112 19 19 112 19 19 112 19 19 111 19 19 111 19 19 111 19 19 110 19 19
110 19 19 110 19 19 110 19 19 109 19 19 109 19 19 109 19 19 108 19 19
108 19 19 108 18 18 107 18 18 107 18 18 107 18 18 106 18 18 106 18 18
105 18 18 105 18 18 104 18 18 104 18 18 103 18 18 103 18 18 102 17 17
101 17 17 100 17 17 99 17 17 97 17 17 94 16 16 85 14 14 0 0 0 0 0 0 0
0 0
136 23 23 138 24 24 139 24 24 139 24 24 139 24 24 140 24 24 140 24 24
140 24 24 140 24 24 140 24 24 140 24 24 140 24 24 140 24 24 140 24 24
140 24 24 140 24 24 140 24 24 140 24 24 140 24 24 140 24 24 140 24 24
140 24 24 140 24 24 140 24 24 140 24 24 140 24 24 140 24 24 140 24 24
140 24 24 140 24 24 140 24 24 140 24 24 140 24 24 140 24 24 140 24 24
139 24 24 139 24 24 139 24 24 139 24 24 139 24 24 139 24 24 139 24 24
139 24 24 139 24 24 139 24 24 138 24 24 138 24 24 138 24 24 138 24 24
138 24 24 138 24 24 138 24 24 137 24 24 137 24 24 137 24 24 137 23 23
137 23 23 137 23 23 137 23 23 136 23 23 36 6 6 36 6 6 36 6 6 36 6 6 36
6 6 36 6 6 36 6 6 36 6 6 36 6 6 36 6 6 36 6 6 36 6 6 36 6 6 36 6 6 36
6 6 36 6 6 36 6 6 36 6 6 36 6 6 36 6 6 36 6 6 36 6 6 36 6 6 36 6 6 36
6 6 36 6 6 36 6 6 36 6 6 36 6 6 36 6 6 36 6 6 36 6 6 36 6 6 130 22 22
130 22 22 130 22 22 129 22 22 129 22 22 129 22 22 129 22 22 128 22 22
128 22 22 128 22 22 128 22 22 128 22 22 127 22 22 127 22 22 127 22 22
127 22 22 126 22 22 126 22 22 126 22 22 126 22 22 126 22 22 125 21 21
125 21 21 125 21 21 125 21 21 124 21 21 124 21 21 124 21 21 124 21 21
123 21 21 36 6 6 36 6 6 36 6 6 36 6 6 36 6 6 36 6 6 36 6 6 36 6 6 36 6
6 36 6 6 36 6 6 36 6 6 36 6 6 36 6 6 36 6 6 36 6 6 36 6 6 36 6 6 36 6
6 36 6 6 36 6 6 36 6 6 36 6 6 36 6 6 36 6 6 36 6 6 36 6 6 36 6 6 36 6
6 36 6 6 36 6 6 36 6 6 36 6 6 36 6 6 36 6 6 36 6 6 36 6 6 36 6 6 36 6
6 36 6 6 113 19 19 113 19 19 113 19 19 112 19 19 112 19 19 112 19 19
112 19 19 111 19 19 111 19 19 111 19 19 110 19 19 110 19 19 110 19 19
110 19 19 109 19 19 109 19 19 109 19 19 108 19 19 108 19 19 108 18 18
107 18 18 107 18 18 106 18 18 106 18 18 106 18 18 105 18 18 105 18 18
104 18 18 104 18 18 103 18 18 102 18 18 102 17 17 101 17 17 100 17 17
98 17 17 96 16 16 89 15 15
141 24 24 141 24 24 141 24 24 141 24 24 142 24 24 142 24 24 142 24 24
142 24 24 142 24 24 142 24 24 142 24 24 142 24 24 142 24 24 142 24 24
142 24 24 142 24 24 142 24 24 142 24 24 142 24 24 142 24 24 142 24 24
142 24 24 142 24 24 142 24 24 142 24 24 142 24 24 141 24 24 141 24 24
141 24 24 141 24 24 141 24 24 141 24 24 141 24 24 141 24 24 141 24 24
141 24 24 141 24 24 141 24 24 140 24 24 140 24 24 140 24 24 140 24 24
140 24 24 140 24 24 140 24 24 140 24 24 139 24 24 139 24 24 139 24 24
139 24 24 139 24 24 139 24 24 139 24 24 138 24 24 138 24 24 138 24 24
138 24 24 138 24 24 138 24 24 137 24 24 137 24 24 137 24 24 36 6 6 36
6 6 36 6 6 36 6 6 36 6 6 36 6 6 36 6 6 36 6 6 36 6 6 36 6 6 36 6 6 36
6 6 36 6 6 36 6 6 36 6 6 36 6 6 36 6 6 36 6 6 36 6 6 36 6 6 36 6 6 36
6 6 36 6 6 36 6 6 36 6 6 132 23 23 132 23 23 132 23 23 132 23 23 131
23 23 131 22 22 131 22 22 131 22 22 131 22 22 130 22 22 130 22 22 130
22 22 130 22 22 129 22 22 129 22 22 129 22 22 129 22 22 129 22 22 128
22 22 128 22 22 128 22 22 128 22 22 127 22 22 127 22 22 127 22 22 127
22 22 126 22 22 126 22 22 126 22 22 126 22 22 126 22 22 125 21 21 125
21 21 36 6 6 36 6 6 36 6 6 36 6 6 36 6 6 36 6 6 36 6 6 36 6 6 36 6 6
36 6 6 36 6 6 36 6 6 36 6 6 36 6 6 36 6 6 36 6 6 36 6 6 36 6 6 36 6 6
36 6 6 36 6 6 36 6 6 36 6 6 36 6 6 36 6 6 36 6 6 36 6 6 36 6 6 36 6 6
36 6 6 36 6 6 36 6 6 36 6 6 36 6 6 36 6 6 36 6 6 36 6 6 36 6 6 36 6 6
36 6 6 36 6 6 36 6 6 36 6 6 36 6 6 114 20 20 114 19 19 113 19 19 113
19 19 113 19 19 113 19 19 112 19 19 112 19 19 112 19 19 112 19 19 111
19 19 111 19 19 111 19 19 110 19 19 110 19 19 110 19 19 109 19 19 109
19 19 109 19 19 109 19 19 108 19 19 108 18 18 107 18 18 107 18 18 107
18 18 106 18 18 106 18 18 105 18 18 105 18 18 105 18 18 104 18 18 103
18 18 103 18 18 102 17 17 101 17 17 100 17 17
143 24 24 143 25 25 143 25 25 143 25 25 143 25 25 143 25 25 143 25 25
143 25 25 143 25 25 143 25 25 143 25 25 143 25 25 143 25 25 143 25 25
143 25 25 143 25 25 143 25 25 143 25 25 143 25 25 143 25 25 143 25 25
143 25 25 143 25 25 143 25 25 143 24 24 143 24 24 143 24 24 143 24 24
143 24 24 142 24 24 142 24 24 142 24 24 142 24 24 142 24 24 142 24 24
142 24 24 142 24 24 142 24 24 142 24 24 141 24 24 141 24 24 141 24 24
141 24 24 141 24 24 141 24 24 141 24 24 141 24 24 140 24 24 140 24 24
140 24 24 140 24 24 140 24 24 140 24 24 139 24 24 139 24 24 139 24 24
139 24 24 139 24 24 139 24 24 139 24 24 138 24 24 138 24 24 138 24 24
138 24 24 138 24 24 137 24 24 137 24 24 137 24 24 36 6 6 36 6 6 36 6 6
36 6 6 36 6 6 36 6 6 36 6 6 36 6 6 36 6 6 36 6 6 135 23 23 135 23 23
135 23 23 134 23 23 134 23 23 134 23 23 134 23 23 134 23 23 133 23 23
133 23 23 133 23 23 133 23 23 133 23 23 132 23 23 132 23 23 132 23 23
132 23 23 131 23 23 131 22 22 131 22 22 131 22 22 131 22 22 130 22 22
130 22 22 130 22 22 130 22 22 129 22 22 129 22 22 129 22 22 129 22 22
129 22 22 128 22 22 128 22 22 128 22 22 128 22 22 127 22 22 127 22 22
127 22 22 127 22 22 126 22 22 36 6 6 36 6 6 36 6 6 36 6 6 36 6 6 36 6
6 36 6 6 36 6 6 36 6 6 36 6 6 36 6 6 36 6 6 36 6 6 36 6 6 36 6 6 36 6
6 36 6 6 36 6 6 36 6 6 36 6 6 36 6 6 36 6 6 36 6 6 36 6 6 36 6 6 36 6
6 36 6 6 36 6 6 36 6 6 36 6 6 36 6 6 36 6 6 36 6 6 36 6 6 36 6 6 36 6
6 36 6 6 36 6 6 36 6 6 36 6 6 36 6 6 36 6 6 36 6 6 36 6 6 36 6 6 36 6
6 115 20 20 115 20 20 114 20 20 114 20 20 114 20 20 114 19 19 113 19
19 113 19 19 113 19 19 113 19 19 112 19 19 112 19 19 112 19 19 111 19
19 111 19 19 111 19 19 111 19 19 110 19 19 110 19 19 110 19 19 109 19
19 109 19 19 109 19 19 108 19 19 108 19 19 108 18 18 107 18 18 107 18
18 107 18 18 106 18 18 106 18 18 105 18 18 105 18 18 104 18 18 104 18
18 103 18 18
145 25 25 145 25 25 145 25 25 145 25 25 145 25 25 145 25 25 145 25 25
145 25 25 145 25 25 145 25 25 145 25 25 145 25 25 145 25 25 145 25 25
145 25 25 145 25 25 145 25 25 145 25 25 144 25 25 144 25 25 144 25 25
144 25 25 144 25 25 144 25 25 144 25 25 144 25 25 144 25 25 144 25 25
144 25 25 144 25 25 144 25 25 143 25 25 143 25 25 143 25 25 143 25 25
143 25 25 143 24 24 143 24 24 143 24 24 143 24 24 142 24 24 142 24 24
142 24 24 142 24 24 142 24 24 142 24 24 142 24 24 141 24 24 141 24 24
141 24 24 141 24 24 141 24 24 141 24 24 140 24 24 140 24 24 140 24 24
140 24 24 140 24 24 140 24 24 139 24 24 139 24 24 139 24 24 139 24 24
139 24 24 139 24 24 138 24 24 138 24 24 138 24 24 138 24 24 138 24 24
137 24 24 137 24 24 137 24 24 137 23 23 137 23 23 137 23 23 136 23 23
136 23 23 136 23 23 136 23 23 136 23 23 135 23 23 135 23 23 135 23 23
135 23 23 134 23 23 134 23 23 134 23 23 134 23 23 134 23 23 133 23 23
133 23 23 133 23 23 133 23 23 133 23 23 132 23 23 132 23 23 132 23 23
132 23 23 131 23 23 131 22 22 131 22 22 131 22 22 131 22 22 130 22 22
130 22 22 130 22 22 130 22 22 129 22 22 129 22 22 129 22 22 129 22 22
128 22 22 128 22 22 128 22 22 128 22 22 128 22 22 36 6 6 36 6 6 36 6 6
36 6 6 36 6 6 36 6 6 36 6 6 36 6 6 36 6 6 36 6 6 36 6 6 36 6 6 36 6 6
36 6 6 36 6 6 36 6 6 36 6 6 36 6 6 36 6 6 36 6 6 36 6 6 36 6 6 36 6 6
36 6 6 36 6 6 36 6 6 36 6 6 36 6 6 36 6 6 36 6 6 36 6 6 36 6 6 36 6 6
36 6 6 36 6 6 36 6 6 36 6 6 36 6 6 36 6 6 36 6 6 36 6 6 36 6 6 36 6 6
36 6 6 36 6 6 36 6 6 36 6 6 116 20 20 116 20 20 115 20 20 115 20 20
115 20 20 115 20 20 114 20 20 114 20 20 114 20 20 114 19 19 113 19 19
113 19 19 113 19 19 112 19 19 112 19 19 112 19 19 112 19 19 111 19 19
111 19 19 111 19 19 110 19 19 110 19 19 110 19 19 110 19 19 109 19 19
109 19 19 109 19 19 108 19 19 108 18 18 107 18 18 107 18 18 107 18 18
106 18 18 106 18 18 105 18 18 105 18 18
146 25 25 146 25 25 146 25 25 146 25 25 146 25 25 146 25 25 146 25 25
146 25 25 146 25 25 146 25 25 146 25 25 146 25 25 146 25 25 146 25 25
146 25 25 146 25 25 146 25 25 146 25 25 146 25 25 146 25 25 146 25 25
145 25 25 145 25 25 145 25 25 145 25 25 145 25 25 145 25 25 145 25 25
145 25 25 145 25 25 145 25 25 144 25 25 144 25 25 144 25 25 144 25 25
144 25 25 144 25 25 144 25 25 144 25 25 144 25 25 143 25 25 143 25 25
143 25 25 143 25 25 143 24 24 143 24 24 143 24 24 142 24 24 142 24 24
142 24 24 142 24 24 142 24 24 142 24 24 141 24 24 141 24 24 141 24 24
141 24 24 141 24 24 141 24 24 140 24 24 140 24 24 140 24 24 140 24 24
140 24 24 140 24 24 139 24 24 139 24 24 139 24 24 139 24 24 139 24 24
138 24 24 138 24 24 138 24 24 138 24 24 138 24 24 137 24 24 137 24 24
137 23 23 137 23 23 137 23 23 136 23 23 136 23 23 136 23 23 136 23 23
136 23 23 135 23 23 135 23 23 135 23 23 135 23 23 134 23 23 134 23 23
134 23 23 134 23 23 134 23 23 133 23 23 133 23 23 133 23 23 133 23 23
133 23 23 132 23 23 132 23 23 132 23 23 132 23 23 131 23 23 131 22 22
131 22 22 131 22 22 130 22 22 130 22 22 130 22 22 130 22 22 130 22 22
129 22 22 129 22 22 129 22 22 129 22 22 36 6 6 36 6 6 36 6 6 36 6 6 36
6 6 36 6 6 36 6 6 36 6 6 36 6 6 36 6 6 36 6 6 36 6 6 36 6 6 36 6 6 36
6 6 36 6 6 36 6 6 36 6 6 36 6 6 36 6 6 36 6 6 36 6 6 36 6 6 36 6 6 36
6 6 36 6 6 36 6 6 36 6 6 36 6 6 36 6 6 36 6 6 36 6 6 36 6 6 36 6 6 36
6 6 36 6 6 36 6 6 36 6 6 36 6 6 36 6 6 36 6 6 36 6 6 36 6 6 36 6 6 36
6 6 36 6 6 36 6 6 117 20 20 117 20 20 117 20 20 116 20 20 116 20 20
116 20 20 116 20 20 115 20 20 115 20 20 115 20 20 114 20 20 114 20 20
114 20 20 114 19 19 113 19 19 113 19 19 113 19 19 113 19 19 112 19 19
112 19 19 112 19 19 111 19 19 111 19 19 111 19 19 111 19 19 110 19 19
110 19 19 110 19 19 109 19 19 109 19 19 109 19 19 108 19 19 108 19 19
108 18 18 107 18 18 107 18 18 106 18 18
147 25 25 147 25 25 147 25 25 147 25 25 147 25 25 147 25 25 147 25 25
147 25 25 147 25 25 147 25 25 147 25 25 147 25 25 147 25 25 147 25 25
147 25 25 147 25 25 147 25 25 147 25 25 147 25 25 147 25 25 147 25 25
147 25 25 146 25 25 146 25 25 146 25 25 146 25 25 146 25 25 146 25 25
146 25 25 146 25 25 146 25 25 145 25 25 145 25 25 145 25 25 145 25 25
145 25 25 145 25 25 145 25 25 145 25 25 144 25 25 144 25 25 144 25 25
144 25 25 144 25 25 144 25 25 144 25 25 143 25 25 143 25 25 143 25 25
143 25 25 143 24 24 143 24 24 142 24 24 142 24 24 142 24 24 142 24 24
142 24 24 142 24 24 141 24 24 141 24 24 141 24 24 141 24 24 141 24 24
141 24 24 140 24 24 140 24 24 140 24 24 140 24 24 140 24 24 139 24 24
139 24 24 139 24 24 139 24 24 139 24 24 138 24 24 138 24 24 138 24 24
138 24 24 138 24 24 137 24 24 137 24 24 137 23 23 137 23 23 137 23 23
136 23 23 136 23 23 136 23 23 136 23 23 136 23 23 135 23 23 135 23 23
135 23 23 135 23 23 134 23 23 134 23 23 134 23 23 134 23 23 134 23 23
133 23 23 133 23 23 133 23 23 133 23 23 132 23 23 132 23 23 132 23 23
132 23 23 132 23 23 131 23 23 131 22 22 131 22 22 131 22 22 130 22 22
130 22 22 130 22 22 130 22 22 129 22 22 36 6 6 36 6 6 36 6 6 36 6 6 36
6 6 36 6 6 36 6 6 36 6 6 36 6 6 36 6 6 36 6 6 36 6 6 36 6 6 36 6 6 36
6 6 36 6 6 36 6 6 36 6 6 36 6 6 36 6 6 36 6 6 36 6 6 36 6 6 36 6 6 36
6 6 36 6 6 36 6 6 36 6 6 36 6 6 36 6 6 36 6 6 36 6 6 36 6 6 36 6 6 36
6 6 36 6 6 36 6 6 36 6 6 36 6 6 36 6 6 36 6 6 36 6 6 36 6 6 36 6 6 36
6 6 36 6 6 118 20 20 118 20 20 118 20 20 117 20 20 117 20 20 117 20 20
117 20 20 116 20 20 116 20 20 116 20 20 116 20 20 115 20 20 115 20 20
115 20 20 115 20 20 114 20 20 114 20 20 114 20 20 114 19 19 113 19 19
113 19 19 113 19 19 112 19 19 112 19 19 112 19 19 112 19 19 111 19 19
111 19 19 111 19 19 110 19 19 110 19 19 110 19 19 109 19 19 109 19 19
109 19 19 108 19 19 108 19 19 108 18 18
149 25 25 149 25 25 149 25 25 149 25 25 149 25 25 149 25 25 149 25 25
149 25 25 148 25 25 148 25 25 148 25 25 148 25 25 148 25 25 148 25 25
148 25 25 148 25 25 148 25 25 148 25 25 148 25 25 148 25 25 148 25 25
148 25 25 147 25 25 147 25 25 147 25 25 147 25 25 147 25 25 147 25 25
147 25 25 147 25 25 147 25 25 146 25 25 146 25 25 146 25 25 146 25 25
146 25 25 146 25 25 146 25 25 146 25 25 145 25 25 145 25 25 145 25 25
145 25 25 145 25 25 145 25 25 144 25 25 144 25 25 144 25 25 144 25 25
144 25 25 144 25 25 143 25 25 143 25 25 143 25 25 143 25 25 143 24 24
143 24 24 142 24 24 142 24 24 142 24 24 142 24 24 142 24 24 142 24 24
141 24 24 141 24 24 141 24 24 141 24 24 141 24 24 140 24 24 140 24 24
140 24 24 140 24 24 140 24 24 139 24 24 139 24 24 139 24 24 139 24 24
139 24 24 138 24 24 138 24 24 138 24 24 138 24 24 138 24 24 137 24 24
137 24 24 137 23 23 137 23 23 136 23 23 136 23 23 136 23 23 136 23 23
136 23 23 135 23 23 135 23 23 135 23 23 135 23 23 135 23 23 134 23 23
134 23 23 134 23 23 134 23 23 133 23 23 133 23 23 133 23 23 133 23 23
132 23 23 132 23 23 132 23 23 132 23 23 132 23 23 131 23 23 131 22 22
131 22 22 131 22 22 130 22 22 130 22 22 36 6 6 36 6 6 36 6 6 36 6 6 36
6 6 36 6 6 36 6 6 36 6 6 36 6 6 36 6 6 36 6 6 36 6 6 36 6 6 36 6 6 36
6 6 36 6 6 36 6 6 36 6 6 36 6 6 36 6 6 36 6 6 36 6 6 36 6 6 36 6 6 36
6 6 36 6 6 36 6 6 36 6 6 36 6 6 36 6 6 36 6 6 36 6 6 36 6 6 36 6 6 36
6 6 36 6 6 36 6 6 36 6 6 36 6 6 36 6 6 36 6 6 36 6 6 36 6 6 36 6 6 119
20 20 119 20 20 119 20 20 119 20 20 118 20 20 118 20 20 118 20 20 118
20 20 117 20 20 117 20 20 117 20 20 117 20 20 116 20 20 116 20 20 116
20 20 116 20 20 115 20 20 115 20 20 115 20 20 115 20 20 114 20 20 114
20 20 114 20 20 114 19 19 113 19 19 113 19 19 113 19 19 113 19 19 112
19 19 112 19 19 112 19 19 111 19 19 111 19 19 111 19 19 110 19 19 110
19 19 110 19 19 110 19 19 109 19 19 109 19 19
150 26 26 150 26 26 150 26 26 150 26 26 150 26 26 150 26 26 150 26 26
150 26 26 150 26 26 149 26 26 149 26 26 149 26 26 149 26 26 149 26 26
149 26 26 149 26 26 149 26 26 149 26 26 149 26 26 149 25 25 149 25 25
148 25 25 148 25 25 148 25 25 148 25 25 148 25 25 148 25 25 148 25 25
148 25 25 148 25 25 147 25 25 147 25 25 147 25 25 147 25 25 147 25 25
147 25 25 147 25 25 147 25 25 146 25 25 146 25 25 146 25 25 146 25 25
146 25 25 146 25 25 145 25 25 145 25 25 145 25 25 145 25 25 145 25 25
145 25 25 144 25 25 144 25 25 144 25 25 144 25 25 144 25 25 144 25 25
143 25 25 143 25 25 143 25 25 143 24 24 143 24 24 143 24 24 142 24 24
142 24 24 142 24 24 142 24 24 142 24 24 141 24 24 141 24 24 141 24 24
141 24 24 141 24 24 140 24 24 140 24 24 140 24 24 140 24 24 140 24 24
139 24 24 139 24 24 139 24 24 139 24 24 139 24 24 138 24 24 138 24 24
138 24 24 138 24 24 137 24 24 137 24 24 137 23 23 137 23 23 137 23 23
136 23 23 136 23 23 136 23 23 136 23 23 135 23 23 135 23 23 135 23 23
135 23 23 135 23 23 134 23 23 134 23 23 134 23 23 134 23 23 133 23 23
133 23 23 133 23 23 133 23 23 133 23 23 132 23 23 132 23 23 132 23 23
132 23 23 131 23 23 131 22 22 131 22 22 131 22 22 36 6 6 36 6 6 36 6 6
36 6 6 36 6 6 36 6 6 36 6 6 36 6 6 36 6 6 36 6 6 36 6 6 36 6 6 36 6 6
36 6 6 36 6 6 36 6 6 36 6 6 36 6 6 36 6 6 36 6 6 36 6 6 36 6 6 36 6 6
36 6 6 36 6 6 36 6 6 36 6 6 36 6 6 36 6 6 36 6 6 36 6 6 36 6 6 36 6 6
36 6 6 36 6 6 36 6 6 36 6 6 36 6 6 36 6 6 36 6 6 121 21 21 121 21 21
120 21 21 120 21 21 120 21 21 120 21 21 119 20 20 119 20 20 119 20 20
119 20 20 118 20 20 118 20 20 118 20 20 118 20 20 118 20 20 117 20 20
117 20 20 117 20 20 117 20 20 116 20 20 116 20 20 116 20 20 115 20 20
115 20 20 115 20 20 115 20 20 114 20 20 114 20 20 114 20 20 114 19 19
113 19 19 113 19 19 113 19 19 113 19 19 112 19 19 112 19 19 112 19 19
111 19 19 111 19 19 111 19 19 111 19 19 110 19 19 110 19 19
151 26 26 151 26 26 151 26 26 151 26 26 151 26 26 151 26 26 151 26 26
151 26 26 151 26 26 150 26 26 150 26 26 150 26 26 150 26 26 150 26 26
150 26 26 150 26 26 150 26 26 150 26 26 150 26 26 150 26 26 149 26 26
149 26 26 149 26 26 149 26 26 149 26 26 149 26 26 149 26 26 149 25 25
149 25 25 148 25 25 148 25 25 148 25 25 148 25 25 148 25 25 148 25 25
148 25 25 147 25 25 147 25 25 147 25 25 147 25 25 147 25 25 147 25 25
147 25 25 146 25 25 146 25 25 146 25 25 146 25 25 146 25 25 146 25 25
145 25 25 145 25 25 145 25 25 145 25 25 145 25 25 145 25 25 144 25 25
144 25 25 144 25 25 144 25 25 144 25 25 143 25 25 143 25 25 143 25 25
143 24 24 143 24 24 142 24 24 142 24 24 142 24 24 142 24 24 142 24 24
141 24 24 141 24 24 141 24 24 141 24 24 141 24 24 140 24 24 140 24 24
140 24 24 140 24 24 140 24 24 139 24 24 139 24 24 139 24 24 139 24 24
139 24 24 138 24 24 138 24 24 138 24 24 138 24 24 137 24 24 137 24 24
137 23 23 137 23 23 137 23 23 136 23 23 136 23 23 136 23 23 136 23 23
135 23 23 135 23 23 135 23 23 135 23 23 135 23 23 134 23 23 134 23 23
134 23 23 134 23 23 133 23 23 133 23 23 133 23 23 133 23 23 133 23 23
132 23 23 132 23 23 132 23 23 132 23 23 131 23 23 131 22 22 131 22 22
36 6 6 36 6 6 36 6 6 36 6 6 36 6 6 36 6 6 36 6 6 36 6 6 36 6 6 36 6 6
36 6 6 36 6 6 36 6 6 36 6 6 36 6 6 36 6 6 36 6 6 36 6 6 36 6 6 36 6 6
36 6 6 36 6 6 36 6 6 36 6 6 36 6 6 36 6 6 36 6 6 36 6 6 36 6 6 36 6 6
36 6 6 36 6 6 36 6 6 36 6 6 36 6 6 122 21 21 122 21 21 122 21 21 122
21 21 121 21 21 121 21 21 121 21 21 121 21 21 120 21 21 120 21 21 120
21 21 120 21 21 119 20 20 119 20 20 119 20 20 119 20 20 119 20 20 118
20 20 118 20 20 118 20 20 118 20 20 117 20 20 117 20 20 117 20 20 117
20 20 116 20 20 116 20 20 116 20 20 116 20 20 115 20 20 115 20 20 115
20 20 114 20 20 114 20 20 114 20 20 114 19 19 113 19 19 113 19 19 113
19 19 113 19 19 112 19 19 112 19 19 112 19 19 111 19 19 111 19 19 111
19 19
152 26 26 152 26 26 152 26 26 152 26 26 152 26 26 152 26 26 152 26 26
152 26 26 151 26 26 151 26 26 151 26 26 151 26 26 151 26 26 151 26 26
151 26 26 151 26 26 151 26 26 151 26 26 151 26 26 150 26 26 150 26 26
150 26 26 150 26 26 150 26 26 150 26 26 150 26 26 150 26 26 149 26 26
149 26 26 149 26 26 149 26 26 149 26 26 149 26 26 149 25 25 149 25 25
148 25 25 148 25 25 148 25 25 148 25 25 148 25 25 148 25 25 147 25 25
147 25 25 147 25 25 147 25 25 147 25 25 147 25 25 146 25 25 146 25 25
146 25 25 146 25 25 146 25 25 146 25 25 145 25 25 145 25 25 145 25 25
145 25 25 145 25 25 144 25 25 144 25 25 144 25 25 144 25 25 144 25 25
144 25 25 143 25 25 143 25 25 143 25 25 143 24 24 143 24 24 142 24 24
142 24 24 142 24 24 142 24 24 142 24 24 141 24 24 141 24 24 141 24 24
141 24 24 141 24 24 140 24 24 140 24 24 140 24 24 140 24 24 139 24 24
139 24 24 139 24 24 139 24 24 139 24 24 138 24 24 138 24 24 138 24 24
138 24 24 137 24 24 137 24 24 137 23 23 137 23 23 137 23 23 136 23 23
136 23 23 136 23 23 136 23 23 135 23 23 135 23 23 135 23 23 135 23 23
135 23 23 134 23 23 134 23 23 134 23 23 134 23 23 133 23 23 133 23 23
133 23 23 133 23 23 132 23 23 132 23 23 132 23 23 132 23 23 132 23 23
131 23 23 131 22 22 131 22 22 36 6 6 36 6 6 36 6 6 36 6 6 36 6 6 36 6
6 36 6 6 36 6 6 36 6 6 36 6 6 36 6 6 36 6 6 36 6 6 36 6 6 36 6 6 36 6
6 36 6 6 36 6 6 36 6 6 36 6 6 36 6 6 36 6 6 36 6 6 36 6 6 36 6 6 36 6
6 36 6 6 124 21 21 124 21 21 124 21 21 124 21 21 123 21 21 123 21 21
123 21 21 123 21 21 122 21 21 122 21 21 122 21 21 122 21 21 121 21 21
121 21 21 121 21 21 121 21 21 120 21 21 120 21 21 120 21 21 120 21 21
119 20 20 119 20 20 119 20 20 119 20 20 119 20 20 118 20 20 118 20 20
118 20 20 118 20 20 117 20 20 117 20 20 117 20 20 117 20 20 116 20 20
116 20 20 116 20 20 116 20 20 115 20 20 115 20 20 115 20 20 114 20 20
114 20 20 114 20 20 114 19 19 113 19 19 113 19 19 113 19 19 113 19 19
112 19 19 112 19 19 112 19 19
153 26 26 153 26 26 153 26 26 153 26 26 153 26 26 153 26 26 152 26 26
152 26 26 152 26 26 152 26 26 152 26 26 152 26 26 152 26 26 152 26 26
152 26 26 152 26 26 152 26 26 151 26 26 151 26 26 151 26 26 151 26 26
151 26 26 151 26 26 151 26 26 151 26 26 151 26 26 150 26 26 150 26 26
150 26 26 150 26 26 150 26 26 150 26 26 150 26 26 149 26 26 149 26 26
149 26 26 149 26 26 149 26 26 149 25 25 148 25 25 148 25 25 148 25 25
148 25 25 148 25 25 148 25 25 147 25 25 147 25 25 147 25 25 147 25 25
147 25 25 147 25 25 146 25 25 146 25 25 146 25 25 146 25 25 146 25 25
146 25 25 145 25 25 145 25 25 145 25 25 145 25 25 145 25 25 144 25 25
144 25 25 144 25 25 144 25 25 144 25 25 143 25 25 143 25 25 143 25 25
143 24 24 143 24 24 142 24 24 142 24 24 142 24 24 142 24 24 142 24 24
141 24 24 141 24 24 141 24 24 141 24 24 141 24 24 140 24 24 140 24 24
140 24 24 140 24 24 139 24 24 139 24 24 139 24 24 139 24 24 139 24 24
138 24 24 138 24 24 138 24 24 138 24 24 137 24 24 137 24 24 137 23 23
137 23 23 137 23 23 136 23 23 136 23 23 136 23 23 136 23 23 135 23 23
135 23 23 135 23 23 135 23 23 135 23 23 134 23 23 134 23 23 134 23 23
134 23 23 133 23 23 133 23 23 133 23 23 133 23 23 132 23 23 132 23 23
132 23 23 132 23 23 132 23 23 131 23 23 131 22 22 131 22 22 131 22 22
130 22 22 130 22 22 36 6 6 36 6 6 36 6 6 36 6 6 36 6 6 36 6 6 36 6 6
36 6 6 36 6 6 36 6 6 36 6 6 36 6 6 127 22 22 127 22 22 127 22 22 126
22 22 126 22 22 126 22 22 126 22 22 125 22 22 125 21 21 125 21 21 125
21 21 124 21 21 124 21 21 124 21 21 124 21 21 124 21 21 123 21 21 123
21 21 123 21 21 123 21 21 122 21 21 122 21 21 122 21 21 122 21 21 121
21 21 121 21 21 121 21 21 121 21 21 120 21 21 120 21 21 120 21 21 120
21 21 119 20 20 119 20 20 119 20 20 119 20 20 119 20 20 118 20 20 118
20 20 118 20 20 118 20 20 117 20 20 117 20 20 117 20 20 117 20 20 116
20 20 116 20 20 116 20 20 116 20 20 115 20 20 115 20 20 115 20 20 114
20 20 114 20 20 114 20 20 114 19 19 113 19 19 113 19 19 113 19 19 113
19 19
154 26 26 154 26 26 154 26 26 154 26 26 153 26 26 153 26 26 153 26 26
153 26 26 153 26 26 153 26 26 153 26 26 153 26 26 153 26 26 153 26 26
153 26 26 152 26 26 152 26 26 152 26 26 152 26 26 152 26 26 152 26 26
152 26 26 152 26 26 151 26 26 151 26 26 151 26 26 151 26 26 151 26 26
151 26 26 151 26 26 151 26 26 150 26 26 150 26 26 150 26 26 150 26 26
150 26 26 150 26 26 149 26 26 149 26 26 149 26 26 149 26 26 149 26 26
149 25 25 148 25 25 148 25 25 148 25 25 148 25 25 148 25 25 148 25 25
147 25 25 147 25 25 147 25 25 147 25 25 147 25 25 147 25 25 146 25 25
146 25 25 146 25 25 146 25 25 146 25 25 145 25 25 145 25 25 145 25 25
145 25 25 145 25 25 144 25 25 144 25 25 144 25 25 144 25 25 144 25 25
143 25 25 143 25 25 143 25 25 143 24 24 143 24 24 142 24 24 142 24 24
142 24 24 142 24 24 142 24 24 141 24 24 141 24 24 141 24 24 141 24 24
140 24 24 140 24 24 140 24 24 140 24 24 140 24 24 139 24 24 139 24 24
139 24 24 139 24 24 138 24 24 138 24 24 138 24 24 138 24 24 138 24 24
137 24 24 137 24 24 137 23 23 137 23 23 136 23 23 136 23 23 136 23 23
136 23 23 136 23 23 135 23 23 135 23 23 135 23 23 135 23 23 134 23 23
134 23 23 134 23 23 134 23 23 134 23 23 133 23 23 133 23 23 133 23 23
133 23 23 132 23 23 132 23 23 132 23 23 132 23 23 131 23 23 131 22 22
131 22 22 131 22 22 131 22 22 130 22 22 130 22 22 130 22 22 130 22 22
129 22 22 129 22 22 129 22 22 129 22 22 128 22 22 128 22 22 128 22 22
128 22 22 127 22 22 127 22 22 127 22 22 127 22 22 127 22 22 126 22 22
126 22 22 126 22 22 126 22 22 125 21 21 125 21 21 125 21 21 125 21 21
124 21 21 124 21 21 124 21 21 124 21 21 123 21 21 123 21 21 123 21 21
123 21 21 123 21 21 122 21 21 122 21 21 122 21 21 122 21 21 121 21 21
121 21 21 121 21 21 121 21 21 120 21 21 120 21 21 120 21 21 120 21 21
119 20 20 119 20 20 119 20 20 119 20 20 118 20 20 118 20 20 118 20 20
118 20 20 117 20 20 117 20 20 117 20 20 117 20 20 116 20 20 116 20 20
116 20 20 116 20 20 115 20 20 115 20 20 115 20 20 115 20 20 114 20 20
114 20 20 114 20 20 114 19 19 113 19 19
155 26 26 154 26 26 154 26 26 154 26 26 154 26 26 154 26 26 154 26 26
154 26 26 154 26 26 154 26 26 154 26 26 154 26 26 153 26 26 153 26 26
153 26 26 153 26 26 153 26 26 153 26 26 153 26 26 153 26 26 153 26 26
152 26 26 152 26 26 152 26 26 152 26 26 152 26 26 152 26 26 152 26 26
151 26 26 151 26 26 151 26 26 151 26 26 151 26 26 151 26 26 151 26 26
150 26 26 150 26 26 150 26 26 150 26 26 150 26 26 150 26 26 149 26 26
149 26 26 149 26 26 149 26 26 149 26 26 149 25 25 148 25 25 148 25 25
148 25 25 148 25 25 148 25 25 148 25 25 147 25 25 147 25 25 147 25 25
147 25 25 147 25 25 146 25 25 146 25 25 146 25 25 146 25 25 146 25 25
145 25 25 145 25 25 145 25 25 145 25 25 145 25 25 144 25 25 144 25 25
144 25 25 144 25 25 144 25 25 143 25 25 143 25 25 143 25 25 143 24 24
143 24 24 142 24 24 142 24 24 142 24 24 142 24 24 141 24 24 141 24 24
141 24 24 141 24 24 141 24 24 140 24 24 140 24 24 140 24 24 140 24 24
140 24 24 139 24 24 139 24 24 139 24 24 139 24 24 138 24 24 138 24 24
138 24 24 138 24 24 138 24 24 137 24 24 137 23 23 137 23 23 137 23 23
136 23 23 136 23 23 136 23 23 136 23 23 135 23 23 135 23 23 135 23 23
135 23 23 135 23 23 134 23 23 134 23 23 134 23 23 134 23 23 133 23 23
133 23 23 133 23 23 133 23 23 132 23 23 132 23 23 132 23 23 132 23 23
132 23 23 131 23 23 131 22 22 131 22 22 131 22 22 130 22 22 130 22 22
130 22 22 130 22 22 129 22 22 129 22 22 129 22 22 129 22 22 129 22 22
128 22 22 128 22 22 128 22 22 128 22 22 127 22 22 127 22 22 127 22 22
127 22 22 126 22 22 126 22 22 126 22 22 126 22 22 126 22 22 125 21 21
125 21 21 125 21 21 125 21 21 124 21 21 124 21 21 124 21 21 124 21 21
123 21 21 123 21 21 123 21 21 123 21 21 122 21 21 122 21 21 122 21 21
122 21 21 122 21 21 121 21 21 121 21 21 121 21 21 121 21 21 120 21 21
120 21 21 120 21 21 120 21 21 119 20 20 119 20 20 119 20 20 119 20 20
118 20 20 118 20 20 118 20 20 118 20 20 117 20 20 117 20 20 117 20 20
117 20 20 116 20 20 116 20 20 116 20 20 116 20 20 115 20 20 115 20 20
115 20 20 115 20 20 114 20 20 114 20 20
155 27 27 155 27 27 155 27 27 155 27 27 155 27 27 155 27 27 155 27 27
155 27 27 155 27 27 155 26 26 154 26 26 154 26 26 154 26 26 154 26 26
154 26 26 154 26 26 154 26 26 154 26 26 153 26 26 153 26 26 153 26 26
153 26 26 153 26 26 153 26 26 153 26 26 153 26 26 152 26 26 152 26 26
152 26 26 152 26 26 152 26 26 152 26 26 152 26 26 151 26 26 151 26 26
151 26 26 151 26 26 151 26 26 151 26 26 150 26 26 150 26 26 150 26 26
150 26 26 150 26 26 150 26 26 149 26 26 149 26 26 149 26 26 149 26 26
149 25 25 148 25 25 148 25 25 148 25 25 148 25 25 148 25 25 148 25 25
147 25 25 147 25 25 147 25 25 147 25 25 147 25 25 146 25 25 146 25 25
146 25 25 146 25 25 146 25 25 145 25 25 145 25 25 145 25 25 145 25 25
145 25 25 144 25 25 144 25 25 144 25 25 144 25 25 144 25 25 143 25 25
143 25 25 143 24 24 143 24 24 142 24 24 142 24 24 142 24 24 142 24 24
142 24 24 141 24 24 141 24 24 141 24 24 141 24 24 140 24 24 140 24 24
140 24 24 140 24 24 140 24 24 139 24 24 139 24 24 139 24 24 139 24 24
138 24 24 138 24 24 138 24 24 138 24 24 138 24 24 137 24 24 137 24 24
137 23 23 137 23 23 136 23 23 136 23 23 136 23 23 136 23 23 136 23 23
135 23 23 135 23 23 135 23 23 135 23 23 134 23 23 134 23 23 134 23 23
134 23 23 134 23 23 133 23 23 133 23 23 133 23 23 133 23 23 132 23 23
132 23 23 132 23 23 132 23 23 131 23 23 131 22 22 131 22 22 131 22 22
131 22 22 130 22 22 130 22 22 130 22 22 130 22 22 129 22 22 129 22 22
129 22 22 129 22 22 128 22 22 128 22 22 128 22 22 128 22 22 128 22 22
127 22 22 127 22 22 127 22 22 127 22 22 126 22 22 126 22 22 126 22 22
126 22 22 125 21 21 125 21 21 125 21 21 125 21 21 124 21 21 124 21 21
124 21 21 124 21 21 124 21 21 123 21 21 123 21 21 123 21 21 123 21 21
122 21 21 122 21 21 122 21 21 122 21 21 121 21 21 121 21 21 121 21 21
121 21 21 121 21 21 120 21 21 120 21 21 120 21 21 120 20 20 119 20 20
119 20 20 119 20 20 119 20 20 118 20 20 118 20 20 118 20 20 118 20 20
117 20 20 117 20 20 117 20 20 117 20 20 116 20 20 116 20 20 116 20 20
116 20 20 115 20 20 115 20 20 115 20 20
156 27 27 156 27 27 156 27 27 156 27 27 156 27 27 156 27 27 156 27 27
155 27 27 155 27 27 155 27 27 155 27 27 155 27 27 155 27 27 155 27 27
155 27 27 154 26 26 154 26 26 154 26 26 154 26 26 154 26 26 154 26 26
154 26 26 154 26 26 153 26 26 153 26 26 153 26 26 153 26 26 153 26 26
153 26 26 153 26 26 152 26 26 152 26 26 152 26 26 152 26 26 152 26 26
152 26 26 151 26 26 151 26 26 151 26 26 151 26 26 151 26 26 151 26 26
150 26 26 150 26 26 150 26 26 150 26 26 150 26 26 150 26 26 149 26 26
149 26 26 149 26 26 149 26 26 149 25 25 148 25 25 148 25 25 148 25 25
148 25 25 148 25 25 147 25 25 147 25 25 147 25 25 147 25 25 147 25 25
146 25 25 146 25 25 146 25 25 146 25 25 146 25 25 145 25 25 145 25 25
145 25 25 145 25 25 145 25 25 144 25 25 144 25 25 144 25 25 144 25 25
144 25 25 143 25 25 143 25 25 143 25 25 143 24 24 143 24 24 142 24 24
142 24 24 142 24 24 142 24 24 141 24 24 141 24 24 141 24 24 141 24 24
141 24 24 140 24 24 140 24 24 140 24 24 140 24 24 139 24 24 139 24 24
139 24 24 139 24 24 139 24 24 138 24 24 138 24 24 138 24 24 138 24 24
137 24 24 137 24 24 137 23 23 137 23 23 137 23 23 136 23 23 136 23 23
136 23 23 136 23 23 135 23 23 135 23 23 135 23 23 135 23 23 135 23 23
134 23 23 134 23 23 134 23 23 134 23 23 133 23 23 133 23 23 133 23 23
133 23 23 132 23 23 132 23 23 132 23 23 132 23 23 132 23 23 131 23 23
131 22 22 131 22 22 131 22 22 130 22 22 130 22 22 130 22 22 130 22 22
129 22 22 129 22 22 129 22 22 129 22 22 129 22 22 128 22 22 128 22 22
128 22 22 128 22 22 127 22 22 127 22 22 127 22 22 127 22 22 126 22 22
126 22 22 126 22 22 126 22 22 126 22 22 125 21 21 125 21 21 125 21 21
125 21 21 124 21 21 124 21 21 124 21 21 124 21 21 123 21 21 123 21 21
123 21 21 123 21 21 123 21 21 122 21 21 122 21 21 122 21 21 122 21 21
121 21 21 121 21 21 121 21 21 121 21 21 120 21 21 120 21 21 120 21 21
120 21 21 119 20 20 119 20 20 119 20 20 119 20 20 119 20 20 118 20 20
118 20 20 118 20 20 118 20 20 117 20 20 117 20 20 117 20 20 117 20 20
116 20 20 116 20 20 116 20 20 116 20 20
157 27 27 157 27 27 157 27 27 156 27 27 156 27 27 156 27 27 156 27 27
156 27 27 156 27 27 156 27 27 156 27 27 156 27 27 155 27 27 155 27 27
155 27 27 155 27 27 155 27 27 155 27 27 155 27 27 155 26 26 154 26 26
154 26 26 154 26 26 154 26 26 154 26 26 154 26 26 154 26 26 153 26 26
153 26 26 153 26 26 153 26 26 153 26 26 153 26 26 152 26 26 152 26 26
152 26 26 152 26 26 152 26 26 152 26 26 151 26 26 151 26 26 151 26 26
151 26 26 151 26 26 151 26 26 150 26 26 150 26 26 150 26 26 150 26 26
150 26 26 150 26 26 149 26 26 149 26 26 149 26 26 149 26 26 149 25 25
148 25 25 148 25 25 148 25 25 148 25 25 148 25 25 147 25 25 147 25 25
147 25 25 147 25 25 147 25 25 146 25 25 146 25 25 146 25 25 146 25 25
146 25 25 145 25 25 145 25 25 145 25 25 145 25 25 145 25 25 144 25 25
144 25 25 144 25 25 144 25 25 143 25 25 143 25 25 143 25 25 143 24 24
143 24 24 142 24 24 142 24 24 142 24 24 142 24 24 142 24 24 141 24 24
141 24 24 141 24 24 141 24 24 140 24 24 140 24 24 140 24 24 140 24 24
140 24 24 139 24 24 139 24 24 139 24 24 139 24 24 138 24 24 138 24 24
138 24 24 138 24 24 138 24 24 137 24 24 137 23 23 137 23 23 137 23 23
136 23 23 136 23 23 136 23 23 136 23 23 135 23 23 135 23 23 135 23 23
135 23 23 135 23 23 134 23 23 134 23 23 134 23 23 134 23 23 133 23 23
133 23 23 133 23 23 133 23 23 133 23 23 132 23 23 132 23 23 132 23 23
132 23 23 131 23 23 131 22 22 131 22 22 131 22 22 130 22 22 130 22 22
130 22 22 130 22 22 130 22 22 129 22 22 129 22 22 129 22 22 129 22 22
128 22 22 128 22 22 128 22 22 128 22 22 127 22 22 127 22 22 127 22 22
127 22 22 127 22 22 126 22 22 126 22 22 126 22 22 126 22 22 125 21 21
125 21 21 125 21 21 125 21 21 124 21 21 124 21 21 124 21 21 124 21 21
124 21 21 123 21 21 123 21 21 123 21 21 123 21 21 122 21 21 122 21 21
122 21 21 122 21 21 121 21 21 121 21 21 121 21 21 121 21 21 121 21 21
120 21 21 120 21 21 120 21 21 120 21 21 119 20 20 119 20 20 119 20 20
119 20 20 118 20 20 118 20 20 118 20 20 118 20 20 117 20 20 117 20 20
117 20 20 117 20 20 116 20 20 116 20 20
157 27 27 157 27 27 157 27 27 157 27 27 157 27 27 157 27 27 157 27 27
157 27 27 157 27 27 156 27 27 156 27 27 156 27 27 156 27 27 156 27 27
156 27 27 156 27 27 156 27 27 155 27 27 155 27 27 155 27 27 155 27 27
155 27 27 155 27 27 155 26 26 154 26 26 154 26 26 154 26 26 154 26 26
154 26 26 154 26 26 153 26 26 153 26 26 153 26 26 153 26 26 153 26 26
153 26 26 152 26 26 152 26 26 152 26 26 152 26 26 152 26 26 152 26 26
151 26 26 151 26 26 151 26 26 151 26 26 151 26 26 151 26 26 150 26 26
150 26 26 150 26 26 150 26 26 150 26 26 149 26 26 149 26 26 149 26 26
149 26 26 149 25 25 148 25 25 148 25 25 148 25 25 148 25 25 148 25 25
147 25 25 147 25 25 147 25 25 147 25 25 147 25 25 146 25 25 146 25 25
146 25 25 146 25 25 146 25 25 145 25 25 145 25 25 145 25 25 145 25 25
145 25 25 144 25 25 144 25 25 144 25 25 144 25 25 143 25 25 143 25 25
143 25 25 143 24 24 143 24 24 142 24 24 142 24 24 142 24 24 142 24 24
142 24 24 141 24 24 141 24 24 141 24 24 141 24 24 140 24 24 140 24 24
140 24 24 140 24 24 140 24 24 139 24 24 139 24 24 139 24 24 139 24 24
138 24 24 138 24 24 138 24 24 138 24 24 138 24 24 137 24 24 137 24 24
137 23 23 137 23 23 136 23 23 136 23 23 136 23 23 136 23 23 136 23 23
135 23 23 135 23 23 135 23 23 135 23 23 134 23 23 134 23 23 134 23 23
134 23 23 133 23 23 133 23 23 133 23 23 133 23 23 133 23 23 132 23 23
132 23 23 132 23 23 132 23 23 131 23 23 131 22 22 131 22 22 131 22 22
131 22 22 130 22 22 130 22 22 130 22 22 130 22 22 129 22 22 129 22 22
129 22 22 129 22 22 128 22 22 128 22 22 128 22 22 128 22 22 128 22 22
127 22 22 127 22 22 127 22 22 127 22 22 126 22 22 126 22 22 126 22 22
126 22 22 125 22 22 125 21 21 125 21 21 125 21 21 125 21 21 124 21 21
124 21 21 124 21 21 124 21 21 123 21 21 123 21 21 123 21 21 123 21 21
123 21 21 122 21 21 122 21 21 122 21 21 122 21 21 121 21 21 121 21 21
121 21 21 121 21 21 120 21 21 120 21 21 120 21 21 120 21 21 119 20 20
119 20 20 119 20 20 119 20 20 119 20 20 118 20 20 118 20 20 118 20 20
118 20 20 117 20 20 117 20 20 117 20 20
158 27 27 158 27 27 158 27 27 158 27 27 158 27 27 157 27 27 157 27 27
157 27 27 157 27 27 157 27 27 157 27 27 157 27 27 157 27 27 156 27 27
156 27 27 156 27 27 156 27 27 156 27 27 156 27 27 156 27 27 156 27 27
155 27 27 155 27 27 155 27 27 155 27 27 155 27 27 155 27 27 154 26 26
154 26 26 154 26 26 154 26 26 154 26 26 154 26 26 153 26 26 153 26 26
153 26 26 153 26 26 153 26 26 153 26 26 152 26 26 152 26 26 152 26 26
152 26 26 152 26 26 152 26 26 151 26 26 151 26 26 151 26 26 151 26 26
151 26 26 150 26 26 150 26 26 150 26 26 150 26 26 150 26 26 149 26 26
149 26 26 149 26 26 149 26 26 149 25 25 149 25 25 148 25 25 148 25 25
148 25 25 148 25 25 148 25 25 147 25 25 147 25 25 147 25 25 147 25 25
146 25 25 146 25 25 146 25 25 146 25 25 146 25 25 145 25 25 145 25 25
145 25 25 145 25 25 145 25 25 144 25 25 144 25 25 144 25 25 144 25 25
144 25 25 143 25 25 143 25 25 143 24 24 143 24 24 142 24 24 142 24 24
142 24 24 142 24 24 142 24 24 141 24 24 141 24 24 141 24 24 141 24 24
140 24 24 140 24 24 140 24 24 140 24 24 140 24 24 139 24 24 139 24 24
139 24 24 139 24 24 138 24 24 138 24 24 138 24 24 138 24 24 138 24 24
137 24 24 137 24 24 137 23 23 137 23 23 136 23 23 136 23 23 136 23 23
136 23 23 136 23 23 135 23 23 135 23 23 135 23 23 135 23 23 134 23 23
134 23 23 134 23 23 134 23 23 134 23 23 133 23 23 133 23 23 133 23 23
133 23 23 132 23 23 132 23 23 132 23 23 132 23 23 131 23 23 131 22 22
131 22 22 131 22 22 131 22 22 130 22 22 130 22 22 130 22 22 130 22 22
129 22 22 129 22 22 129 22 22 129 22 22 129 22 22 128 22 22 128 22 22
128 22 22 128 22 22 127 22 22 127 22 22 127 22 22 127 22 22 126 22 22
126 22 22 126 22 22 126 22 22 126 22 22 125 21 21 125 21 21 125 21 21
125 21 21 124 21 21 124 21 21 124 21 21 124 21 21 124 21 21 123 21 21
123 21 21 123 21 21 123 21 21 122 21 21 122 21 21 122 21 21 122 21 21
121 21 21 121 21 21 121 21 21 121 21 21 121 21 21 120 21 21 120 21 21
120 21 21 120 21 21 119 20 20 119 20 20 119 20 20 119 20 20 118 20 20
118 20 20 118 20 20 118 20 20 117 20 20
159 27 27 158 27 27 158 27 27 158 27 27 158 27 27 158 27 27 158 27 27
158 27 27 158 27 27 157 27 27 157 27 27 157 27 27 157 27 27 157 27 27
157 27 27 157 27 27 157 27 27 156 27 27 156 27 27 156 27 27 156 27 27
156 27 27 156 27 27 156 27 27 155 27 27 155 27 27 155 27 27 155 27 27
155 27 27 155 27 27 154 26 26 154 26 26 154 26 26 154 26 26 154 26 26
154 26 26 153 26 26 153 26 26 153 26 26 153 26 26 153 26 26 153 26 26
152 26 26 152 26 26 152 26 26 152 26 26 152 26 26 151 26 26 151 26 26
151 26 26 151 26 26 151 26 26 151 26 26 150 26 26 150 26 26 150 26 26
150 26 26 150 26 26 149 26 26 149 26 26 149 26 26 149 25 25 149 25 25
148 25 25 148 25 25 148 25 25 148 25 25 148 25 25 147 25 25 147 25 25
147 25 25 147 25 25 146 25 25 146 25 25 146 25 25 146 25 25 146 25 25
145 25 25 145 25 25 145 25 25 145 25 25 145 25 25 144 25 25 144 25 25
144 25 25 144 25 25 144 25 25 143 25 25 143 25 25 143 24 24 143 24 24
142 24 24 142 24 24 142 24 24 142 24 24 142 24 24 141 24 24 141 24 24
141 24 24 141 24 24 140 24 24 140 24 24 140 24 24 140 24 24 140 24 24
139 24 24 139 24 24 139 24 24 139 24 24 138 24 24 138 24 24 138 24 24
138 24 24 138 24 24 137 24 24 137 24 24 137 23 23 137 23 23 136 23 23
136 23 23 136 23 23 136 23 23 136 23 23 135 23 23 135 23 23 135 23 23
135 23 23 134 23 23 134 23 23 134 23 23 134 23 23 134 23 23 133 23 23
133 23 23 133 23 23 133 23 23 132 23 23 132 23 23 132 23 23 132 23 23
131 23 23 131 23 23 131 22 22 131 22 22 131 22 22 130 22 22 130 22 22
130 22 22 130 22 22 129 22 22 129 22 22 129 22 22 129 22 22 129 22 22
128 22 22 128 22 22 128 22 22 128 22 22 127 22 22 127 22 22 127 22 22
127 22 22 127 22 22 126 22 22 126 22 22 126 22 22 126 22 22 125 22 22
125 21 21 125 21 21 125 21 21 125 21 21 124 21 21 124 21 21 124 21 21
124 21 21 123 21 21 123 21 21 123 21 21 123 21 21 122 21 21 122 21 21
122 21 21 122 21 21 122 21 21 121 21 21 121 21 21 121 21 21 121 21 21
120 21 21 120 21 21 120 21 21 120 21 21 119 20 20 119 20 20 119 20 20
119 20 20 119 20 20 118 20 20 118 20 20
159 27 27 159 27 27 159 27 27 159 27 27 159 27 27 158 27 27 158 27 27
158 27 27 158 27 27 158 27 27 158 27 27 158 27 27 158 27 27 157 27 27
157 27 27 157 27 27 157 27 27 157 27 27 157 27 27 157 27 27 156 27 27
156 27 27 156 27 27 156 27 27 156 27 27 156 27 27 156 27 27 155 27 27
155 27 27 155 27 27 155 27 27 155 27 27 155 26 26 154 26 26 154 26 26
154 26 26 154 26 26 154 26 26 153 26 26 153 26 26 153 26 26 153 26 26
153 26 26 153 26 26 152 26 26 152 26 26 152 26 26 152 26 26 152 26 26
151 26 26 151 26 26 151 26 26 151 26 26 151 26 26 151 26 26 150 26 26
150 26 26 150 26 26 150 26 26 150 26 26 149 26 26 149 26 26 149 26 26
149 25 25 149 25 25 148 25 25 148 25 25 148 25 25 148 25 25 148 25 25
147 25 25 147 25 25 147 25 25 147 25 25 146 25 25 146 25 25 146 25 25
146 25 25 146 25 25 145 25 25 145 25 25 145 25 25 145 25 25 145 25 25
144 25 25 144 25 25 144 25 25 144 25 25 143 25 25 143 25 25 143 25 25
143 24 24 143 24 24 142 24 24 142 24 24 142 24 24 142 24 24 142 24 24
141 24 24 141 24 24 141 24 24 141 24 24 140 24 24 140 24 24 140 24 24
140 24 24 140 24 24 139 24 24 139 24 24 139 24 24 139 24 24 138 24 24
138 24 24 138 24 24 138 24 24 138 24 24 137 24 24 137 24 24 137 23 23
137 23 23 136 23 23 136 23 23 136 23 23 136 23 23 136 23 23 135 23 23
135 23 23 135 23 23 135 23 23 134 23 23 134 23 23 134 23 23 134 23 23
134 23 23 133 23 23 133 23 23 133 23 23 133 23 23 132 23 23 132 23 23
132 23 23 132 23 23 132 23 23 131 23 23 131 22 22 131 22 22 131 22 22
130 22 22 130 22 22 130 22 22 130 22 22 130 22 22 129 22 22 129 22 22
129 22 22 129 22 22 128 22 22 128 22 22 128 22 22 128 22 22 127 22 22
127 22 22 127 22 22 127 22 22 127 22 22 126 22 22 126 22 22 126 22 22
126 22 22 125 22 22 125 21 21 125 21 21 125 21 21 125 21 21 124 21 21
124 21 21 124 21 21 124 21 21 123 21 21 123 21 21 123 21 21 123 21 21
123 21 21 122 21 21 122 21 21 122 21 21 122 21 21 121 21 21 121 21 21
121 21 21 121 21 21 120 21 21 120 21 21 120 21 21 120 21 21 120 20 20
119 20 20 119 20 20 119 20 20 119 20 20
160 27 27 159 27 27 159 27 27 159 27 27 159 27 27 159 27 27 159 27 27
159 27 27 159 27 27 158 27 27 158 27 27 158 27 27 158 27 27 158 27 27
158 27 27 158 27 27 157 27 27 157 27 27 157 27 27 157 27 27 157 27 27
157 27 27 157 27 27 156 27 27 156 27 27 156 27 27 156 27 27 156 27 27
156 27 27 155 27 27 155 27 27 155 27 27 155 27 27 155 27 27 155 27 27
154 26 26 154 26 26 154 26 26 154 26 26 154 26 26 154 26 26 153 26 26
153 26 26 153 26 26 153 26 26 153 26 26 152 26 26 152 26 26 152 26 26
152 26 26 152 26 26 151 26 26 151 26 26 151 26 26 151 26 26 151 26 26
151 26 26 150 26 26 150 26 26 150 26 26 150 26 26 150 26 26 149 26 26
149 26 26 149 26 26 149 25 25 149 25 25 148 25 25 148 25 25 148 25 25
148 25 25 147 25 25 147 25 25 147 25 25 147 25 25 147 25 25 146 25 25
146 25 25 146 25 25 146 25 25 146 25 25 145 25 25 145 25 25 145 25 25
145 25 25 145 25 25 144 25 25 144 25 25 144 25 25 144 25 25 143 25 25
143 25 25 143 25 25 143 24 24 143 24 24 142 24 24 142 24 24 142 24 24
142 24 24 141 24 24 141 24 24 141 24 24 141 24 24 141 24 24 140 24 24
140 24 24 140 24 24 140 24 24 140 24 24 139 24 24 139 24 24 139 24 24
139 24 24 138 24 24 138 24 24 138 24 24 138 24 24 138 24 24 137 24 24
137 23 23 137 23 23 137 23 23 136 23 23 136 23 23 136 23 23 136 23 23
136 23 23 135 23 23 135 23 23 135 23 23 135 23 23 134 23 23 134 23 23
134 23 23 134 23 23 134 23 23 133 23 23 133 23 23 133 23 23 133 23 23
132 23 23 132 23 23 132 23 23 132 23 23 132 23 23 131 23 23 131 22 22
131 22 22 131 22 22 130 22 22 130 22 22 130 22 22 130 22 22 130 22 22
129 22 22 129 22 22 129 22 22 129 22 22 128 22 22 128 22 22 128 22 22
128 22 22 128 22 22 127 22 22 127 22 22 127 22 22 127 22 22 126 22 22
126 22 22 126 22 22 126 22 22 126 22 22 125 21 21 125 21 21 125 21 21
125 21 21 124 21 21 124 21 21 124 21 21 124 21 21 124 21 21 123 21 21
123 21 21 123 21 21 123 21 21 122 21 21 122 21 21 122 21 21 122 21 21
121 21 21 121 21 21 121 21 21 121 21 21 121 21 21 120 21 21 120 21 21
120 21 21 120 21 21 119 20 20 119 20 20
160 27 27 160 27 27 160 27 27 160 27 27 160 27 27 159 27 27 159 27 27
159 27 27 159 27 27 159 27 27 159 27 27 159 27 27 158 27 27 158 27 27
158 27 27 158 27 27 158 27 27 158 27 27 158 27 27 157 27 27 157 27 27
157 27 27 157 27 27 157 27 27 157 27 27 156 27 27 156 27 27 156 27 27
156 27 27 156 27 27 156 27 27 155 27 27 155 27 27 155 27 27 155 27 27
155 27 27 155 27 27 154 26 26 154 26 26 154 26 26 154 26 26 154 26 26
154 26 26 153 26 26 153 26 26 153 26 26 153 26 26 153 26 26 152 26 26
152 26 26 152 26 26 152 26 26 152 26 26 151 26 26 151 26 26 151 26 26
151 26 26 151 26 26 150 26 26 150 26 26 150 26 26 150 26 26 150 26 26
149 26 26 149 26 26 149 26 26 149 26 26 149 25 25 148 25 25 148 25 25
148 25 25 148 25 25 148 25 25 147 25 25 147 25 25 147 25 25 147 25 25
147 25 25 146 25 25 146 25 25 146 25 25 146 25 25 146 25 25 145 25 25
145 25 25 145 25 25 145 25 25 144 25 25 144 25 25 144 25 25 144 25 25
144 25 25 143 25 25 143 25 25 143 25 25 143 24 24 143 24 24 142 24 24
142 24 24 142 24 24 142 24 24 141 24 24 141 24 24 141 24 24 141 24 24
141 24 24 140 24 24 140 24 24 140 24 24 140 24 24 139 24 24 139 24 24
139 24 24 139 24 24 139 24 24 138 24 24 138 24 24 138 24 24 138 24 24
137 24 24 137 24 24 137 23 23 137 23 23 137 23 23 136 23 23 136 23 23
136 23 23 136 23 23 135 23 23 135 23 23 135 23 23 135 23 23 135 23 23
134 23 23 134 23 23 134 23 23 134 23 23 134 23 23 133 23 23 133 23 23
133 23 23 133 23 23 132 23 23 132 23 23 132 23 23 132 23 23 132 23 23
131 23 23 131 22 22 131 22 22 131 22 22 130 22 22 130 22 22 130 22 22
130 22 22 130 22 22 129 22 22 129 22 22 129 22 22 129 22 22 128 22 22
128 22 22 128 22 22 128 22 22 128 22 22 127 22 22 127 22 22 127 22 22
127 22 22 126 22 22 126 22 22 126 22 22 126 22 22 126 22 22 125 21 21
125 21 21 125 21 21 125 21 21 124 21 21 124 21 21 124 21 21 124 21 21
124 21 21 123 21 21 123 21 21 123 21 21 123 21 21 122 21 21 122 21 21
122 21 21 122 21 21 122 21 21 121 21 21 121 21 21 121 21 21 121 21 21
120 21 21 120 21 21 120 21 21 120 21 21
160 28 28 160 27 27 160 27 27 160 27 27 160 27 27 160 27 27 160 27 27
160 27 27 159 27 27 159 27 27 159 27 27 159 27 27 159 27 27 159 27 27
159 27 27 158 27 27 158 27 27 158 27 27 158 27 27 158 27 27 158 27 27
157 27 27 157 27 27 157 27 27 157 27 27 157 27 27 157 27 27 157 27 27
156 27 27 156 27 27 156 27 27 156 27 27 156 27 27 156 27 27 155 27 27
155 27 27 155 27 27 155 27 27 155 27 27 154 26 26 154 26 26 154 26 26
154 26 26 154 26 26 154 26 26 153 26 26 153 26 26 153 26 26 153 26 26
153 26 26 152 26 26 152 26 26 152 26 26 152 26 26 152 26 26 151 26 26
151 26 26 151 26 26 151 26 26 151 26 26 150 26 26 150 26 26 150 26 26
150 26 26 150 26 26 149 26 26 149 26 26 149 26 26 149 26 26 149 25 25
148 25 25 148 25 25 148 25 25 148 25 25 148 25 25 147 25 25 147 25 25
147 25 25 147 25 25 147 25 25 146 25 25 146 25 25 146 25 25 146 25 25
145 25 25 145 25 25 145 25 25 145 25 25 145 25 25 144 25 25 144 25 25
144 25 25 144 25 25 144 25 25 143 25 25 143 25 25 143 24 24 143 24 24
142 24 24 142 24 24 142 24 24 142 24 24 142 24 24 141 24 24 141 24 24
141 24 24 141 24 24 141 24 24 140 24 24 140 24 24 140 24 24 140 24 24
139 24 24 139 24 24 139 24 24 139 24 24 139 24 24 138 24 24 138 24 24
138 24 24 138 24 24 137 24 24 137 24 24 137 23 23 137 23 23 137 23 23
136 23 23 136 23 23 136 23 23 136 23 23 135 23 23 135 23 23 135 23 23
135 23 23 135 23 23 134 23 23 134 23 23 134 23 23 134 23 23 133 23 23
133 23 23 133 23 23 133 23 23 133 23 23 132 23 23 132 23 23 132 23 23
132 23 23 132 23 23 131 23 23 131 22 22 131 22 22 131 22 22 130 22 22
130 22 22 130 22 22 130 22 22 130 22 22 129 22 22 129 22 22 129 22 22
129 22 22 128 22 22 128 22 22 128 22 22 128 22 22 128 22 22 127 22 22
127 22 22 127 22 22 127 22 22 126 22 22 126 22 22 126 22 22 126 22 22
126 22 22 125 21 21 125 21 21 125 21 21 125 21 21 124 21 21 124 21 21
124 21 21 124 21 21 124 21 21 123 21 21 123 21 21 123 21 21 123 21 21
122 21 21 122 21 21 122 21 21 122 21 21 122 21 21 121 21 21 121 21 21
121 21 21 121 21 21 120 21 21 120 21 21
161 28 28 161 28 28 161 28 28 160 28 28 160 27 27 160 27 27 160 27 27
160 27 27 160 27 27 160 27 27 160 27 27 159 27 27 159 27 27 159 27 27
159 27 27 159 27 27 159 27 27 158 27 27 158 27 27 158 27 27 158 27 27
158 27 27 158 27 27 158 27 27 157 27 27 157 27 27 157 27 27 157 27 27
157 27 27 157 27 27 156 27 27 156 27 27 156 27 27 156 27 27 156 27 27
155 27 27 155 27 27 155 27 27 155 27 27 155 27 27 155 27 27 154 26 26
154 26 26 154 26 26 154 26 26 154 26 26 153 26 26 153 26 26 153 26 26
153 26 26 153 26 26 153 26 26 152 26 26 152 26 26 152 26 26 152 26 26
152 26 26 151 26 26 151 26 26 151 26 26 151 26 26 151 26 26 150 26 26
150 26 26 150 26 26 150 26 26 150 26 26 149 26 26 149 26 26 149 26 26
149 25 25 149 25 25 148 25 25 148 25 25 148 25 25 148 25 25 147 25 25
147 25 25 147 25 25 147 25 25 147 25 25 146 25 25 146 25 25 146 25 25
146 25 25 146 25 25 145 25 25 145 25 25 145 25 25 145 25 25 145 25 25
144 25 25 144 25 25 144 25 25 144 25 25 143 25 25 143 25 25 143 25 25
143 24 24 143 24 24 142 24 24 142 24 24 142 24 24 142 24 24 142 24 24
141 24 24 141 24 24 141 24 24 141 24 24 140 24 24 140 24 24 140 24 24
140 24 24 140 24 24 139 24 24 139 24 24 139 24 24 139 24 24 138 24 24
138 24 24 138 24 24 138 24 24 138 24 24 137 24 24 137 24 24 137 23 23
137 23 23 136 23 23 136 23 23 136 23 23 136 23 23 136 23 23 135 23 23
135 23 23 135 23 23 135 23 23 135 23 23 134 23 23 134 23 23 134 23 23
134 23 23 133 23 23 133 23 23 133 23 23 133 23 23 133 23 23 132 23 23
132 23 23 132 23 23 132 23 23 131 23 23 131 23 23 131 22 22 131 22 22
131 22 22 130 22 22 130 22 22 130 22 22 130 22 22 130 22 22 129 22 22
129 22 22 129 22 22 129 22 22 128 22 22 128 22 22 128 22 22 128 22 22
128 22 22 127 22 22 127 22 22 127 22 22 127 22 22 126 22 22 126 22 22
126 22 22 126 22 22 126 22 22 125 21 21 125 21 21 125 21 21 125 21 21
125 21 21 124 21 21 124 21 21 124 21 21 124 21 21 123 21 21 123 21 21
123 21 21 123 21 21 123 21 21 122 21 21 122 21 21 122 21 21 122 21 21
121 21 21 121 21 21 121 21 21 121 21 21
161 28 28 161 28 28 161 28 28 161 28 28 161 28 28 161 28 28 160 28 28
160 27 27 160 27 27 160 27 27 160 27 27 160 27 27 160 27 27 159 27 27
159 27 27 159 27 27 159 27 27 159 27 27 159 27 27 158 27 27 158 27 27
158 27 27 158 27 27 158 27 27 158 27 27 158 27 27 157 27 27 157 27 27
157 27 27 157 27 27 157 27 27 157 27 27 156 27 27 156 27 27 156 27 27
156 27 27 156 27 27 155 27 27 155 27 27 155 27 27 155 27 27 155 27 27
155 26 26 154 26 26 154 26 26 154 26 26 154 26 26 154 26 26 153 26 26
153 26 26 153 26 26 153 26 26 153 26 26 152 26 26 152 26 26 152 26 26
152 26 26 152 26 26 151 26 26 151 26 26 151 26 26 151 26 26 151 26 26
150 26 26 150 26 26 150 26 26 150 26 26 150 26 26 149 26 26 149 26 26
149 26 26 149 26 26 149 25 25 148 25 25 148 25 25 148 25 25 148 25 25
148 25 25 147 25 25 147 25 25 147 25 25 147 25 25 147 25 25 146 25 25
146 25 25 146 25 25 146 25 25 145 25 25 145 25 25 145 25 25 145 25 25
145 25 25 144 25 25 144 25 25 144 25 25 144 25 25 144 25 25 143 25 25
143 25 25 143 25 25 143 24 24 143 24 24 142 24 24 142 24 24 142 24 24
142 24 24 141 24 24 141 24 24 141 24 24 141 24 24 141 24 24 140 24 24
140 24 24 140 24 24 140 24 24 139 24 24 139 24 24 139 24 24 139 24 24
139 24 24 138 24 24 138 24 24 138 24 24 138 24 24 138 24 24 137 24 24
137 24 24 137 23 23 137 23 23 136 23 23 136 23 23 136 23 23 136 23 23
136 23 23 135 23 23 135 23 23 135 23 23 135 23 23 134 23 23 134 23 23
134 23 23 134 23 23 134 23 23 133 23 23 133 23 23 133 23 23 133 23 23
133 23 23 132 23 23 132 23 23 132 23 23 132 23 23 131 23 23 131 22 22
131 22 22 131 22 22 131 22 22 130 22 22 130 22 22 130 22 22 130 22 22
129 22 22 129 22 22 129 22 22 129 22 22 129 22 22 128 22 22 128 22 22
128 22 22 128 22 22 128 22 22 127 22 22 127 22 22 127 22 22 127 22 22
126 22 22 126 22 22 126 22 22 126 22 22 126 22 22 125 21 21 125 21 21
125 21 21 125 21 21 125 21 21 124 21 21 124 21 21 124 21 21 124 21 21
123 21 21 123 21 21 123 21 21 123 21 21 123 21 21 122 21 21 122 21 21
122 21 21 122 21 21 121 21 21 121 21 21
162 28 28 161 28 28 161 28 28 161 28 28 161 28 28 161 28 28 161 28 28
161 28 28 160 28 28 160 27 27 160 27 27 160 27 27 160 27 27 160 27 27
160 27 27 159 27 27 159 27 27 159 27 27 159 27 27 159 27 27 159 27 27
158 27 27 158 27 27 158 27 27 158 27 27 158 27 27 158 27 27 157 27 27
157 27 27 157 27 27 157 27 27 157 27 27 157 27 27 156 27 27 156 27 27
156 27 27 156 27 27 156 27 27 156 27 27 155 27 27 155 27 27 155 27 27
155 27 27 155 27 27 154 26 26 154 26 26 154 26 26 154 26 26 154 26 26
154 26 26 153 26 26 153 26 26 153 26 26 153 26 26 153 26 26 152 26 26
152 26 26 152 26 26 152 26 26 152 26 26 151 26 26 151 26 26 151 26 26
151 26 26 151 26 26 150 26 26 150 26 26 150 26 26 150 26 26 150 26 26
149 26 26 149 26 26 149 26 26 149 25 25 149 25 25 148 25 25 148 25 25
148 25 25 148 25 25 147 25 25 147 25 25 147 25 25 147 25 25 147 25 25
146 25 25 146 25 25 146 25 25 146 25 25 146 25 25 145 25 25 145 25 25
145 25 25 145 25 25 145 25 25 144 25 25 144 25 25 144 25 25 144 25 25
143 25 25 143 25 25 143 25 25 143 24 24 143 24 24 142 24 24 142 24 24
142 24 24 142 24 24 142 24 24 141 24 24 141 24 24 141 24 24 141 24 24
140 24 24 140 24 24 140 24 24 140 24 24 140 24 24 139 24 24 139 24 24
139 24 24 139 24 24 139 24 24 138 24 24 138 24 24 138 24 24 138 24 24
137 24 24 137 24 24 137 23 23 137 23 23 137 23 23 136 23 23 136 23 23
136 23 23 136 23 23 135 23 23 135 23 23 135 23 23 135 23 23 135 23 23
134 23 23 134 23 23 134 23 23 134 23 23 134 23 23 133 23 23 133 23 23
133 23 23 133 23 23 132 23 23 132 23 23 132 23 23 132 23 23 132 23 23
131 23 23 131 22 22 131 22 22 131 22 22 131 22 22 130 22 22 130 22 22
130 22 22 130 22 22 129 22 22 129 22 22 129 22 22 129 22 22 129 22 22
128 22 22 128 22 22 128 22 22 128 22 22 128 22 22 127 22 22 127 22 22
127 22 22 127 22 22 126 22 22 126 22 22 126 22 22 126 22 22 126 22 22
125 21 21 125 21 21 125 21 21 125 21 21 125 21 21 124 21 21 124 21 21
124 21 21 124 21 21 123 21 21 123 21 21 123 21 21 123 21 21 123 21 21
122 21 21 122 21 21 122 21 21 122 21 21
162 28 28 162 28 28 162 28 28 161 28 28 161 28 28 161 28 28 161 28 28
161 28 28 161 28 28 161 28 28 160 28 28 160 27 27 160 27 27 160 27 27
160 27 27 160 27 27 160 27 27 159 27 27 159 27 27 159 27 27 159 27 27
159 27 27 159 27 27 158 27 27 158 27 27 158 27 27 158 27 27 158 27 27
158 27 27 157 27 27 157 27 27 157 27 27 157 27 27 157 27 27 157 27 27
156 27 27 156 27 27 156 27 27 156 27 27 156 27 27 155 27 27 155 27 27
155 27 27 155 27 27 155 27 27 155 26 26 154 26 26 154 26 26 154 26 26
154 26 26 154 26 26 153 26 26 153 26 26 153 26 26 153 26 26 153 26 26
152 26 26 152 26 26 152 26 26 152 26 26 152 26 26 151 26 26 151 26 26
151 26 26 151 26 26 151 26 26 150 26 26 150 26 26 150 26 26 150 26 26
150 26 26 149 26 26 149 26 26 149 26 26 149 26 26 149 25 25 148 25 25
148 25 25 148 25 25 148 25 25 148 25 25 147 25 25 147 25 25 147 25 25
147 25 25 147 25 25 146 25 25 146 25 25 146 25 25 146 25 25 145 25 25
145 25 25 145 25 25 145 25 25 145 25 25 144 25 25 144 25 25 144 25 25
144 25 25 144 25 25 143 25 25 143 25 25 143 25 25 143 24 24 142 24 24
142 24 24 142 24 24 142 24 24 142 24 24 141 24 24 141 24 24 141 24 24
141 24 24 141 24 24 140 24 24 140 24 24 140 24 24 140 24 24 140 24 24
139 24 24 139 24 24 139 24 24 139 24 24 138 24 24 138 24 24 138 24 24
138 24 24 138 24 24 137 24 24 137 24 24 137 23 23 137 23 23 136 23 23
136 23 23 136 23 23 136 23 23 136 23 23 135 23 23 135 23 23 135 23 23
135 23 23 135 23 23 134 23 23 134 23 23 134 23 23 134 23 23 133 23 23
133 23 23 133 23 23 133 23 23 133 23 23 132 23 23 132 23 23 132 23 23
132 23 23 132 23 23 131 23 23 131 22 22 131 22 22 131 22 22 131 22 22
130 22 22 130 22 22 130 22 22 130 22 22 129 22 22 129 22 22 129 22 22
129 22 22 129 22 22 128 22 22 128 22 22 128 22 22 128 22 22 128 22 22
127 22 22 127 22 22 127 22 22 127 22 22 126 22 22 126 22 22 126 22 22
126 22 22 126 22 22 125 21 21 125 21 21 125 21 21 125 21 21 125 21 21
124 21 21 124 21 21 124 21 21 124 21 21 123 21 21 123 21 21 123 21 21
123 21 21 123 21 21 122 21 21 122 21 21
162 28 28 162 28 28 162 28 28 162 28 28 162 28 28 162 28 28 161 28 28
161 28 28 161 28 28 161 28 28 161 28 28 161 28 28 160 28 28 160 27 27
160 27 27 160 27 27 160 27 27 160 27 27 160 27 27 159 27 27 159 27 27
159 27 27 159 27 27 159 27 27 159 27 27 158 27 27 158 27 27 158 27 27
158 27 27 158 27 27 158 27 27 157 27 27 157 27 27 157 27 27 157 27 27
157 27 27 156 27 27 156 27 27 156 27 27 156 27 27 156 27 27 156 27 27
155 27 27 155 27 27 155 27 27 155 27 27 155 27 27 154 26 26 154 26 26
154 26 26 154 26 26 154 26 26 153 26 26 153 26 26 153 26 26 153 26 26
153 26 26 152 26 26 152 26 26 152 26 26 152 26 26 152 26 26 152 26 26
151 26 26 151 26 26 151 26 26 151 26 26 150 26 26 150 26 26 150 26 26
150 26 26 150 26 26 149 26 26 149 26 26 149 26 26 149 26 26 149 25 25
148 25 25 148 25 25 148 25 25 148 25 25 148 25 25 147 25 25 147 25 25
147 25 25 147 25 25 147 25 25 146 25 25 146 25 25 146 25 25 146 25 25
146 25 25 145 25 25 145 25 25 145 25 25 145 25 25 144 25 25 144 25 25
144 25 25 144 25 25 144 25 25 143 25 25 143 25 25 143 25 25 143 24 24
143 24 24 142 24 24 142 24 24 142 24 24 142 24 24 142 24 24 141 24 24
141 24 24 141 24 24 141 24 24 140 24 24 140 24 24 140 24 24 140 24 24
140 24 24 139 24 24 139 24 24 139 24 24 139 24 24 139 24 24 138 24 24
138 24 24 138 24 24 138 24 24 137 24 24 137 24 24 137 23 23 137 23 23
137 23 23 136 23 23 136 23 23 136 23 23 136 23 23 136 23 23 135 23 23
135 23 23 135 23 23 135 23 23 134 23 23 134 23 23 134 23 23 134 23 23
134 23 23 133 23 23 133 23 23 133 23 23 133 23 23 133 23 23 132 23 23
132 23 23 132 23 23 132 23 23 132 23 23 131 23 23 131 22 22 131 22 22
131 22 22 130 22 22 130 22 22 130 22 22 130 22 22 130 22 22 129 22 22
129 22 22 129 22 22 129 22 22 129 22 22 128 22 22 128 22 22 128 22 22
128 22 22 128 22 22 127 22 22 127 22 22 127 22 22 127 22 22 126 22 22
126 22 22 126 22 22 126 22 22 126 22 22 125 21 21 125 21 21 125 21 21
125 21 21 125 21 21 124 21 21 124 21 21 124 21 21 124 21 21 123 21 21
123 21 21 123 21 21 123 21 21 123 21 21
162 28 28 162 28 28 162 28 28 162 28 28 162 28 28 162 28 28 162 28 28
161 28 28 161 28 28 161 28 28 161 28 28 161 28 28 161 28 28 161 28 28
160 28 28 160 27 27 160 27 27 160 27 27 160 27 27 160 27 27 159 27 27
159 27 27 159 27 27 159 27 27 159 27 27 159 27 27 158 27 27 158 27 27
158 27 27 158 27 27 158 27 27 158 27 27 157 27 27 157 27 27 157 27 27
157 27 27 157 27 27 157 27 27 156 27 27 156 27 27 156 27 27 156 27 27
156 27 27 155 27 27 155 27 27 155 27 27 155 27 27 155 27 27 154 26 26
154 26 26 154 26 26 154 26 26 154 26 26 154 26 26 153 26 26 153 26 26
153 26 26 153 26 26 153 26 26 152 26 26 152 26 26 152 26 26 152 26 26
152 26 26 151 26 26 151 26 26 151 26 26 151 26 26 151 26 26 150 26 26
150 26 26 150 26 26 150 26 26 150 26 26 149 26 26 149 26 26 149 26 26
149 25 25 149 25 25 148 25 25 148 25 25 148 25 25 148 25 25 147 25 25
147 25 25 147 25 25 147 25 25 147 25 25 146 25 25 146 25 25 146 25 25
146 25 25 146 25 25 145 25 25 145 25 25 145 25 25 145 25 25 145 25 25
144 25 25 144 25 25 144 25 25 144 25 25 144 25 25 143 25 25 143 25 25
143 24 24 143 24 24 142 24 24 142 24 24 142 24 24 142 24 24 142 24 24
141 24 24 141 24 24 141 24 24 141 24 24 141 24 24 140 24 24 140 24 24
140 24 24 140 24 24 139 24 24 139 24 24 139 24 24 139 24 24 139 24 24
138 24 24 138 24 24 138 24 24 138 24 24 138 24 24 137 24 24 137 24 24
137 23 23 137 23 23 137 23 23 136 23 23 136 23 23 136 23 23 136 23 23
135 23 23 135 23 23 135 23 23 135 23 23 135 23 23 134 23 23 134 23 23
134 23 23 134 23 23 134 23 23 133 23 23 133 23 23 133 23 23 133 23 23
133 23 23 132 23 23 132 23 23 132 23 23 132 23 23 131 23 23 131 23 23
131 22 22 131 22 22 131 22 22 130 22 22 130 22 22 130 22 22 130 22 22
130 22 22 129 22 22 129 22 22 129 22 22 129 22 22 129 22 22 128 22 22
128 22 22 128 22 22 128 22 22 127 22 22 127 22 22 127 22 22 127 22 22
127 22 22 126 22 22 126 22 22 126 22 22 126 22 22 126 22 22 125 21 21
125 21 21 125 21 21 125 21 21 125 21 21 124 21 21 124 21 21 124 21 21
124 21 21 123 21 21 123 21 21 123 21 21
163 28 28 163 28 28 162 28 28 162 28 28 162 28 28 162 28 28 162 28 28
162 28 28 162 28 28 161 28 28 161 28 28 161 28 28 161 28 28 161 28 28
161 28 28 161 28 28 160 27 27 160 27 27 160 27 27 160 27 27 160 27 27
160 27 27 159 27 27 159 27 27 159 27 27 159 27 27 159 27 27 159 27 27
158 27 27 158 27 27 158 27 27 158 27 27 158 27 27 157 27 27 157 27 27
157 27 27 157 27 27 157 27 27 157 27 27 156 27 27 156 27 27 156 27 27
156 27 27 156 27 27 155 27 27 155 27 27 155 27 27 155 27 27 155 27 27
155 26 26 154 26 26 154 26 26 154 26 26 154 26 26 154 26 26 153 26 26
153 26 26 153 26 26 153 26 26 153 26 26 152 26 26 152 26 26 152 26 26
152 26 26 152 26 26 151 26 26 151 26 26 151 26 26 151 26 26 151 26 26
150 26 26 150 26 26 150 26 26 150 26 26 150 26 26 149 26 26 149 26 26
149 26 26 149 26 26 149 25 25 148 25 25 148 25 25 148 25 25 148 25 25
148 25 25 147 25 25 147 25 25 147 25 25 147 25 25 146 25 25 146 25 25
146 25 25 146 25 25 146 25 25 145 25 25 145 25 25 145 25 25 145 25 25
145 25 25 144 25 25 144 25 25 144 25 25 144 25 25 144 25 25 143 25 25
143 25 25 143 25 25 143 24 24 143 24 24 142 24 24 142 24 24 142 24 24
142 24 24 141 24 24 141 24 24 141 24 24 141 24 24 141 24 24 140 24 24
140 24 24 140 24 24 140 24 24 140 24 24 139 24 24 139 24 24 139 24 24
139 24 24 139 24 24 138 24 24 138 24 24 138 24 24 138 24 24 137 24 24
137 24 24 137 23 23 137 23 23 137 23 23 136 23 23 136 23 23 136 23 23
136 23 23 136 23 23 135 23 23 135 23 23 135 23 23 135 23 23 135 23 23
134 23 23 134 23 23 134 23 23 134 23 23 133 23 23 133 23 23 133 23 23
133 23 23 133 23 23 132 23 23 132 23 23 132 23 23 132 23 23 132 23 23
131 23 23 131 22 22 131 22 22 131 22 22 131 22 22 130 22 22 130 22 22
130 22 22 130 22 22 130 22 22 129 22 22 129 22 22 129 22 22 129 22 22
128 22 22 128 22 22 128 22 22 128 22 22 128 22 22 127 22 22 127 22 22
127 22 22 127 22 22 127 22 22 126 22 22 126 22 22 126 22 22 126 22 22
126 22 22 125 21 21 125 21 21 125 21 21 125 21 21 124 21 21 124 21 21
124 21 21 124 21 21 124 21 21 123 21 21
163 28 28 163 28 28 163 28 28 163 28 28 162 28 28 162 28 28 162 28 28
162 28 28 162 28 28 162 28 28 162 28 28 161 28 28 161 28 28 161 28 28
161 28 28 161 28 28 161 28 28 160 27 27 160 27 27 160 27 27 160 27 27
160 27 27 160 27 27 159 27 27 159 27 27 159 27 27 159 27 27 159 27 27
159 27 27 158 27 27 158 27 27 158 27 27 158 27 27 158 27 27 158 27 27
157 27 27 157 27 27 157 27 27 157 27 27 157 27 27 156 27 27 156 27 27
156 27 27 156 27 27 156 27 27 155 27 27 155 27 27 155 27 27 155 27 27
155 27 27 155 26 26 154 26 26 154 26 26 154 26 26 154 26 26 154 26 26
153 26 26 153 26 26 153 26 26 153 26 26 153 26 26 152 26 26 152 26 26
152 26 26 152 26 26 152 26 26 151 26 26 151 26 26 151 26 26 151 26 26
151 26 26 150 26 26 150 26 26 150 26 26 150 26 26 150 26 26 149 26 26
149 26 26 149 26 26 149 26 26 149 25 25 148 25 25 148 25 25 148 25 25
148 25 25 148 25 25 147 25 25 147 25 25 147 25 25 147 25 25 147 25 25
146 25 25 146 25 25 146 25 25 146 25 25 146 25 25 145 25 25 145 25 25
145 25 25 145 25 25 144 25 25 144 25 25 144 25 25 144 25 25 144 25 25
143 25 25 143 25 25 143 25 25 143 24 24 143 24 24 142 24 24 142 24 24
142 24 24 142 24 24 142 24 24 141 24 24 141 24 24 141 24 24 141 24 24
140 24 24 140 24 24 140 24 24 140 24 24 140 24 24 139 24 24 139 24 24
139 24 24 139 24 24 139 24 24 138 24 24 138 24 24 138 24 24 138 24 24
138 24 24 137 24 24 137 24 24 137 23 23 137 23 23 137 23 23 136 23 23
136 23 23 136 23 23 136 23 23 135 23 23 135 23 23 135 23 23 135 23 23
135 23 23 134 23 23 134 23 23 134 23 23 134 23 23 134 23 23 133 23 23
133 23 23 133 23 23 133 23 23 133 23 23 132 23 23 132 23 23 132 23 23
132 23 23 132 23 23 131 23 23 131 22 22 131 22 22 131 22 22 130 22 22
130 22 22 130 22 22 130 22 22 130 22 22 129 22 22 129 22 22 129 22 22
129 22 22 129 22 22 128 22 22 128 22 22 128 22 22 128 22 22 128 22 22
127 22 22 127 22 22 127 22 22 127 22 22 127 22 22 126 22 22 126 22 22
126 22 22 126 22 22 126 22 22 125 21 21 125 21 21 125 21 21 125 21 21
124 21 21 124 21 21 124 21 21 124 21 21
163 28 28 163 28 28 163 28 28 163 28 28 163 28 28 162 28 28 162 28 28
162 28 28 162 28 28 162 28 28 162 28 28 162 28 28 161 28 28 161 28 28
161 28 28 161 28 28 161 28 28 161 28 28 160 28 28 160 27 27 160 27 27
160 27 27 160 27 27 160 27 27 159 27 27 159 27 27 159 27 27 159 27 27
159 27 27 159 27 27 158 27 27 158 27 27 158 27 27 158 27 27 158 27 27
158 27 27 157 27 27 157 27 27 157 27 27 157 27 27 157 27 27 156 27 27
156 27 27 156 27 27 156 27 27 156 27 27 156 27 27 155 27 27 155 27 27
155 27 27 155 27 27 155 26 26 154 26 26 154 26 26 154 26 26 154 26 26
154 26 26 153 26 26 153 26 26 153 26 26 153 26 26 153 26 26 152 26 26
152 26 26 152 26 26 152 26 26 152 26 26 151 26 26 151 26 26 151 26 26
151 26 26 151 26 26 150 26 26 150 26 26 150 26 26 150 26 26 150 26 26
149 26 26 149 26 26 149 26 26 149 26 26 149 25 25 148 25 25 148 25 25
148 25 25 148 25 25 148 25 25 147 25 25 147 25 25 147 25 25 147 25 25
147 25 25 146 25 25 146 25 25 146 25 25 146 25 25 146 25 25 145 25 25
145 25 25 145 25 25 145 25 25 145 25 25 144 25 25 144 25 25 144 25 25
144 25 25 143 25 25 143 25 25 143 25 25 143 24 24 143 24 24 142 24 24
142 24 24 142 24 24 142 24 24 142 24 24 141 24 24 141 24 24 141 24 24
141 24 24 141 24 24 140 24 24 140 24 24 140 24 24 140 24 24 140 24 24
139 24 24 139 24 24 139 24 24 139 24 24 138 24 24 138 24 24 138 24 24
138 24 24 138 24 24 137 24 24 137 24 24 137 23 23 137 23 23 137 23 23
136 23 23 136 23 23 136 23 23 136 23 23 136 23 23 135 23 23 135 23 23
135 23 23 135 23 23 135 23 23 134 23 23 134 23 23 134 23 23 134 23 23
134 23 23 133 23 23 133 23 23 133 23 23 133 23 23 132 23 23 132 23 23
132 23 23 132 23 23 132 23 23 131 23 23 131 23 23 131 22 22 131 22 22
131 22 22 130 22 22 130 22 22 130 22 22 130 22 22 130 22 22 129 22 22
129 22 22 129 22 22 129 22 22 129 22 22 128 22 22 128 22 22 128 22 22
128 22 22 128 22 22 127 22 22 127 22 22 127 22 22 127 22 22 127 22 22
126 22 22 126 22 22 126 22 22 126 22 22 125 22 22 125 21 21 125 21 21
125 21 21 125 21 21 124 21 21 124 21 21

