P3
200 100
255
0 0 0 0 0 0 0 0 0 0 0 0 0 0 0 0 0 0 0 0 0 0 0 0 0 0 0 0 0 0 0 0 0 0 0
0 0 0 0 0 0 0 0 0 0 0 0 0 0 0 0 0 0 0 0 0 0 0 0 0 0 0 0 0 0 0 0 0 0 0
0 0 0 0 0 0 0 0 0 0 0 0 0 0 0 0 0 0 0 0 0 0 0 0 0 0 0 0 0 0 0 0 0 0 0
0 0 0 0 0 0 0 0 0 0 0 0 0 0 0 0 0 0 0 0 0 0 0 0 0 0 0 0 0 0 0 0 0 0 0
0 0 0 0 0 0 0 0 0 0 0 0 0 0 0 0 0 0 0 0 0 0 0 0 0 0 0 0 0 0 0 0 0 0 0
0 0 0 0 0 0 0 0 0 0 0 0 0 0 0 0 0 0 0 0 0 0 0 0 0 0 0 0 0 0 0 0 0 0 0
0 0 0 0 0 0 0 0 0 0 0 0 0 0 0 0 0 0 0 0 0 0 0 0 0 0 0 0 0 0 0 0 0 0 0
0 0 0 0 0 0 0 0 0 0 0 0 0 0 0 0 0 0 0 0 0 0 0 0 0 0 0 0 0 0 0 0 0 0 0
0 0 0 0 0 0 0 0 0 0 0 0 0 0 0 0 0 0 0 0 0 0 0 0 0 0 0 0 0 0 0 0 0 0 0
0 0 0 0 0 0 0 0 0 0 0 0 0 0 0 0 0 0 0 0 0 0 0 0 0 0 0 0 0 0 0 0 0 0 0
0 0 0 0 0 0 0 0 0 0 0 0 0 0 0 0 0 0 0 0 0 0 0 0 0 0 0 0 0 0 0 0 0 0 0
0 0 0 0 0 0 0 0 0 0 0 0 0 0 0 0 0 0 0 0 0 0 0 0 0 0 0 0 0 0 0 0 0 0 0
0 0 0 0 0 0 0 0 0 0 0 0 0 0 0 0 0 0 0 0 0 0 0 0 0 0 0 0 0 0 0 0 0 0 0
0 0 0 0 0 0 0 0 0 0 0 0 0 0 0 0 0 0 0 0 0 0 0 0 0 0 0 0 0 0 0 0 0 0 0
0 0 0 0 0 0 0 0 0 0 0 0 0 0 0 0 0 0 0 0 0 0 0 0 0 0 0 0 0 0 0 0 0 0 0
0 0 0 0 0 0 0 0 0 0 0 0 0 0 0 0 0 0 0 0 0 0 0 0 0 0 0 0 0 0 0 0 0 0 0
0 0 0 0 0 0 0 0 0 0 0 0 0 0 0 0 0 0 0 0 0 0 0 0 0 0 0 0 0 0 0 0 0 0 0
0 0 0 0 0
0 0 0 0 0 0 0 0 0 0 0 0 0 0 0 0 0 0 0 0 0 0 0 0 0 0 0 0 0 0 0 0 0 0 0
0 0 0 0 0 0 0 0 0 0 0 0 0 0 0 0 0 0 0 0 0 0 0 0 0 0 0 0 0 0 0 0 0 0 0
0 0 0 0 0 0 0 0 0 0 0 0 0 0 0 0 0 0 0 0 0 0 0 0 0 0 0 0 0 0 0 0 0 0 0
0 0 0 0 0 0 0 0 0 0 0 0 0 0 0 0 0 0 0 0 0 0 0 0 0 0 0 0 0 0 0 0 0 0 0
0 0 0 0 0 0 0 0 0 0 0 0 0 0 0 0 0 0 0 0 0 0 0 0 0 0 0 0 0 0 0 0 0 0 0
0 0 0 0 0 0 0 0 0 0 0 0 0 0 0 0 0 0 0 0 0 0 0 0 0 0 0 0 0 0 0 0 0 0 0
0 0 0 0 0 0 0 0 0 0 0 0 0 0 0 0 0 0 0 0 0 0 0 0 0 0 0 0 0 0 0 0 0 0 0
0 0 0 0 0 0 0 0 0 0 0 0 0 0 0 0 0 0 0 0 0 0 0 0 0 0 0 0 0 0 0 0 0 0 0
0 0 0 0 0 0 0 0 0 0 0 0 0 0 0 0 0 0 0 0 0 0 0 0 0 0 0 0 0 0 0 0 0 0 0
0 0 0 0 0 0 0 0 0 0 0 0 0 0 0 0 0 0 0 0 0 0 0 0 0 0 0 0 0 0 0 0 0 0 0
0 0 0 0 0 0 0 0 0 0 0 0 0 0 0 0 0 0 0 0 0 0 0 0 0 0 0 0 0 0 0 0 0 0 0
0 0 0 0 0 0 0 0 0 0 0 0 0 0 0 0 0 0 0 0 0 0 0 0 0 0 0 0 0 0 0 0 0 0 0
0 0 0 0 0 0 0 0 0 0 0 0 0 0 0 0 0 0 0 0 0 0 0 0 0 0 0 0 0 0 0 0 0 0 0
0 0 0 0 0 0 0 0 0 0 0 0 0 0 0 0 0 0 0 0 0 0 0 0 0 0 0 0 0 0 0 0 0 0 0
0 0 0 0 0 0 0 0 0 0 0 0 0 0 0 0 0 0 0 0 0 0 0 0 0 0 0 0 0 0 0 0 0 0 0
0 0 0 0 0 0 0 0 0 0 0 0 0 0 0 0 0 0 0 0 0 0 0 0 0 0 0 0 0 0 0 0 0 0 0
0 0 0 0 0 0 0 0 0 0 0 0 0 0 0 0 0 0 0 0 0 0 0 0 0 0 0 0 0 0 0 0 0 0 0
0 0 0 0 0
0 0 0 0 0 0 0 0 0 0 0 0 0 0 0 0 0 0 0 0 0 0 0 0 0 0 0 0 0 0 0 0 0 0 0
0 0 0 0 0 0 0 0 0 0 0 0 0 0 0 0 0 0 0 0 0 0 0 0 0 0 0 0 0 0 0 0 0 0 0
0 0 0 0 0 0 0 0 0 0 0 0 0 0 0 0 0 0 0 0 0 0 0 0 0 0 0 0 0 0 0 0 0 0 0
0 0 0 0 0 0 0 0 0 0 0 0 0 0 0 0 0 0 0 0 0 0 0 0 0 0 0 0 0 0 0 0 0 0 0
0 0 0 0 0 0 0 0 0 0 0 0 0 0 0 0 0 0 0 0 0 0 0 0 0 0 0 0 0 0 0 0 0 0 0
0 0 0 0 0 0 0 0 0 0 0 0 0 0 0 0 0 0 0 0 0 0 0 0 0 0 0 0 0 0 0 0 0 0 0
0 0 0 0 0 0 0 0 0 0 0 0 0 0 0 0 0 0 0 0 0 0 0 0 0 0 0 0 0 0 0 0 0 0 0
0 0 0 0 0 0 0 0 0 0 0 0 0 0 0 0 0 0 0 0 0 0 0 0 0 0 0 0 0 0 0 0 0 0 0
0 0 0 0 0 0 0 0 0 0 0 0 0 0 0 0 0 0 0 0 0 0 0 0 0 0 0 0 0 0 0 0 0 0 0
0 0 0 0 0 0 0 0 0 0 0 0 0 0 0 0 0 0 0 0 0 0 0 0 0 0 0 0 0 0 0 0 0 0 0
0 0 0 0 0 0 0 0 0 0 0 0 0 0 0 0 0 0 0 0 0 0 0 0 0 0 0 0 0 0 0 0 0 0 0
0 0 0 0 0 0 0 0 0 0 0 0 0 0 0 0 0 0 0 0 0 0 0 0 0 0 0 0 0 0 0 0 0 0 0
0 0 0 0 0 0 0 0 0 0 0 0 0 0 0 0 0 0 0 0 0 0 0 0 0 0 0 0 0 0 0 0 0 0 0
0 0 0 0 0 0 0 0 0 0 0 0 0 0 0 0 0 0 0 0 0 0 0 0 0 0 0 0 0 0 0 0 0 0 0
0 0 0 0 0 0 0 0 0 0 0 0 0 0 0 0 0 0 0 0 0 0 0 0 0 0 0 0 0 0 0 0 0 0 0
0 0 0 0 0 0 0 0 0 0 0 0 0 0 0 0 0 0 0 0 0 0 0 0 0 0 0 0 0 0 0 0 0 0 0
0 0 0 0 0 0 0 0 0 0 0 0 0 0 0 0 0 0 0 0 0 0 0 0 0 0 0 0 0 0 0 0 0 0 0
0 0 0 0 0
0 0 0 0 0 0 0 0 0 0 0 0 0 0 0 0 0 0 0 0 0 0 0 0 0 0 0 0 0 0 0 0 0 0 0
0 0 0 0 0 0 0 0 0 0 0 0 0 0 0 0 0 0 0 0 0 0 0 0 0 0 0 0 0 0 0 0 0 0 0
0 0 0 0 0 0 0 0 0 0 0 0 0 0 0 0 0 0 0 0 0 0 0 0 0 0 0 0 0 0 0 0 0 0 0
0 0 0 0 0 0 0 0 0 0 0 0 0 0 0 0 0 0 0 0 0 0 0 0 0 0 0 0 0 0 0 0 0 0 0
0 0 0 0 0 0 0 0 0 0 0 0 0 0 0 0 0 0 0 0 0 0 0 0 0 0 0 0 0 0 0 0 0 0 0
0 0 0 0 0 0 0 0 0 0 0 0 0 0 0 0 0 0 0 0 0 0 0 0 0 0 0 0 0 0 0 0 0 0 0
0 0 0 0 0 0 0 0 0 0 0 0 0 0 0 0 0 0 0 0 0 0 0 0 0 0 0 0 0 0 0 0 0 0 0
0 0 0 0 0 0 0 0 0 0 0 0 0 0 0 0 0 0 0 0 0 0 0 0 0 0 0 0 0 0 0 0 0 0 0
0 0 0 0 0 0 0 0 0 0 0 0 0 0 0 0 0 0 0 0 0 0 0 0 0 0 0 0 0 0 0 0 0 0 0
0 0 0 0 0 0 0 0 0 0 0 0 0 0 0 0 0 0 0 0 0 0 0 0 0 0 0 0 0 0 0 0 0 0 0
0 0 0 0 0 0 0 0 0 0 0 0 0 0 0 0 0 0 0 0 0 0 0 0 0 0 0 0 0 0 0 0 0 0 0
0 0 0 0 0 0 0 0 0 0 0 0 0 0 0 0 0 0 0 0 0 0 0 0 0 0 0 0 0 0 0 0 0 0 0
0 0 0 0 0 0 0 0 0 0 0 0 0 0 0 0 0 0 0 0 0 0 0 0 0 0 0 0 0 0 0 0 0 0 0
0 0 0 0 0 0 0 0 0 0 0 0 0 0 0 0 0 0 0 0 0 0 0 0 0 0 0 0 0 0 0 0 0 0 0
0 0 0 0 0 0 0 0 0 0 0 0 0 0 0 0 0 0 0 0 0 0 0 0 0 0 0 0 0 0 0 0 0 0 0
0 0 0 0 0 0 0 0 0 0 0 0 0 0 0 0 0 0 0 0 0 0 0 0 0 0 0 0 0 0 0 0 0 0 0
0 0 0 0 0 0 0 0 0 0 0 0 0 0 0 0 0 0 0 0 0 0 0 0 0 0 0 0 0 0 0 0 0 0 0
0 0 0 0 0
0 0 0 0 0 0 0 0 0 0 0 0 0 0 0 0 0 0 0 0 0 0 0 0 0 0 0 0 0 0 0 0 0 0 0
0 0 0 0 0 0 0 0 0 0 0 0 0 0 0 0 0 0 0 0 0 0 0 0 0 0 0 0 0 0 0 0 0 0 0
0 0 0 0 0 0 0 0 0 0 0 0 0 0 0 0 0 0 0 0 0 0 0 0 0 0 0 0 0 0 0 0 0 0 0
0 0 0 0 0 0 0 0 0 0 0 0 0 0 0 0 0 0 0 0 0 0 0 0 0 0 0 0 0 0 0 0 0 0 0
0 0 0 0 0 0 0 0 0 0 0 0 0 0 0 0 0 0 0 0 0 0 0 0 0 0 0 0 0 0 0 0 0 0 0
0 0 0 0 0 0 0 0 0 0 0 0 0 0 0 0 0 0 0 0 0 0 0 0 0 0 0 0 0 0 0 0 0 0 0
0 0 0 0 0 0 0 0 0 0 0 0 0 0 0 0 0 0 0 0 0 0 0 0 0 0 0 0 0 0 0 0 0 0 0
0 0 0 0 0 0 0 0 0 0 0 0 0 0 0 0 0 0 0 0 0 0 0 0 0 0 0 0 0 0 0 0 0 0 0
0 0 0 0 0 0 0 0 0 0 0 0 0 0 0 0 0 0 0 0 0 0 0 0 0 0 0 0 0 0 0 0 0 0 0
0 0 0 0 0 0 0 0 0 0 0 0 0 0 0 0 0 0 0 0 0 0 0 0 0 0 0 0 0 0 0 0 0 0 0
0 0 0 0 0 0 0 0 0 0 0 0 0 0 0 0 0 0 0 0 0 0 0 0 0 0 0 0 0 0 0 0 0 0 0
0 0 0 0 0 0 0 0 0 0 0 0 0 0 0 0 0 0 0 0 0 0 0 0 0 0 0 0 0 0 0 0 0 0 0
0 0 0 0 0 0 0 0 0 0 0 0 0 0 0 0 0 0 0 0 0 0 0 0 0 0 0 0 0 0 0 0 0 0 0
0 0 0 0 0 0 0 0 0 0 0 0 0 0 0 0 0 0 0 0 0 0 0 0 0 0 0 0 0 0 0 0 0 0 0
0 0 0 0 0 0 0 0 0 0 0 0 0 0 0 0 0 0 0 0 0 0 0 0 0 0 0 0 0 0 0 0 0 0 0
0 0 0 0 0 0 0 0 0 0 0 0 0 0 0 0 0 0 0 0 0 0 0 0 0 0 0 0 0 0 0 0 0 0 0
0 0 0 0 0 0 0 0 0 0 0 0 0 0 0 0 0 0 0 0 0 0 0 0 0 0 0 0 0 0 0 0 0 0 0
0 0 0 0 0
0 0 0 0 0 0 0 0 0 0 0 0 0 0 0 0 0 0 0 0 0 0 0 0 0 0 0 0 0 0 0 0 0 0 0
0 0 0 0 0 0 0 0 0 0 0 0 0 0 0 0 0 0 0 0 0 0 0 0 0 0 0 0 0 0 0 0 0 0 0
0 0 0 0 0 0 0 0 0 0 0 0 0 0 0 0 0 0 0 0 0 0 0 0 0 0 0 0 0 0 0 0 0 0 0
0 0 0 0 0 0 0 0 0 0 0 0 0 0 0 0 0 0 0 0 0 0 0 0 0 0 0 0 0 0 0 0 0 0 0
0 0 0 0 0 0 0 0 0 0 0 0 0 0 0 0 0 0 0 0 0 0 0 0 0 0 0 0 0 0 0 0 0 0 0
0 0 0 0 0 0 0 0 0 0 0 0 0 0 0 0 0 0 0 0 0 0 0 0 0 0 0 0 0 0 0 0 0 0 0
0 0 0 0 0 0 0 0 0 0 0 0 0 0 0 0 0 0 0 0 0 0 0 0 0 0 0 0 0 0 0 0 0 0 0
0 0 0 0 0 0 0 0 0 0 0 0 0 0 0 0 0 0 0 0 0 0 0 0 0 0 0 0 0 0 0 0 0 0 0
0 0 0 0 0 0 0 0 0 0 0 0 0 0 0 0 0 0 0 0 0 0 0 0 0 0 0 0 0 0 0 0 0 0 0
0 0 0 0 0 0 0 0 0 0 0 0 0 0 0 0 0 0 0 0 0 0 0 0 0 0 0 0 0 0 0 0 0 0 0
0 0 0 0 0 0 0 0 0 0 0 0 0 0 0 0 0 0 0 0 0 0 0 0 0 0 0 0 0 0 0 0 0 0 0
0 0 0 0 0 0 0 0 0 0 0 0 0 0 0 0 0 0 0 0 0 0 0 0 0 0 0 0 0 0 0 0 0 0 0
0 0 0 0 0 0 0 0 0 0 0 0 0 0 0 0 0 0 0 0 0 0 0 0 0 0 0 0 0 0 0 0 0 0 0
0 0 0 0 0 0 0 0 0 0 0 0 0 0 0 0 0 0 0 0 0 0 0 0 0 0 0 0 0 0 0 0 0 0 0
0 0 0 0 0 0 0 0 0 0 0 0 0 0 0 0 0 0 0 0 0 0 0 0 0 0 0 0 0 0 0 0 0 0 0
0 0 0 0 0 0 0 0 0 0 0 0 0 0 0 0 0 0 0 0 0 0 0 0 0 0 0 0 0 0 0 0 0 0 0
0 0 0 0 0 0 0 0 0 0 0 0 0 0 0 0 0 0 0 0 0 0 0 0 0 0 0 0 0 0 0 0 0 0 0
0 0 0 0 0
0 0 0 0 0 0 0 0 0 0 0 0 0 0 0 0 0 0 0 0 0 0 0 0 0 0 0 0 0 0 0 0 0 0 0
0 0 0 0 0 0 0 0 0 0 0 0 0 0 0 0 0 0 0 0 0 0 0 0 0 0 0 0 0 0 0 0 0 0 0
0 0 0 0 0 0 0 0 0 0 0 0 0 0 0 0 0 0 0 0 0 0 0 0 0 0 0 0 0 0 0 0 0 0 0
0 0 0 0 0 0 0 0 0 0 0 0 0 0 0 0 0 0 0 0 0 0 0 0 0 0 0 0 0 0 0 0 0 0 0
0 0 0 0 0 0 0 0 0 0 0 0 0 0 0 0 0 0 0 0 0 0 0 0 0 0 0 0 0 0 0 0 0 0 0
0 0 0 0 0 0 0 0 0 0 0 0 0 0 0 0 0 0 0 0 0 0 0 0 0 0 0 0 0 0 0 0 0 0 0
0 0 0 0 0 0 0 0 0 0 0 0 0 0 0 0 0 0 0 0 0 0 0 0 0 0 0 0 0 0 0 0 0 0 0
0 0 0 0 0 0 0 0 0 0 0 0 0 0 0 0 0 0 0 0 0 0 0 0 0 0 0 0 0 0 0 0 0 0 0
0 0 0 0 0 0 0 0 0 0 0 0 0 0 0 0 0 0 0 0 0 0 0 0 0 0 0 0 0 0 0 0 0 0 0
0 0 0 0 0 0 0 0 0 0 0 0 0 0 0 0 0 0 0 0 0 0 0 0 0 0 0 0 0 0 0 0 0 0 0
0 0 0 0 0 0 0 0 0 0 0 0 0 0 0 0 0 0 0 0 0 0 0 0 0 0 0 0 0 0 0 0 0 0 0
0 0 0 0 0 0 0 0 0 0 0 0 0 0 0 0 0 0 0 0 0 0 0 0 0 0 0 0 0 0 0 0 0 0 0
0 0 0 0 0 0 0 0 0 0 0 0 0 0 0 0 0 0 0 0 0 0 0 0 0 0 0 0 0 0 0 0 0 0 0
0 0 0 0 0 0 0 0 0 0 0 0 0 0 0 0 0 0 0 0 0 0 0 0 0 0 0 0 0 0 0 0 0 0 0
0 0 0 0 0 0 0 0 0 0 0 0 0 0 0 0 0 0 0 0 0 0 0 0 0 0 0 0 0 0 0 0 0 0 0
0 0 0 0 0 0 0 0 0 0 0 0 0 0 0 0 0 0 0 0 0 0 0 0 0 0 0 0 0 0 0 0 0 0 0
0 0 0 0 0 0 0 0 0 0 0 0 0 0 0 0 0 0 0 0 0 0 0 0 0 0 0 0 0 0 0 0 0 0 0
0 0 0 0 0
0 0 0 0 0 0 0 0 0 0 0 0 0 0 0 0 0 0 0 0 0 0 0 0 0 0 0 0 0 0 0 0 0 0 0
0 0 0 0 0 0 0 0 0 0 0 0 0 0 0 0 0 0 0 0 0 0 0 0 0 0 0 0 0 0 0 0 0 0 0
0 0 0 0 0 0 0 0 0 0 0 0 0 0 0 0 0 0 0 0 0 0 0 0 0 0 0 0 0 0 0 0 0 0 0
0 0 0 0 0 0 0 0 0 0 0 0 0 0 0 0 0 0 0 0 0 0 0 0 0 0 0 0 0 0 0 0 0 0 0
0 0 0 0 0 0 0 0 0 0 0 0 0 0 0 0 0 0 0 0 0 0 0 0 0 0 0 0 0 0 0 0 0 0 0
0 0 0 0 0 0 0 0 0 0 0 0 0 0 0 0 0 0 0 0 0 0 0 0 0 0 0 0 0 0 0 0 0 0 0
0 0 0 0 0 0 0 0 0 0 0 0 0 0 0 0 0 0 0 0 0 0 0 0 0 0 0 0 0 0 0 0 0 0 0
0 0 0 0 0 0 0 0 0 0 0 0 0 0 0 0 0 0 0 0 0 0 0 0 0 0 0 0 0 0 0 0 0 0 0
0 0 0 0 0 0 0 0 0 0 0 0 0 0 0 0 0 0 0 0 0 0 0 0 0 0 0 0 0 0 0 0 0 0 0
0 0 0 0 0 0 0 0 0 0 0 0 0 0 0 0 0 0 0 0 0 0 0 0 0 0 0 0 0 0 0 0 0 0 0
0 0 0 0 0 0 0 0 0 0 0 0 0 0 0 0 0 0 0 0 0 0 0 0 0 0 0 0 0 0 0 0 0 0 0
0 0 0 0 0 0 0 0 0 0 0 0 0 0 0 0 0 0 0 0 0 0 0 0 0 0 0 0 0 0 0 0 0 0 0
0 0 0 0 0 0 0 0 0 0 0 0 0 0 0 0 0 0 0 0 0 0 0 0 0 0 0 0 0 0 0 0 0 0 0
0 0 0 0 0 0 0 0 0 0 0 0 0 0 0 0 0 0 0 0 0 0 0 0 0 0 0 0 0 0 0 0 0 0 0
0 0 0 0 0 0 0 0 0 0 0 0 0 0 0 0 0 0 0 0 0 0 0 0 0 0 0 0 0 0 0 0 0 0 0
0 0 0 0 0 0 0 0 0 0 0 0 0 0 0 0 0 0 0 0 0 0 0 0 0 0 0 0 0 0 0 0 0 0 0
0 0 0 0 0 0 0 0 0 0 0 0 0 0 0 0 0 0 0 0 0 0 0 0 0 0 0 0 0 0 0 0 0 0 0
0 0 0 0 0
0 0 0 0 0 0 0 0 0 0 0 0 0 0 0 0 0 0 0 0 0 0 0 0 0 0 0 0 0 0 0 0 0 0 0
0 0 0 0 0 0 0 0 0 0 0 0 0 0 0 0 0 0 0 0 0 0 0 0 0 0 0 0 0 0 0 0 0 0 0
0 0 0 0 0 0 0 0 0 0 0 0 0 0 0 0 0 0 0 0 0 0 0 0 0 0 0 0 0 0 0 0 0 0 0
0 0 0 0 0 0 0 0 0 0 0 0 0 0 0 0 0 0 0 0 0 0 0 0 0 0 0 0 0 0 0 0 0 0 0
0 0 0 0 0 0 0 0 0 0 0 0 0 0 0 0 0 0 0 0 0 0 0 0 0 0 0 0 0 0 0 0 0 0 0
0 0 0 0 0 0 0 0 0 0 0 0 0 0 0 0 0 0 0 0 0 0 0 0 0 0 0 0 0 0 0 0 0 0 0
0 0 0 0 0 0 0 0 0 0 0 0 0 0 0 0 0 0 0 0 0 0 0 0 0 0 0 0 0 0 0 0 0 0 0
0 0 0 0 0 0 0 0 0 0 0 0 0 0 0 0 0 0 0 0 0 0 0 0 0 0 0 0 0 0 0 0 0 0 0
0 0 0 0 0 0 0 0 0 0 0 0 0 0 0 0 0 0 0 0 0 0 0 0 0 0 0 0 0 0 0 0 0 0 0
0 0 0 0 0 0 0 0 0 0 0 0 0 0 0 0 0 0 0 0 0 0 0 0 0 0 0 0 0 0 0 0 0 0 0
0 0 0 0 0 0 0 0 0 0 0 0 0 0 0 0 0 0 0 0 0 0 0 0 0 0 0 0 0 0 0 0 0 0 0
0 0 0 0 0 0 0 0 0 0 0 0 0 0 0 0 0 0 0 0 0 0 0 0 0 0 0 0 0 0 0 0 0 0 0
0 0 0 0 0 0 0 0 0 0 0 0 0 0 0 0 0 0 0 0 0 0 0 0 0 0 0 0 0 0 0 0 0 0 0
0 0 0 0 0 0 0 0 0 0 0 0 0 0 0 0 0 0 0 0 0 0 0 0 0 0 0 0 0 0 0 0 0 0 0
0 0 0 0 0 0 0 0 0 0 0 0 0 0 0 0 0 0 0 0 0 0 0 0 0 0 0 0 0 0 0 0 0 0 0
0 0 0 0 0 0 0 0 0 0 0 0 0 0 0 0 0 0 0 0 0 0 0 0 0 0 0 0 0 0 0 0 0 0 0
0 0 0 0 0 0 0 0 0 0 0 0 0 0 0 0 0 0 0 0 0 0 0 0 0 0 0 0 0 0 0 0 0 0 0
0 0 0 0 0
0 0 0 0 0 0 0 0 0 0 0 0 0 0 0 0 0 0 0 0 0 0 0 0 0 0 0 0 0 0 0 0 0 0 0
0 0 0 0 0 0 0 0 0 0 0 0 0 0 0 0 0 0 0 0 0 0 0 0 0 0 0 0 0 0 0 0 0 0 0
0 0 0 0 0 0 0 0 0 0 0 0 0 0 0 0 0 0 0 0 0 0 0 0 0 0 0 0 0 0 0 0 0 0 0
0 0 0 0 0 0 0 0 0 0 0 0 0 0 0 0 0 0 0 0 0 0 0 0 0 0 0 0 0 0 0 0 0 0 0
0 0 0 0 0 0 0 0 0 0 0 0 0 0 0 0 0 0 0 0 0 0 0 0 0 0 0 0 0 0 0 0 0 0 0
0 0 0 0 0 0 0 0 0 0 0 0 0 0 0 0 0 0 0 0 0 0 0 0 0 0 0 0 0 0 0 0 0 0 0
0 0 0 0 0 0 0 0 0 0 0 0 0 0 0 0 0 0 0 0 0 0 0 0 0 0 0 0 0 0 0 0 0 0 0
0 0 0 0 0 0 0 0 0 0 0 0 0 0 0 0 0 0 0 0 0 0 0 0 0 0 0 0 0 0 0 0 0 0 0
0 0 0 0 0 0 0 0 0 0 0 0 0 0 0 0 0 0 0 0 0 0 0 0 0 0 0 0 0 0 0 0 0 0 0
0 0 0 0 0 0 0 0 0 0 0 0 0 0 0 0 0 0 0 0 0 0 0 0 0 0 0 0 0 0 0 0 0 0 0
0 0 0 0 0 0 0 0 0 0 0 0 0 0 0 0 0 0 0 0 0 0 0 0 0 0 0 0 0 0 0 0 0 0 0
0 0 0 0 0 0 0 0 0 0 0 0 0 0 0 0 0 0 0 0 0 0 0 0 0 0 0 0 0 0 0 0 0 0 0
0 0 0 0 0 0 0 0 0 0 0 0 0 0 0 0 0 0 0 0 0 0 0 0 0 0 0 0 0 0 0 0 0 0 0
0 0 0 0 0 0 0 0 0 0 0 0 0 0 0 0 0 0 0 0 0 0 0 0 0 0 0 0 0 0 0 0 0 0 0
0 0 0 0 0 0 0 0 0 0 0 0 0 0 0 0 0 0 0 0 0 0 0 0 0 0 0 0 0 0 0 0 0 0 0
0 0 0 0 0 0 0 0 0 0 0 0 0 0 0 0 0 0 0 0 0 0 0 0 0 0 0 0 0 0 0 0 0 0 0
0 0 0 0 0 0 0 0 0 0 0 0 0 0 0 0 0 0 0 0 0 0 0 0 0 0 0 0 0 0 0 0 0 0 0
0 0 0 0 0
0 0 0 0 0 0 0 0 0 0 0 0 0 0 0 0 0 0 0 0 0 0 0 0 0 0 0 0 0 0 0 0 0 0 0
0 0 0 0 0 0 0 0 0 0 0 0 0 0 0 0 0 0 0 0 0 0 0 0 0 0 0 0 0 0 0 0 0 0 0
0 0 0 0 0 0 0 0 0 0 0 0 0 0 0 0 0 0 0 0 0 0 0 0 0 0 0 0 0 0 0 0 0 0 0
0 0 0 0 0 0 0 0 0 0 0 0 0 0 0 0 0 0 0 0 0 0 0 0 0 0 0 0 0 0 0 0 0 0 0
0 0 0 0 0 0 0 0 0 0 0 0 0 0 0 0 0 0 0 0 0 0 0 0 0 0 0 0 0 0 0 0 0 0 0
0 0 0 0 0 0 0 0 0 0 0 0 0 0 0 0 0 0 0 0 0 0 0 0 0 0 0 0 0 0 0 0 0 0 0
0 0 0 0 0 0 0 0 0 0 0 0 0 0 0 0 0 0 0 0 0 0 0 0 0 0 0 0 0 0 0 0 0 0 0
0 0 0 0 0 0 0 0 0 0 0 0 0 0 0 0 0 0 0 0 0 0 0 0 0 0 0 0 0 0 0 0 0 0 0
0 0 0 0 0 0 0 0 0 0 0 0 0 0 0 0 0 0 0 0 0 0 0 0 0 0 0 0 0 0 0 0 0 0 0
0 0 0 0 0 0 0 0 0 0 0 0 0 0 0 0 0 0 0 0 0 0 0 0 0 0 0 0 0 0 0 0 0 0 0
0 0 0 0 0 0 0 0 0 0 0 0 0 0 0 0 0 0 0 0 0 0 0 0 0 0 0 0 0 0 0 0 0 0 0
0 0 0 0 0 0 0 0 0 0 0 0 0 0 0 0 0 0 0 0 0 0 0 0 0 0 0 0 0 0 0 0 0 0 0
0 0 0 0 0 0 0 0 0 0 0 0 0 0 0 0 0 0 0 0 0 0 0 0 0 0 0 0 0 0 0 0 0 0 0
0 0 0 0 0 0 0 0 0 0 0 0 0 0 0 0 0 0 0 0 0 0 0 0 0 0 0 0 0 0 0 0 0 0 0
0 0 0 0 0 0 0 0 0 0 0 0 0 0 0 0 0 0 0 0 0 0 0 0 0 0 0 0 0 0 0 0 0 0 0
0 0 0 0 0 0 0 0 0 0 0 0 0 0 0 0 0 0 0 0 0 0 0 0 0 0 0 0 0 0 0 0 0 0 0
0 0 0 0 0 0 0 0 0 0 0 0 0 0 0 0 0 0 0 0 0 0 0 0 0 0 0 0 0 0 0 0 0 0 0
0 0 0 0 0
0 0 0 0 0 0 0 0 0 0 0 0 0 0 0 0 0 0 0 0 0 0 0 0 0 0 0 0 0 0 0 0 0 0 0
0 0 0 0 0 0 0 0 0 0 0 0 0 0 0 0 0 0 0 0 0 0 0 0 0 0 0 0 0 0 0 0 0 0 0
0 0 0 0 0 0 0 0 0 0 0 0 0 0 0 0 0 0 0 0 0 0 0 0 0 0 0 0 0 0 0 0 0 0 0
0 0 0 0 0 0 0 0 0 0 0 0 0 0 0 0 0 0 0 0 0 0 0 0 0 0 0 0 0 0 0 0 0 0 0
0 0 0 0 0 0 0 0 0 0 0 0 0 0 0 0 0 0 0 0 0 0 0 0 0 0 0 0 0 0 0 0 0 0 0
0 0 0 0 0 0 0 0 0 0 0 0 0 0 0 0 0 0 0 0 0 0 0 0 0 0 0 0 0 0 0 0 0 0 0
0 0 0 0 0 0 0 0 0 0 0 0 0 0 0 0 0 0 0 0 0 0 0 0 0 0 0 0 0 0 0 0 0 0 0
0 0 0 0 0 0 0 0 0 0 0 0 0 0 0 0 0 0 0 0 0 0 0 0 0 0 0 0 0 0 0 0 0 0 0
0 0 0 0 0 0 0 0 0 0 0 0 0 0 0 0 0 0 0 0 0 0 0 0 0 0 0 0 0 0 0 0 0 0 0
0 0 0 0 0 0 0 0 0 0 0 0 0 0 0 0 0 0 0 0 0 0 0 0 0 0 0 0 0 0 0 0 0 0 0
0 0 0 0 0 0 0 0 0 0 0 0 0 0 0 0 0 0 0 0 0 0 0 0 0 0 0 0 0 0 0 0 0 0 0
0 0 0 0 0 0 0 0 0 0 0 0 0 0 0 0 0 0 0 0 0 0 0 0 0 0 0 0 0 0 0 0 0 0 0
0 0 0 0 0 0 0 0 0 0 0 0 0 0 0 0 0 0 0 0 0 0 0 0 0 0 0 0 0 0 0 0 0 0 0
0 0 0 0 0 0 0 0 0 0 0 0 0 0 0 0 0 0 0 0 0 0 0 0 0 0 0 0 0 0 0 0 0 0 0
0 0 0 0 0 0 0 0 0 0 0 0 0 0 0 0 0 0 0 0 0 0 0 0 0 0 0 0 0 0 0 0 0 0 0
0 0 0 0 0 0 0 0 0 0 0 0 0 0 0 0 0 0 0 0 0 0 0 0 0 0 0 0 0 0 0 0 0 0 0
0 0 0 0 0 0 0 0 0 0 0 0 0 0 0 0 0 0 0 0 0 0 0 0 0 0 0 0 0 0 0 0 0 0 0
0 0 0 0 0
0 0 0 0 0 0 0 0 0 0 0 0 0 0 0 0 0 0 0 0 0 0 0 0 0 0 0 0 0 0 0 0 0 0 0
0 0 0 0 0 0 0 0 0 0 0 0 0 0 0 0 0 0 0 0 0 0 0 0 0 0 0 0 0 0 0 0 0 0 0
0 0 0 0 0 0 0 0 0 0 0 0 0 0 0 0 0 0 0 0 0 0 0 0 0 0 0 0 0 0 0 0 0 0 0
0 0 0 0 0 0 0 0 0 0 0 0 0 0 0 0 0 0 0 0 0 0 0 0 0 0 0 0 0 0 0 0 0 0 0
0 0 0 0 0 0 0 0 0 0 0 0 0 0 0 0 0 0 0 0 0 0 0 0 0 0 0 0 0 0 0 0 0 0 0
0 0 0 0 0 0 0 0 0 0 0 0 0 0 0 0 0 0 0 0 0 0 0 0 0 0 0 0 0 0 0 0 0 0 0
0 0 0 0 0 0 0 0 0 0 0 0 0 0 0 0 0 0 0 0 0 0 0 0 0 0 0 0 0 0 0 0 0 0 0
0 0 0 0 0 0 0 0 0 0 0 0 0 0 0 0 0 0 0 0 0 0 0 0 0 0 0 0 0 0 0 0 0 0 0
0 0 0 0 0 0 0 0 0 0 0 0 0 0 0 0 0 0 0 0 0 0 0 0 0 0 0 0 0 0 0 0 0 0 0
0 0 0 0 0 0 0 0 0 0 0 0 0 0 0 0 0 0 0 0 0 0 0 0 0 0 0 0 0 0 0 0 0 0 0
0 0 0 0 0 0 0 0 0 0 0 0 0 0 0 0 0 0 0 0 0 0 0 0 0 0 0 0 0 0 0 0 0 0 0
0 0 0 0 0 0 0 0 0 0 0 0 0 0 0 0 0 0 0 0 0 0 0 0 0 0 0 0 0 0 0 0 0 0 0
0 0 0 0 0 0 0 0 0 0 0 0 0 0 0 0 0 0 0 0 0 0 0 0 0 0 0 0 0 0 0 0 0 0 0
0 0 0 0 0 0 0 0 0 0 0 0 0 0 0 0 0 0 0 0 0 0 0 0 0 0 0 0 0 0 0 0 0 0 0
0 0 0 0 0 0 0 0 0 0 0 0 0 0 0 0 0 0 0 0 0 0 0 0 0 0 0 0 0 0 0 0 0 0 0
0 0 0 0 0 0 0 0 0 0 0 0 0 0 0 0 0 0 0 0 0 0 0 0 0 0 0 0 0 0 0 0 0 0 0
0 0 0 0 0 0 0 0 0 0 0 0 0 0 0 0 0 0 0 0 0 0 0 0 0 0 0 0 0 0 0 0 0 0 0
0 0 0 0 0
0 0 0 0 0 0 0 0 0 0 0 0 0 0 0 0 0 0 0 0 0 0 0 0 0 0 0 0 0 0 0 0 0 0 0
0 0 0 0 0 0 0 0 0 0 0 0 0 0 0 0 0 0 0 0 0 0 0 0 0 0 0 0 0 0 0 0 0 0 0
0 0 0 0 0 0 0 0 0 0 0 0 0 0 0 0 0 0 0 0 0 0 0 0 0 0 0 0 0 0 0 0 0 0 0
0 0 0 0 0 0 0 0 0 0 0 0 0 0 0 0 0 0 0 0 0 0 0 0 0 0 0 0 0 0 0 0 0 0 0
0 0 0 0 0 0 0 0 0 0 0 0 0 0 0 0 0 0 0 0 0 0 0 0 0 0 0 0 0 0 0 0 0 0 0
0 0 0 0 0 0 0 0 0 0 0 0 0 0 0 0 0 0 0 0 0 0 0 0 0 0 0 0 0 0 0 0 0 0 0
0 0 0 0 0 0 0 0 0 0 0 0 0 0 0 0 0 0 0 0 0 0 0 0 0 0 0 0 0 0 0 0 0 0 0
0 0 0 0 0 0 0 0 0 0 0 0 0 0 0 0 0 0 0 0 0 0 0 0 0 0 0 0 0 0 0 0 0 0 0
0 0 0 0 0 0 0 0 0 0 0 0 0 0 0 0 0 0 0 0 0 0 0 0 0 0 0 0 0 0 0 0 0 0 0
0 0 0 0 0 0 0 0 0 0 0 0 0 0 0 0 0 0 0 0 0 0 0 0 0 0 0 0 0 0 0 0 0 0 0
0 0 0 0 0 0 0 0 0 0 0 0 0 0 0 0 0 0 0 0 0 0 0 0 0 0 0 0 0 0 0 0 0 0 0
0 0 0 0 0 0 0 0 0 0 0 0 0 0 0 0 0 0 0 0 0 0 0 0 0 0 0 0 0 0 0 0 0 0 0
0 0 0 0 0 0 0 0 0 0 0 0 0 0 0 0 0 0 0 0 0 0 0 0 0 0 0 0 0 0 0 0 0 0 0
0 0 0 0 0 0 0 0 0 0 0 0 0 0 0 0 0 0 0 0 0 0 0 0 0 0 0 0 0 0 0 0 0 0 0
0 0 0 0 0 0 0 0 0 0 0 0 0 0 0 0 0 0 0 0 0 0 0 0 0 0 0 0 0 0 0 0 0 0 0
0 0 0 0 0 0 0 0 0 0 0 0 0 0 0 0 0 0 0 0 0 0 0 0 0 0 0 0 0 0 0 0 0 0 0
0 0 0 0 0 0 0 0 0 0 0 0 0 0 0 0 0 0 0 0 0 0 0 0 0 0 0 0 0 0 0 0 0 0 0
0 0 0 0 0
0 0 0 0 0 0 0 0 0 0 0 0 0 0 0 0 0 0 0 0 0 0 0 0 0 0 0 0 0 0 0 0 0 0 0
0 0 0 0 0 0 0 0 0 0 0 0 0 0 0 0 0 0 0 0 0 0 0 0 0 0 0 0 0 0 0 0 0 0 0
0 0 0 0 0 0 0 0 0 0 0 0 0 0 0 0 0 0 0 0 0 0 0 0 0 0 0 0 0 0 0 0 0 0 0
0 0 0 0 0 0 0 0 0 0 0 0 0 0 0 0 0 0 0 0 0 0 0 0 0 0 0 0 0 0 0 0 0 0 0
0 0 0 0 0 0 0 0 0 0 0 0 0 0 0 0 0 0 0 0 0 0 0 0 0 0 0 0 0 0 0 0 0 0 0
0 0 0 0 0 0 0 0 0 0 0 0 0 0 0 0 0 0 0 0 0 0 0 0 0 0 0 0 0 0 0 0 0 0 0
0 0 0 0 0 0 0 0 0 0 0 0 0 0 0 0 0 0 0 0 0 0 0 0 0 0 0 0 0 0 0 0 0 0 0
0 0 0 0 0 0 0 0 0 0 0 0 0 0 0 0 0 0 0 0 0 0 0 0 0 0 0 0 0 0 0 0 0 0 0
0 0 0 0 0 0 0 0 0 0 0 0 0 0 0 0 0 0 0 0 0 0 0 0 0 0 0 0 0 0 0 0 0 0 0
0 0 0 0 0 0 0 0 0 0 0 0 0 0 0 0 0 0 0 0 0 0 0 0 0 0 0 0 0 0 0 0 0 0 0
0 0 0 0 0 0 0 0 0 0 0 0 0 0 0 0 0 0 0 0 0 0 0 0 0 0 0 0 0 0 0 0 0 0 0
0 0 0 0 0 0 0 0 0 0 0 0 0 0 0 0 0 0 0 0 0 0 0 0 0 0 0 0 0 0 0 0 0 0 0
0 0 0 0 0 0 0 0 0 0 0 0 0 0 0 0 0 0 0 0 0 0 0 0 0 0 0 0 0 0 0 0 0 0 0
0 0 0 0 0 0 0 0 0 0 0 0 0 0 0 0 0 0 0 0 0 0 0 0 0 0 0 0 0 0 0 0 0 0 0
0 0 0 0 0 0 0 0 0 0 0 0 0 0 0 0 0 0 0 0 0 0 0 0 0 0 0 0 0 0 0 0 0 0 0
0 0 0 0 0 0 0 0 0 0 0 0 0 0 0 0 0 0 0 0 0 0 0 0 0 0 0 0 0 0 0 0 0 0 0
0 0 0 0 0 0 0 0 0 0 0 0 0 0 0 0 0 0 0 0 0 0 0 0 0 0 0 0 0 0 0 0 0 0 0
0 0 0 0 0
0 0 0 0 0 0 0 0 0 0 0 0 0 0 0 0 0 0 0 0 0 0 0 0 0 0 0 0 0 0 0 0 0 0 0
0 0 0 0 0 0 0 0 0 0 0 0 0 0 0 0 0 0 0 0 0 0 0 0 0 0 0 0 0 0 0 0 0 0 0
0 0 0 0 0 0 0 0 0 0 0 0 0 0 0 0 0 0 0 0 0 0 0 0 0 0 0 0 0 0 0 0 0 0 0
0 0 0 0 0 0 0 0 0 0 0 0 0 0 0 0 0 0 0 0 0 0 0 0 0 0 0 0 0 0 0 0 0 0 0
0 0 0 0 0 0 0 0 0 0 0 0 0 0 0 0 0 0 0 0 0 0 0 0 0 0 0 0 0 0 0 0 0 0 0
0 0 0 0 0 0 0 0 0 0 0 0 0 0 0 0 0 0 0 0 0 0 0 0 0 0 0 0 0 0 0 0 0 0 0
0 0 0 0 0 0 0 0 0 0 0 0 0 0 0 0 0 0 0 0 0 0 0 0 0 0 0 0 0 0 0 0 0 0 0
0 0 0 0 0 0 0 0 0 0 0 0 0 0 0 0 0 0 0 0 0 0 0 0 0 0 0 0 0 0 0 0 0 0 0
0 0 147 29 29 148 30 30 147 29 29 146 29 29 144 29 29 141 28 28 138 28
28 134 27 27 130 26 26 125 25 25 120 24 24 112 22 22 0 0 0 0 0 0 0 0 0
0 0 0 0 0 0 0 0 0 0 0 0 0 0 0 0 0 0 0 0 0 0 0 0 0 0 0 0 0 0 0 0 0 0 0
0 0 0 0 0 0 0 0 0 0 0 0 0 0 0 0 0 0 0 0 0 0 0 0 0 0 0 0 0 0 0 0 0 0 0
0 0 0 0 0 0 0 0 0 0 0 0 0 0 0 0 0 0 0 0 0 0 0 0 0 0 0 0 0 0 0 0 0 0 0
0 0 0 0 0 0 0 0 0 0 0 0 0 0 0 0 0 0 0 0 0 0 0 0 0 0 0 0 0 0 0 0 0 0 0
0 0 0 0 0 0 0 0 0 0 0 0 0 0 0 0 0 0 0 0 0 0 0 0 0 0 0 0 0 0 0 0 0 0 0
0 0 0 0 0 0 0 0 0 0 0 0 0 0 0 0 0 0 0 0 0 0 0 0 0 0 0 0 0 0 0 0 0 0 0
0 0 0 0 0 0 0 0 0 0 0 0 0 0 0 0 0 0 0 0 0 0 0 0 0 0 0 0 0 0 0 0 0 0 0
0 0 0 0 0 0 0 0 0 0 0 0 0 0 0 0 0 0 0 0 0 0 0 0 0 0 0 0
0 0 0 0 0 0 0 0 0 0 0 0 0 0 0 0 0 0 0 0 0 0 0 0 0 0 0 0 0 0 0 0 0 0 0
0 0 0 0 0 0 0 0 0 0 0 0 0 0 0 0 0 0 0 0 0 0 0 0 0 0 0 0 0 0 0 0 0 0 0
0 0 0 0 0 0 0 0 0 0 0 0 0 0 0 0 0 0 0 0 0 0 0 0 0 0 0 0 0 0 0 0 0 0 0
0 0 0 0 0 0 0 0 0 0 0 0 0 0 0 0 0 0 0 0 0 0 0 0 0 0 0 0 0 0 0 0 0 0 0
0 0 0 0 0 0 0 0 0 0 0 0 0 0 0 0 0 0 0 0 0 0 0 0 0 0 0 0 0 0 0 0 0 0 0
0 0 0 0 0 0 0 0 0 0 0 0 0 0 0 0 0 0 0 0 0 0 0 0 0 0 0 0 0 0 0 0 0 0 0
0 0 0 0 0 0 0 0 0 0 0 0 0 0 0 0 0 0 0 0 0 0 0 0 0 0 0 0 0 0 0 0 0 0 0
0 0 0 0 0 0 0 0 0 0 0 0 0 0 0 0 0 0 0 0 0 0 0 0 0 161 32 32 163 33 33
163 33 33 163 33 33 161 32 32 160 32 32 158 32 32 155 31 31 153 31 31
150 30 30 147 29 29 144 29 29 140 28 28 136 27 27 132 26 26 127 25 25
122 24 24 117 23 23 110 22 22 101 20 20 0 0 0 0 0 0 0 0 0 0 0 0 0 0 0
0 0 0 0 0 0 0 0 0 0 0 0 0 0 0 0 0 0 0 0 0 0 0 0 0 0 0 0 0 0 0 0 0 0 0
0 0 0 0 0 0 0 0 0 0 0 0 0 0 0 0 0 0 0 0 0 0 0 0 0 0 0 0 0 0 0 0 0 0 0
0 0 0 0 0 0 0 0 0 0 0 0 0 0 0 0 0 0 0 0 0 0 0 0 0 0 0 0 0 0 0 0 0 0 0
0 0 0 0 0 0 0 0 0 0 0 0 0 0 0 0 0 0 0 0 0 0 0 0 0 0 0 0 0 0 0 0 0 0 0
0 0 0 0 0 0 0 0 0 0 0 0 0 0 0 0 0 0 0 0 0 0 0 0 0 0 0 0 0 0 0 0 0 0 0
0 0 0 0 0 0 0 0 0 0 0 0 0 0 0 0 0 0 0 0 0 0 0 0 0 0 0 0 0 0 0 0 0 0 0
0 0 0 0 0 0 0 0 0 0 0 0 0 0 0 0 0 0 0 0 0 0 0 0 0 0 0 0 0 0 0 0 0 0 0
0 0 0 0 0 0 0 0 0 0
0 0 0 0 0 0 0 0 0 0 0 0 0 0 0 0 0 0 0 0 0 0 0 0 0 0 0 0 0 0 0 0 0 0 0
0 0 0 0 0 0 0 0 0 0 0 0 0 0 0 0 0 0 0 0 0 0 0 0 0 0 0 0 0 0 0 0 0 0 0
0 0 0 0 0 0 0 0 0 0 0 0 0 0 0 0 0 0 0 0 0 0 0 0 0 0 0 0 0 0 0 0 0 0 0
0 0 0 0 0 0 0 0 0 0 0 0 0 0 0 0 0 0 0 0 0 0 0 0 0 0 0 0 0 0 0 0 0 0 0
0 0 0 0 0 0 0 0 0 0 0 0 0 0 0 0 0 0 0 0 0 0 0 0 0 0 0 0 0 0 0 0 0 0 0
0 0 0 0 0 0 0 0 0 0 0 0 0 0 0 0 0 0 0 0 0 0 0 0 0 0 0 0 0 0 0 0 0 0 0
0 0 0 0 0 0 0 0 0 0 0 0 0 0 0 0 0 0 0 0 0 0 0 0 0 0 0 0 0 0 0 0 0 0 0
0 0 0 0 0 0 0 0 0 0 0 0 0 0 0 0 168 34 34 171 34 34 172 34 34 172 34
34 172 34 34 170 34 34 169 34 34 167 33 33 165 33 33 163 33 33 161 32
32 158 32 32 155 31 31 152 30 30 149 30 30 145 29 29 142 28 28 138 28
28 134 27 27 129 26 26 125 25 25 119 24 24 114 23 23 107 21 21 100 20
20 89 18 18 0 0 0 0 0 0 0 0 0 0 0 0 0 0 0 0 0 0 0 0 0 0 0 0 0 0 0 0 0
0 0 0 0 0 0 0 0 0 0 0 0 0 0 0 0 0 0 0 0 0 0 0 0 0 0 0 0 0 0 0 0 0 0 0
0 0 0 0 0 0 0 0 0 0 0 0 0 0 0 0 0 0 0 0 0 0 0 0 0 0 0 0 0 0 0 0 0 0 0
0 0 0 0 0 0 0 0 0 0 0 0 0 0 0 0 0 0 0 0 0 0 0 0 0 0 0 0 0 0 0 0 0 0 0
0 0 0 0 0 0 0 0 0 0 0 0 0 0 0 0 0 0 0 0 0 0 0 0 0 0 0 0 0 0 0 0 0 0 0
0 0 0 0 0 0 0 0 0 0 0 0 0 0 0 0 0 0 0 0 0 0 0 0 0 0 0 0 0 0 0 0 0 0 0
0 0 0 0 0 0 0 0 0 0 0 0 0 0 0 0 0 0 0 0 0 0 0 0 0 0 0 0 0 0 0 0 0 0 0
0 0 0 0 0 0 0 0 0 0 0 0 0 0 0 0 0 0 0 0 0 0
0 0 0 0 0 0 0 0 0 0 0 0 0 0 0 0 0 0 0 0 0 0 0 0 0 0 0 0 0 0 0 0 0 0 0
0 0 0 0 0 0 0 0 0 0 0 0 0 0 0 0 0 0 0 0 0 0 0 0 0 0 0 0 0 0 0 0 0 0 0
0 0 0 0 0 0 0 0 0 0 0 0 0 0 0 0 0 0 0 0 0 0 0 0 0 0 0 0 0 0 0 0 0 0 0
0 0 0 0 0 0 0 0 0 0 0 0 0 0 0 0 0 0 0 0 0 0 0 0 0 0 0 0 0 0 0 0 0 0 0
0 0 0 0 0 0 0 0 0 0 0 0 0 0 0 0 0 0 0 0 0 0 0 0 0 0 0 0 0 0 0 0 0 0 0
0 0 0 0 0 0 0 0 0 0 0 0 0 0 0 0 0 0 0 0 0 0 0 0 0 0 0 0 0 0 0 0 0 0 0
0 0 0 0 0 0 0 0 0 0 0 0 0 0 0 0 0 0 0 0 0 0 0 0 0 0 0 0 0 0 0 0 0 0 0
0 0 0 0 0 0 0 0 0 0 175 35 35 178 36 36 179 36 36 179 36 36 179 36 36
178 36 36 176 35 35 175 35 35 173 35 35 171 34 34 169 34 34 167 33 33
164 33 33 161 32 32 158 32 32 155 31 31 152 30 30 149 30 30 145 29 29
142 28 28 138 28 28 134 27 27 129 26 26 125 25 25 120 24 24 114 23 23
109 22 22 102 20 20 94 19 19 84 17 17 0 0 0 0 0 0 0 0 0 0 0 0 0 0 0 0
0 0 0 0 0 0 0 0 0 0 0 0 0 0 0 0 0 0 0 0 0 0 0 0 0 0 0 0 0 0 0 0 0 0 0
0 0 0 0 0 0 0 0 0 0 0 0 0 0 0 0 0 0 0 0 0 0 0 0 0 0 0 0 0 0 0 0 0 0 0
0 0 0 0 0 0 0 0 0 0 0 0 0 0 0 0 0 0 0 0 0 0 0 0 0 0 0 0 0 0 0 0 0 0 0
0 0 0 0 0 0 0 0 0 0 0 0 0 0 0 0 0 0 0 0 0 0 0 0 0 0 0 0 0 0 0 0 0 0 0
0 0 0 0 0 0 0 0 0 0 0 0 0 0 0 0 0 0 0 0 0 0 0 0 0 0 0 0 0 0 0 0 0 0 0
0 0 0 0 0 0 0 0 0 0 0 0 0 0 0 0 0 0 0 0 0 0 0 0 0 0 0 0 0 0 0 0 0 0 0
0 0 0 0 0 0 0 0 0 0 0 0 0 0 0 0 0 0 0 0 0 0 0 0 0 0 0 0 0
0 0 0 0 0 0 0 0 0 0 0 0 0 0 0 0 0 0 0 0 0 0 0 0 0 0 0 0 0 0 0 0 0 0 0
0 0 0 0 0 0 0 0 0 0 0 0 0 0 0 0 0 0 0 0 0 0 0 0 0 0 0 0 0 0 0 0 0 0 0
0 0 0 0 0 0 0 0 0 0 0 0 0 0 0 0 0 0 0 0 0 0 0 0 0 0 0 0 0 0 0 0 0 0 0
0 0 0 0 0 0 0 0 0 0 0 0 0 0 0 0 0 0 0 0 0 0 0 0 0 0 0 0 0 0 0 0 0 0 0
0 0 0 0 0 0 0 0 0 0 0 0 0 0 0 0 0 0 0 0 0 0 0 0 0 0 0 0 0 0 0 0 0 0 0
0 0 0 0 0 0 0 0 0 0 0 0 0 0 0 0 0 0 0 0 0 0 0 0 0 0 0 0 0 0 0 0 0 0 0
0 0 0 0 0 0 0 0 0 0 0 0 0 0 0 0 0 0 0 0 0 0 0 0 0 0 0 0 0 0 0 0 0 0 0
0 0 0 0 179 36 36 182 36 36 184 37 37 184 37 37 184 37 37 183 37 37
182 36 36 181 36 36 179 36 36 178 36 36 176 35 35 174 35 35 171 34 34
169 34 34 166 33 33 164 33 33 161 32 32 158 32 32 155 31 31 152 30 30
148 30 30 145 29 29 141 28 28 137 27 27 133 27 27 128 26 26 124 25 25
119 24 24 114 23 23 108 22 22 102 20 20 95 19 19 87 17 17 76 15 15 0 0
0 0 0 0 0 0 0 0 0 0 0 0 0 0 0 0 0 0 0 0 0 0 0 0 0 0 0 0 0 0 0 0 0 0 0
0 0 0 0 0 0 0 0 0 0 0 0 0 0 0 0 0 0 0 0 0 0 0 0 0 0 0 0 0 0 0 0 0 0 0
0 0 0 0 0 0 0 0 0 0 0 0 0 0 0 0 0 0 0 0 0 0 0 0 0 0 0 0 0 0 0 0 0 0 0
0 0 0 0 0 0 0 0 0 0 0 0 0 0 0 0 0 0 0 0 0 0 0 0 0 0 0 0 0 0 0 0 0 0 0
0 0 0 0 0 0 0 0 0 0 0 0 0 0 0 0 0 0 0 0 0 0 0 0 0 0 0 0 0 0 0 0 0 0 0
0 0 0 0 0 0 0 0 0 0 0 0 0 0 0 0 0 0 0 0 0 0 0 0 0 0 0 0 0 0 0 0 0 0 0
0 0 0 0 0 0 0 0 0 0 0 0 0 0 0 0 0 0 0 0 0 0 0 0 0 0 0 0 0 0 0 0 0 0 0
0 0
0 0 0 0 0 0 0 0 0 0 0 0 0 0 0 0 0 0 0 0 0 0 0 0 0 0 0 0 0 0 0 0 0 0 0
0 0 0 0 0 0 0 0 0 0 0 0 0 0 0 0 0 0 0 0 0 0 0 0 0 0 0 0 0 0 0 0 0 0 0
0 0 0 0 0 0 0 0 0 0 0 0 0 0 0 0 0 0 0 0 0 0 0 0 0 0 0 0 0 0 0 0 0 0 0
0 0 0 0 0 0 0 0 0 0 0 0 0 0 0 0 0 0 0 0 0 0 0 0 0 0 0 0 0 0 0 0 0 0 0
0 0 0 0 0 0 0 0 0 0 0 0 0 0 0 0 0 0 0 0 0 0 0 0 0 0 0 0 0 0 0 0 0 0 0
0 0 0 0 0 0 0 0 0 0 0 0 0 0 0 0 0 0 0 0 0 0 0 0 0 0 0 0 0 0 0 0 0 0 0
0 0 0 0 0 0 0 0 0 0 0 0 0 0 0 0 0 0 0 0 0 0 0 0 0 0 0 0 0 0 0 0 0 179
36 36 185 37 37 187 37 37 188 38 38 188 38 38 188 38 38 187 37 37 186
37 37 185 37 37 183 37 37 182 36 36 180 36 36 178 36 36 176 35 35 173
35 35 171 34 34 168 34 34 166 33 33 163 33 33 160 32 32 157 31 31 153
31 31 150 30 30 147 29 29 143 29 29 139 28 28 135 27 27 131 26 26 127
25 25 122 24 24 117 23 23 112 22 22 107 21 21 101 20 20 94 19 19 86 17
17 77 15 15 64 13 13 0 0 0 0 0 0 0 0 0 0 0 0 0 0 0 0 0 0 0 0 0 0 0 0 0
0 0 0 0 0 0 0 0 0 0 0 0 0 0 0 0 0 0 0 0 0 0 0 0 0 0 0 0 0 0 0 0 0 0 0
0 0 0 0 0 0 0 0 0 0 0 0 0 0 0 0 0 0 0 0 0 0 0 0 0 0 0 0 0 0 0 0 0 0 0
0 0 0 0 0 0 0 0 0 0 0 0 0 0 0 0 0 0 0 0 0 0 0 0 0 0 0 0 0 0 0 0 0 0 0
0 0 0 0 0 0 0 0 0 0 0 0 0 0 0 0 0 0 0 0 0 0 0 0 0 0 0 0 0 0 0 0 0 0 0
0 0 0 0 0 0 0 0 0 0 0 0 0 0 0 0 0 0 0 0 0 0 0 0 0 0 0 0 0 0 0 0 0 0 0
0 0 0 0 0 0 0 0 0 0 0 0 0 0 0 0 0 0 0 0 0 0 0 0 0 0 0 0 0 0 0 0 0 0 0
0 0 0 0 0 0 0 0
0 0 0 0 0 0 0 0 0 0 0 0 0 0 0 0 0 0 0 0 0 0 0 0 0 0 0 0 0 0 0 0 0 0 0
0 0 0 0 0 0 0 0 0 0 0 0 0 0 0 0 0 0 0 0 0 0 0 0 0 0 0 0 0 0 0 0 0 0 0
0 0 0 0 0 0 0 0 0 0 0 0 0 0 0 0 0 0 0 0 0 0 0 0 0 0 0 0 0 0 0 0 0 0 0
0 0 0 0 0 0 0 0 0 0 0 0 0 0 0 0 0 0 0 0 0 0 0 0 0 0 0 0 0 0 0 0 0 0 0
0 0 0 0 0 0 0 0 0 0 0 0 0 0 0 0 0 0 0 0 0 0 0 0 0 0 0 0 0 0 0 0 0 0 0
0 0 0 0 0 0 0 0 0 0 0 0 0 0 0 0 0 0 0 0 0 0 0 0 0 0 0 0 0 0 0 0 0 0 0
0 0 0 0 0 0 0 0 0 0 0 0 0 0 0 0 0 0 0 0 0 0 0 0 0 0 0 0 0 0 186 37 37
189 38 38 191 38 38 192 38 38 192 38 38 191 38 38 191 38 38 190 38 38
188 38 38 187 37 37 185 37 37 183 37 37 181 36 36 179 36 36 177 35 35
175 35 35 172 34 34 170 34 34 167 33 33 164 33 33 161 32 32 158 32 32
155 31 31 152 30 30 148 30 30 145 29 29 141 28 28 137 27 27 133 27 27
129 26 26 124 25 25 120 24 24 115 23 23 110 22 22 104 21 21 98 20 20
92 18 18 85 17 17 76 15 15 65 13 13 0 0 0 0 0 0 0 0 0 0 0 0 0 0 0 0 0
0 0 0 0 0 0 0 0 0 0 0 0 0 0 0 0 0 0 0 0 0 0 0 0 0 0 0 0 0 0 0 0 0 0 0
0 0 0 0 0 0 0 0 0 0 0 0 0 0 0 0 0 0 0 0 0 0 0 0 0 0 0 0 0 0 0 0 0 0 0
0 0 0 0 0 0 0 0 0 0 0 0 0 0 0 0 0 0 0 0 0 0 0 0 0 0 0 0 0 0 0 0 0 0 0
0 0 0 0 0 0 0 0 0 0 0 0 0 0 0 0 0 0 0 0 0 0 0 0 0 0 0 0 0 0 0 0 0 0 0
0 0 0 0 0 0 0 0 0 0 0 0 0 0 0 0 0 0 0 0 0 0 0 0 0 0 0 0 0 0 0 0 0 0 0
0 0 0 0 0 0 0 0 0 0 0 0 0 0 0 0 0 0 0 0 0 0 0 0 0 0 0 0 0 0 0 0 0 0 0
0 0 0 0 0 0 0 0 0 0 0 0 0
0 0 0 0 0 0 0 0 0 0 0 0 0 0 0 0 0 0 0 0 0 0 0 0 0 0 0 0 0 0 0 0 0 0 0
0 0 0 0 0 0 0 0 0 0 0 0 0 0 0 0 0 0 0 0 0 0 0 0 0 0 0 0 0 0 0 0 0 0 0
0 0 0 0 0 0 0 0 0 0 0 0 0 0 0 0 0 0 0 0 0 0 0 0 0 0 0 0 0 0 0 0 0 0 0
0 0 0 0 0 0 0 0 0 0 0 0 0 0 0 0 0 0 0 0 0 0 0 0 0 0 0 0 0 0 0 0 0 0 0
0 0 0 0 0 0 0 0 0 0 0 0 0 0 0 0 0 0 0 0 0 0 0 0 0 0 0 0 0 0 0 0 0 0 0
0 0 0 0 0 0 0 0 0 0 0 0 0 0 0 0 0 0 0 0 0 0 0 0 0 0 0 0 0 0 0 0 0 0 0
0 0 0 0 0 0 0 0 0 0 0 0 0 0 0 0 0 0 0 0 0 0 0 0 181 36 36 190 38 38
193 39 39 194 39 39 195 39 39 195 39 39 194 39 39 193 39 39 192 38 38
191 38 38 190 38 38 188 38 38 186 37 37 184 37 37 182 36 36 180 36 36
178 36 36 176 35 35 173 35 35 170 34 34 168 34 34 165 33 33 162 32 32
159 32 32 156 31 31 153 31 31 149 30 30 146 29 29 142 28 28 138 28 28
134 27 27 130 26 26 126 25 25 122 24 24 117 23 23 112 22 22 107 21 21
102 20 20 96 19 19 89 18 18 82 16 16 74 15 15 64 13 13 47 9 9 0 0 0 0
0 0 0 0 0 0 0 0 0 0 0 0 0 0 0 0 0 0 0 0 0 0 0 0 0 0 0 0 0 0 0 0 0 0 0
0 0 0 0 0 0 0 0 0 0 0 0 0 0 0 0 0 0 0 0 0 0 0 0 0 0 0 0 0 0 0 0 0 0 0
0 0 0 0 0 0 0 0 0 0 0 0 0 0 0 0 0 0 0 0 0 0 0 0 0 0 0 0 0 0 0 0 0 0 0
0 0 0 0 0 0 0 0 0 0 0 0 0 0 0 0 0 0 0 0 0 0 0 0 0 0 0 0 0 0 0 0 0 0 0
0 0 0 0 0 0 0 0 0 0 0 0 0 0 0 0 0 0 0 0 0 0 0 0 0 0 0 0 0 0 0 0 0 0 0
0 0 0 0 0 0 0 0 0 0 0 0 0 0 0 0 0 0 0 0 0 0 0 0 0 0 0 0 0 0 0 0 0 0 0
0 0 0 0 0 0 0 0 0 0 0 0 0 0 0 0 0 0 0 0
0 0 0 0 0 0 0 0 0 0 0 0 0 0 0 0 0 0 0 0 0 0 0 0 0 0 0 0 0 0 0 0 0 0 0
0 0 0 0 0 0 0 0 0 0 0 0 0 0 0 0 0 0 0 0 0 0 0 0 0 0 0 0 0 0 0 0 0 0 0
0 0 0 0 0 0 0 0 0 0 0 0 0 0 0 0 0 0 0 0 0 0 0 0 0 0 0 0 0 0 0 0 0 0 0
0 0 0 0 0 0 0 0 0 0 0 0 0 0 0 0 0 0 0 0 0 0 0 0 0 0 0 0 0 0 0 0 0 0 0
0 0 0 0 0 0 0 0 0 0 0 0 0 0 0 0 0 0 0 0 0 0 0 0 0 0 0 0 0 0 0 0 0 0 0
0 0 0 0 0 0 0 0 0 0 0 0 0 0 0 0 0 0 0 0 0 0 0 0 0 0 0 0 0 0 0 0 0 0 0
0 0 0 0 0 0 0 0 0 0 0 0 0 0 0 0 0 0 0 0 0 186 37 37 192 38 38 195 39
39 196 39 39 197 39 39 197 39 39 196 39 39 196 39 39 195 39 39 194 39
39 192 38 38 191 38 38 189 38 38 187 37 37 185 37 37 183 37 37 181 36
36 179 36 36 176 35 35 174 35 35 171 34 34 168 34 34 166 33 33 163 33
33 160 32 32 157 31 31 153 31 31 150 30 30 147 29 29 143 29 29 139 28
28 136 27 27 132 26 26 127 25 25 123 25 25 119 24 24 114 23 23 109 22
22 104 21 21 98 20 20 92 18 18 86 17 17 79 16 16 71 14 14 61 12 12 46
9 9 0 0 0 0 0 0 0 0 0 0 0 0 0 0 0 0 0 0 0 0 0 0 0 0 0 0 0 0 0 0 0 0 0
0 0 0 0 0 0 0 0 0 0 0 0 0 0 0 0 0 0 0 0 0 0 0 0 0 0 0 0 0 0 0 0 0 0 0
0 0 0 0 0 0 0 0 0 0 0 0 0 0 0 0 0 0 0 0 0 0 0 0 0 0 0 0 0 0 0 0 0 0 0
0 0 0 0 0 0 0 0 0 0 0 0 0 0 0 0 0 0 0 0 0 0 0 0 0 0 0 0 0 0 0 0 0 0 0
0 0 0 0 0 0 0 0 0 0 0 0 0 0 0 0 0 0 0 0 0 0 0 0 0 0 0 0 0 0 0 0 0 0 0
0 0 0 0 0 0 0 0 0 0 0 0 0 0 0 0 0 0 0 0 0 0 0 0 0 0 0 0 0 0 0 0 0 0 0
0 0 0 0 0 0 0 0 0 0 0 0 0 0 0 0 0 0 0 0 0 0 0
0 0 0 0 0 0 0 0 0 0 0 0 0 0 0 0 0 0 0 0 0 0 0 0 0 0 0 0 0 0 0 0 0 0 0
0 0 0 0 0 0 0 0 0 0 0 0 0 0 0 0 0 0 0 0 0 0 0 0 0 0 0 0 0 0 0 0 0 0 0
0 0 0 0 0 0 0 0 0 0 0 0 0 0 0 0 0 0 0 0 0 0 0 0 0 0 0 0 0 0 0 0 0 0 0
0 0 0 0 0 0 0 0 0 0 0 0 0 0 0 0 0 0 0 0 0 0 0 0 0 0 0 0 0 0 0 0 0 0 0
0 0 0 0 0 0 0 0 0 0 0 0 0 0 0 0 0 0 0 0 0 0 0 0 0 0 0 0 0 0 0 0 0 0 0
0 0 0 0 0 0 0 0 0 0 0 0 0 0 0 0 0 0 0 0 0 0 0 0 0 0 0 0 0 0 0 0 0 0 0
0 0 0 0 0 0 0 0 0 0 0 0 0 0 0 0 0 0 189 38 38 194 39 39 197 39 39 198
40 40 199 40 40 199 40 40 198 40 40 198 40 40 197 39 39 196 39 39 194
39 39 193 39 39 191 38 38 190 38 38 188 38 38 186 37 37 184 37 37 181
36 36 179 36 36 177 35 35 174 35 35 171 34 34 169 34 34 166 33 33 163
33 33 160 32 32 157 31 31 154 31 31 151 30 30 147 29 29 144 29 29 140
28 28 136 27 27 132 26 26 128 26 26 124 25 25 120 24 24 115 23 23 111
22 22 106 21 21 100 20 20 95 19 19 89 18 18 82 16 16 75 15 15 67 13 13
57 11 11 43 9 9 0 0 0 0 0 0 0 0 0 0 0 0 0 0 0 0 0 0 0 0 0 0 0 0 0 0 0
0 0 0 0 0 0 0 0 0 0 0 0 0 0 0 0 0 0 0 0 0 0 0 0 0 0 0 0 0 0 0 0 0 0 0
0 0 0 0 0 0 0 0 0 0 0 0 0 0 0 0 0 0 0 0 0 0 0 0 0 0 0 0 0 0 0 0 0 0 0
0 0 0 0 0 0 0 0 0 0 0 0 0 0 0 0 0 0 0 0 0 0 0 0 0 0 0 0 0 0 0 0 0 0 0
0 0 0 0 0 0 0 0 0 0 0 0 0 0 0 0 0 0 0 0 0 0 0 0 0 0 0 0 0 0 0 0 0 0 0
0 0 0 0 0 0 0 0 0 0 0 0 0 0 0 0 0 0 0 0 0 0 0 0 0 0 0 0 0 0 0 0 0 0 0
0 0 0 0 0 0 0 0 0 0 0 0 0 0 0 0 0 0 0 0 0 0 0 0 0 0
0 0 0 0 0 0 0 0 0 0 0 0 0 0 0 0 0 0 0 0 0 0 0 0 0 0 0 0 0 0 0 0 0 0 0
0 0 0 0 0 0 0 0 0 0 0 0 0 0 0 0 0 0 0 0 0 0 0 0 0 0 0 0 0 0 0 0 0 0 0
0 0 0 0 0 0 0 0 0 0 0 0 0 0 0 0 0 0 0 0 0 0 0 0 0 0 0 0 0 0 0 0 0 0 0
0 0 0 0 0 0 0 0 0 0 0 0 0 0 0 0 0 0 0 0 0 0 0 0 0 0 0 0 0 0 0 0 0 0 0
0 0 0 0 0 0 0 0 0 0 0 0 0 0 0 0 0 0 0 0 0 0 0 0 0 0 0 0 0 0 0 0 0 0 0
0 0 0 0 0 0 0 0 0 0 0 0 0 0 0 0 0 0 0 0 0 0 0 0 0 0 0 0 0 0 0 0 0 0 0
0 0 0 0 0 0 0 0 0 0 0 0 0 0 0 190 38 38 196 39 39 198 40 40 200 40 40
200 40 40 200 40 40 200 40 40 199 40 40 199 40 40 198 40 40 196 39 39
195 39 39 193 39 39 192 38 38 190 38 38 188 38 38 186 37 37 184 37 37
181 36 36 179 36 36 177 35 35 174 35 35 172 34 34 169 34 34 166 33 33
163 33 33 160 32 32 157 31 31 154 31 31 151 30 30 147 29 29 144 29 29
140 28 28 137 27 27 133 27 27 129 26 26 125 25 25 121 24 24 116 23 23
112 22 22 107 21 21 102 20 20 96 19 19 91 18 18 85 17 17 78 16 16 71
14 14 62 12 12 52 10 10 39 8 8 0 0 0 0 0 0 0 0 0 0 0 0 0 0 0 0 0 0 0 0
0 0 0 0 0 0 0 0 0 0 0 0 0 0 0 0 0 0 0 0 0 0 0 0 0 0 0 0 0 0 0 0 0 0 0
0 0 0 0 0 0 0 0 0 0 0 0 0 0 0 0 0 0 0 0 0 0 0 0 0 0 0 0 0 0 0 0 0 0 0
0 0 0 0 0 0 0 0 0 0 0 0 0 0 0 0 0 0 0 0 0 0 0 0 0 0 0 0 0 0 0 0 0 0 0
0 0 0 0 0 0 0 0 0 0 0 0 0 0 0 0 0 0 0 0 0 0 0 0 0 0 0 0 0 0 0 0 0 0 0
0 0 0 0 0 0 0 0 0 0 0 0 0 0 0 0 0 0 0 0 0 0 0 0 0 0 0 0 0 0 0 0 0 0 0
0 0 0 0 0 0 0 0 0 0 0 0 0 0 0 0 0 0 0 0 0 0 0 0 0 0 0 0 0 0
0 0 0 0 0 0 0 0 0 0 0 0 0 0 0 0 0 0 0 0 0 0 0 0 0 0 0 0 0 0 0 0 0 0 0
0 0 0 0 0 0 0 0 0 0 0 0 0 0 0 0 0 0 0 0 0 0 0 0 0 0 0 0 0 0 0 0 0 0 0
0 0 0 0 0 0 0 0 0 0 0 0 0 0 0 0 0 0 0 0 0 0 0 0 0 0 0 0 0 0 0 0 0 0 0
0 0 0 0 0 0 0 0 0 0 0 0 0 0 0 0 0 0 0 0 0 0 0 0 0 0 0 0 0 0 0 0 0 0 0
0 0 0 0 0 0 0 0 0 0 0 0 0 0 0 0 0 0 0 0 0 0 0 0 0 0 0 0 0 0 0 0 0 0 0
0 0 0 0 0 0 0 0 0 0 0 0 0 0 0 0 0 0 0 0 0 0 0 0 0 0 0 0 0 0 0 0 0 0 0
0 0 0 0 0 0 0 0 0 0 0 0 190 38 38 196 39 39 199 40 40 201 40 40 201 40
40 202 40 40 201 40 40 201 40 40 200 40 40 199 40 40 198 40 40 197 39
39 195 39 39 193 39 39 192 38 38 190 38 38 188 38 38 186 37 37 184 37
37 181 36 36 179 36 36 177 35 35 174 35 35 172 34 34 169 34 34 166 33
33 163 33 33 160 32 32 157 31 31 154 31 31 151 30 30 148 30 30 144 29
29 141 28 28 137 27 27 133 27 27 129 26 26 125 25 25 121 24 24 117 23
23 112 22 22 108 22 22 103 21 21 98 20 20 92 18 18 86 17 17 80 16 16
73 15 15 66 13 13 58 12 12 47 9 9 33 7 7 0 0 0 0 0 0 0 0 0 0 0 0 0 0 0
0 0 0 0 0 0 0 0 0 0 0 0 0 0 0 0 0 0 0 0 0 0 0 0 0 0 0 0 0 0 0 0 0 0 0
0 0 0 0 0 0 0 0 0 0 0 0 0 0 0 0 0 0 0 0 0 0 0 0 0 0 0 0 0 0 0 0 0 0 0
0 0 0 0 0 0 0 0 0 0 0 0 0 0 0 0 0 0 0 0 0 0 0 0 0 0 0 0 0 0 0 0 0 0 0
0 0 0 0 0 0 0 0 0 0 0 0 0 0 0 0 0 0 0 0 0 0 0 0 0 0 0 0 0 0 0 0 0 0 0
0 0 0 0 0 0 0 0 0 0 0 0 0 0 0 0 0 0 0 0 0 0 0 0 0 0 0 0 0 0 0 0 0 0 0
0 0 0 0 0 0 0 0 0 0 0 0 0 0 0 0 0 0 0 0 0 0 0 0 0 0 0 0 0 0 0 0
0 0 0 0 0 0 0 0 0 0 0 0 0 0 0 0 0 0 0 0 0 0 0 0 0 0 0 0 0 0 0 0 0 0 0
0 0 0 0 0 0 0 0 0 0 0 0 0 0 0 0 0 0 0 0 0 0 0 0 0 0 0 0 0 0 0 0 0 0 0
0 0 0 0 0 0 0 0 0 0 0 0 0 0 0 0 0 0 0 0 0 0 0 0 0 0 0 0 0 0 0 0 0 0 0
0 0 0 0 0 0 0 0 0 0 0 0 0 0 0 0 0 0 0 0 0 0 0 0 0 0 0 0 0 0 0 0 0 0 0
0 0 0 0 0 0 0 0 0 0 0 0 0 0 0 0 0 0 0 0 0 0 0 0 0 0 0 0 0 0 0 0 0 0 0
0 0 0 0 0 0 0 0 0 0 0 0 0 0 0 0 0 0 0 0 0 0 0 0 0 0 0 0 0 0 0 0 0 0 0
0 0 0 0 0 0 0 0 0 189 38 38 196 39 39 200 40 40 201 40 40 202 40 40
203 41 41 202 40 40 202 40 40 201 40 40 200 40 40 199 40 40 198 40 40
197 39 39 195 39 39 193 39 39 192 38 38 190 38 38 188 38 38 186 37 37
183 37 37 181 36 36 179 36 36 176 35 35 174 35 35 171 34 34 169 34 34
166 33 33 163 33 33 160 32 32 157 31 31 154 31 31 151 30 30 147 29 29
144 29 29 141 28 28 137 27 27 133 27 27 130 26 26 126 25 25 121 24 24
117 23 23 113 23 23 108 22 22 104 21 21 99 20 20 93 19 19 88 18 18 82
16 16 75 15 15 69 14 14 61 12 12 52 10 10 41 8 8 26 5 5 0 0 0 0 0 0 0
0 0 0 0 0 0 0 0 0 0 0 0 0 0 0 0 0 0 0 0 0 0 0 0 0 0 0 0 0 0 0 0 0 0 0
0 0 0 0 0 0 0 0 0 0 0 0 0 0 0 0 0 0 0 0 0 0 0 0 0 0 0 0 0 0 0 0 0 0 0
0 0 0 0 0 0 0 0 0 0 0 0 0 0 0 0 0 0 0 0 0 0 0 0 0 0 0 0 0 0 0 0 0 0 0
0 0 0 0 0 0 0 0 0 0 0 0 0 0 0 0 0 0 0 0 0 0 0 0 0 0 0 0 0 0 0 0 0 0 0
0 0 0 0 0 0 0 0 0 0 0 0 0 0 0 0 0 0 0 0 0 0 0 0 0 0 0 0 0 0 0 0 0 0 0
0 0 0 0 0 0 0 0 0 0 0 0 0 0 0 0 0 0 0 0 0 0 0 0 0 0 0 0 0 0 0 0 0 0 0
0 0
0 0 0 0 0 0 0 0 0 0 0 0 0 0 0 0 0 0 0 0 0 0 0 0 0 0 0 0 0 0 0 0 0 0 0
0 0 0 0 0 0 0 0 0 0 0 0 0 0 0 0 0 0 0 0 0 0 0 0 0 0 0 0 0 0 0 0 0 0 0
0 0 0 0 0 0 0 0 0 0 0 0 0 0 0 0 0 0 0 0 0 0 0 0 0 0 0 0 0 0 0 0 0 0 0
0 0 0 0 0 0 0 0 0 0 0 0 0 0 0 0 0 0 0 0 0 0 0 0 0 0 0 0 0 0 0 0 0 0 0
0 0 0 0 0 0 0 0 0 0 0 0 0 0 0 0 0 0 0 0 0 0 0 0 0 0 0 0 0 0 0 0 0 0 0
0 0 0 0 0 0 0 0 0 0 0 0 0 0 0 0 0 0 0 0 0 0 0 0 0 0 0 0 0 0 0 0 0 0 0
0 0 0 0 0 0 185 37 37 196 39 39 199 40 40 202 40 40 203 41 41 203 41
41 203 41 41 203 41 41 202 40 40 201 40 40 200 40 40 199 40 40 198 40
40 196 39 39 195 39 39 193 39 39 191 38 38 189 38 38 187 37 37 185 37
37 183 37 37 181 36 36 178 36 36 176 35 35 174 35 35 171 34 34 168 34
34 166 33 33 163 33 33 160 32 32 157 31 31 154 31 31 151 30 30 147 29
29 144 29 29 140 28 28 137 27 27 133 27 27 129 26 26 126 25 25 122 24
24 117 23 23 113 23 23 109 22 22 104 21 21 99 20 20 94 19 19 89 18 18
83 17 17 77 15 15 70 14 14 63 13 13 55 11 11 46 9 9 35 7 7 26 5 5 0 0
0 0 0 0 0 0 0 0 0 0 0 0 0 0 0 0 0 0 0 0 0 0 0 0 0 0 0 0 0 0 0 0 0 0 0
0 0 0 0 0 0 0 0 0 0 0 0 0 0 0 0 0 0 0 0 0 0 0 0 0 0 0 0 0 0 0 0 0 0 0
0 0 0 0 0 0 0 0 0 0 0 0 0 0 0 0 0 0 0 0 0 0 0 0 0 0 0 0 0 0 0 0 0 0 0
0 0 0 0 0 0 0 0 0 0 0 0 0 0 0 0 0 0 0 0 0 0 0 0 0 0 0 0 0 0 0 0 0 0 0
0 0 0 0 0 0 0 0 0 0 0 0 0 0 0 0 0 0 0 0 0 0 0 0 0 0 0 0 0 0 0 0 0 0 0
0 0 0 0 0 0 0 0 0 0 0 0 0 0 0 0 0 0 0 0 0 0 0 0 0 0 0 0 0 0 0 0 0 0 0
0 0 0 0
0 0 0 0 0 0 0 0 0 0 0 0 0 0 0 0 0 0 0 0 0 0 0 0 0 0 0 0 0 0 0 0 0 0 0
0 0 0 0 0 0 0 0 0 0 0 0 0 0 0 0 0 0 0 0 0 0 0 0 0 0 0 0 0 0 0 0 0 0 0
0 0 0 0 0 0 0 0 0 0 0 0 0 0 0 0 0 0 0 0 0 0 0 0 0 0 0 0 0 0 0 0 0 0 0
0 0 0 0 0 0 0 0 0 0 0 0 0 0 0 0 0 0 0 0 0 0 0 0 0 0 0 0 0 0 0 0 0 0 0
0 0 0 0 0 0 0 0 0 0 0 0 0 0 0 0 0 0 0 0 0 0 0 0 0 0 0 0 0 0 0 0 0 0 0
0 0 0 0 0 0 0 0 0 0 0 0 0 0 0 0 0 0 0 0 0 0 0 0 0 0 0 0 0 0 0 0 0 0 0
0 0 0 0 0 0 194 39 39 199 40 40 201 40 40 203 41 41 203 41 41 204 41
41 204 41 41 203 41 41 202 40 40 201 40 40 200 40 40 199 40 40 198 40
40 196 39 39 195 39 39 193 39 39 191 38 38 189 38 38 187 37 37 185 37
37 183 37 37 180 36 36 178 36 36 176 35 35 173 35 35 170 34 34 168 34
34 165 33 33 162 32 32 159 32 32 156 31 31 153 31 31 150 30 30 147 29
29 144 29 29 140 28 28 137 27 27 133 27 27 129 26 26 125 25 25 121 24
24 117 23 23 113 23 23 109 22 22 104 21 21 99 20 20 94 19 19 89 18 18
84 17 17 78 16 16 72 14 14 65 13 13 58 12 12 49 10 10 40 8 8 27 5 5 0
0 0 0 0 0 0 0 0 0 0 0 0 0 0 0 0 0 0 0 0 0 0 0 0 0 0 0 0 0 0 0 0 0 0 0
0 0 0 0 0 0 0 0 0 0 0 0 0 0 0 0 0 0 0 0 0 0 0 0 0 0 0 0 0 0 0 0 0 0 0
0 0 0 0 0 0 0 0 0 0 0 0 0 0 0 0 0 0 0 0 0 0 0 0 0 0 0 0 0 0 0 0 0 0 0
0 0 0 0 0 0 0 0 0 0 0 0 0 0 0 0 0 0 0 0 0 0 0 0 0 0 0 0 0 0 0 0 0 0 0
0 0 0 0 0 0 0 0 0 0 0 0 0 0 0 0 0 0 0 0 0 0 0 0 0 0 0 0 0 0 0 0 0 0 0
0 0 0 0 0 0 0 0 0 0 0 0 0 0 0 0 0 0 0 0 0 0 0 0 0 0 0 0 0 0 0 0 0 0 0
0 0 0 0 0
0 0 0 0 0 0 0 0 0 0 0 0 0 0 0 0 0 0 0 0 0 0 0 0 0 0 0 0 0 0 0 0 0 0 0
0 0 0 0 0 0 0 0 0 0 0 0 0 0 0 0 0 0 0 0 0 0 0 0 0 0 0 0 0 0 0 0 0 0 0
0 0 0 0 0 0 0 0 0 0 0 0 0 0 0 0 0 0 0 0 0 0 0 0 0 0 0 0 0 0 0 0 0 0 0
0 0 0 0 0 0 0 0 0 0 0 0 0 0 0 0 0 0 0 0 0 0 0 0 0 0 0 0 0 0 0 0 0 0 0
0 0 0 0 0 0 0 0 0 0 0 0 0 0 0 0 0 0 0 0 0 0 0 0 0 0 0 0 0 0 0 0 0 0 0
0 0 0 0 0 0 0 0 0 0 0 0 0 0 0 0 0 0 0 0 0 0 0 0 0 0 0 0 0 0 0 0 0 0 0
0 0 0 192 38 38 198 40 40 201 40 40 203 41 41 204 41 41 204 41 41 204
41 41 204 41 41 203 41 41 202 40 40 201 40 40 200 40 40 199 40 40 197
39 39 196 39 39 194 39 39 192 38 38 190 38 38 188 38 38 186 37 37 184
37 37 182 36 36 180 36 36 177 35 35 175 35 35 172 34 34 170 34 34 167
33 33 164 33 33 162 32 32 159 32 32 156 31 31 153 31 31 150 30 30 146
29 29 143 29 29 140 28 28 136 27 27 133 27 27 129 26 26 125 25 25 121
24 24 117 23 23 113 23 23 109 22 22 104 21 21 100 20 20 95 19 19 90 18
18 84 17 17 79 16 16 73 15 15 66 13 13 59 12 12 51 10 10 43 9 9 32 6 6
26 5 5 0 0 0 0 0 0 0 0 0 0 0 0 0 0 0 0 0 0 0 0 0 0 0 0 0 0 0 0 0 0 0 0
0 0 0 0 0 0 0 0 0 0 0 0 0 0 0 0 0 0 0 0 0 0 0 0 0 0 0 0 0 0 0 0 0 0 0
0 0 0 0 0 0 0 0 0 0 0 0 0 0 0 0 0 0 0 0 0 0 0 0 0 0 0 0 0 0 0 0 0 0 0
0 0 0 0 0 0 0 0 0 0 0 0 0 0 0 0 0 0 0 0 0 0 0 0 0 0 0 0 0 0 0 0 0 0 0
0 0 0 0 0 0 0 0 0 0 0 0 0 0 0 0 0 0 0 0 0 0 0 0 0 0 0 0 0 0 0 0 0 0 0
0 0 0 0 0 0 0 0 0 0 0 0 0 0 0 0 0 0 0 0 0 0 0 0 0 0 0 0 0 0 0 0 0 0 0
0 0 0 0 0 0
0 0 0 0 0 0 0 0 0 0 0 0 0 0 0 0 0 0 0 0 0 0 0 0 0 0 0 0 0 0 0 0 0 0 0
0 0 0 0 0 0 0 0 0 0 0 0 0 0 0 0 0 0 0 0 0 0 0 0 0 0 0 0 0 0 0 0 0 0 0
0 0 0 0 0 0 0 0 0 0 0 0 0 0 0 0 0 0 0 0 0 0 0 0 0 0 0 0 0 0 0 0 0 0 0
0 0 0 0 0 0 0 0 0 0 0 0 0 0 0 0 0 0 0 0 0 0 0 0 0 0 0 0 0 0 0 0 0 0 0
0 0 0 0 0 0 0 0 0 0 0 0 0 0 0 0 0 0 0 0 0 0 0 0 0 0 0 0 0 0 0 0 0 0 0
0 0 0 0 0 0 0 0 0 0 0 0 0 0 0 0 0 0 0 0 0 0 0 0 0 0 0 0 0 0 0 0 0 0 0
187 37 37 196 39 39 200 40 40 202 40 40 203 41 41 204 41 41 204 41 41
204 41 41 203 41 41 203 41 41 202 40 40 201 40 40 199 40 40 198 40 40
197 39 39 195 39 39 193 39 39 192 38 38 190 38 38 188 38 38 186 37 37
183 37 37 181 36 36 179 36 36 177 35 35 174 35 35 172 34 34 169 34 34
166 33 33 164 33 33 161 32 32 158 32 32 155 31 31 152 30 30 149 30 30
146 29 29 142 28 28 139 28 28 136 27 27 132 26 26 128 26 26 125 25 25
121 24 24 117 23 23 113 23 23 108 22 22 104 21 21 99 20 20 95 19 19 90
18 18 84 17 17 79 16 16 73 15 15 67 13 13 60 12 12 53 11 11 45 9 9 36
7 7 26 5 5 26 5 5 0 0 0 0 0 0 0 0 0 0 0 0 0 0 0 0 0 0 0 0 0 0 0 0 0 0
0 0 0 0 0 0 0 0 0 0 0 0 0 0 0 0 0 0 0 0 0 0 0 0 0 0 0 0 0 0 0 0 0 0 0
0 0 0 0 0 0 0 0 0 0 0 0 0 0 0 0 0 0 0 0 0 0 0 0 0 0 0 0 0 0 0 0 0 0 0
0 0 0 0 0 0 0 0 0 0 0 0 0 0 0 0 0 0 0 0 0 0 0 0 0 0 0 0 0 0 0 0 0 0 0
0 0 0 0 0 0 0 0 0 0 0 0 0 0 0 0 0 0 0 0 0 0 0 0 0 0 0 0 0 0 0 0 0 0 0
0 0 0 0 0 0 0 0 0 0 0 0 0 0 0 0 0 0 0 0 0 0 0 0 0 0 0 0 0 0 0 0 0 0 0
0 0 0 0 0 0 0 0 0
0 0 0 0 0 0 0 0 0 0 0 0 0 0 0 0 0 0 0 0 0 0 0 0 0 0 0 0 0 0 0 0 0 0 0
0 0 0 0 0 0 0 0 0 0 0 0 0 0 0 0 0 0 0 0 0 0 0 0 0 0 0 0 0 0 0 0 0 0 0
0 0 0 0 0 0 0 0 0 0 0 0 0 0 0 0 0 0 0 0 0 0 0 0 0 0 0 0 0 0 0 0 0 0 0
0 0 0 0 0 0 0 0 0 0 0 0 0 0 0 0 0 0 0 0 0 0 0 0 0 0 0 0 0 0 0 0 0 0 0
0 0 0 0 0 0 0 0 0 0 0 0 0 0 0 0 0 0 0 0 0 0 0 0 0 0 0 0 0 0 0 0 0 0 0
0 0 0 0 0 0 0 0 0 0 0 0 0 0 0 0 0 0 0 0 0 0 0 0 0 0 0 0 0 0 0 0 0 0 0
193 39 39 198 40 40 201 40 40 203 41 41 203 41 41 204 41 41 204 41 41
204 41 41 203 41 41 202 40 40 201 40 40 200 40 40 199 40 40 197 39 39
196 39 39 194 39 39 193 39 39 191 38 38 189 38 38 187 37 37 185 37 37
183 37 37 180 36 36 178 36 36 176 35 35 173 35 35 171 34 34 168 34 34
166 33 33 163 33 33 160 32 32 157 31 31 154 31 31 151 30 30 148 30 30
145 29 29 142 28 28 138 28 28 135 27 27 131 26 26 128 26 26 124 25 25
120 24 24 116 23 23 112 22 22 108 22 22 104 21 21 99 20 20 94 19 19 90
18 18 84 17 17 79 16 16 73 15 15 67 13 13 61 12 12 54 11 11 46 9 9 38
8 8 28 6 6 26 5 5 0 0 0 0 0 0 0 0 0 0 0 0 0 0 0 0 0 0 0 0 0 0 0 0 0 0
0 0 0 0 0 0 0 0 0 0 0 0 0 0 0 0 0 0 0 0 0 0 0 0 0 0 0 0 0 0 0 0 0 0 0
0 0 0 0 0 0 0 0 0 0 0 0 0 0 0 0 0 0 0 0 0 0 0 0 0 0 0 0 0 0 0 0 0 0 0
0 0 0 0 0 0 0 0 0 0 0 0 0 0 0 0 0 0 0 0 0 0 0 0 0 0 0 0 0 0 0 0 0 0 0
0 0 0 0 0 0 0 0 0 0 0 0 0 0 0 0 0 0 0 0 0 0 0 0 0 0 0 0 0 0 0 0 0 0 0
0 0 0 0 0 0 0 0 0 0 0 0 0 0 0 0 0 0 0 0 0 0 0 0 0 0 0 0 0 0 0 0 0 0 0
0 0 0 0 0 0 0 0 0
0 0 0 0 0 0 0 0 0 0 0 0 0 0 0 0 0 0 0 0 0 0 0 0 0 0 0 0 0 0 0 0 0 0 0
0 0 0 0 0 0 0 0 0 0 0 0 0 0 0 0 0 0 0 0 0 0 0 0 0 0 0 0 0 0 0 0 0 0 0
0 0 0 0 0 0 0 0 0 0 0 0 0 0 0 0 0 0 0 0 0 0 0 0 0 0 0 0 0 0 0 0 0 0 0
0 0 0 0 0 0 0 0 0 0 0 0 0 0 0 0 0 0 0 0 0 0 0 0 0 0 0 0 0 0 0 0 0 0 0
0 0 0 0 0 0 0 0 0 0 0 0 0 0 0 0 0 0 0 0 0 0 0 0 0 0 0 0 0 0 0 0 0 0 0
0 0 0 0 0 0 0 0 0 0 0 0 0 0 0 0 0 0 0 0 0 0 0 0 0 0 0 0 0 0 0 0 188 38
38 196 39 39 199 40 40 202 40 40 203 41 41 203 41 41 204 41 41 203 41
41 203 41 41 202 40 40 201 40 40 200 40 40 199 40 40 198 40 40 197 39
39 195 39 39 193 39 39 192 38 38 190 38 38 188 38 38 186 37 37 184 37
37 182 36 36 179 36 36 177 35 35 175 35 35 172 34 34 170 34 34 167 33
33 165 33 33 162 32 32 159 32 32 156 31 31 153 31 31 150 30 30 147 29
29 144 29 29 141 28 28 138 28 28 134 27 27 131 26 26 127 25 25 123 25
25 120 24 24 116 23 23 112 22 22 108 22 22 103 21 21 99 20 20 94 19 19
89 18 18 84 17 17 79 16 16 74 15 15 68 14 14 61 12 12 55 11 11 47 9 9
39 8 8 30 6 6 26 5 5 26 5 5 0 0 0 0 0 0 0 0 0 0 0 0 0 0 0 0 0 0 0 0 0
0 0 0 0 0 0 0 0 0 0 0 0 0 0 0 0 0 0 0 0 0 0 0 0 0 0 0 0 0 0 0 0 0 0 0
0 0 0 0 0 0 0 0 0 0 0 0 0 0 0 0 0 0 0 0 0 0 0 0 0 0 0 0 0 0 0 0 0 0 0
0 0 0 0 0 0 0 0 0 0 0 0 0 0 0 0 0 0 0 0 0 0 0 0 0 0 0 0 0 0 0 0 0 0 0
0 0 0 0 0 0 0 0 0 0 0 0 0 0 0 0 0 0 0 0 0 0 0 0 0 0 0 0 0 0 0 0 0 0 0
0 0 0 0 0 0 0 0 0 0 0 0 0 0 0 0 0 0 0 0 0 0 0 0 0 0 0 0 0 0 0 0 0 0 0
0 0 0 0 0 0 0 0 0 0 0
0 0 0 0 0 0 0 0 0 0 0 0 0 0 0 0 0 0 0 0 0 0 0 0 0 0 0 0 0 0 0 0 0 0 0
0 0 0 0 0 0 0 0 0 0 0 0 0 0 0 0 0 0 0 0 0 0 0 0 0 0 0 0 0 0 0 0 0 0 0
0 0 0 0 0 0 0 0 0 0 0 0 0 0 0 0 0 0 0 0 0 0 0 0 0 0 0 0 0 0 0 0 0 0 0
0 0 0 0 0 0 0 0 0 0 0 0 0 0 0 0 0 0 0 0 0 0 0 0 0 0 0 0 0 0 0 0 0 0 0
0 0 0 0 0 0 0 0 0 0 0 0 0 0 0 0 0 0 0 0 0 0 0 0 0 0 0 0 0 0 0 0 0 0 0
0 0 0 0 0 0 0 0 0 0 0 0 0 0 0 0 0 0 0 0 0 0 0 0 0 0 0 0 0 0 0 0 192 38
38 197 39 39 200 40 40 202 40 40 203 41 41 203 41 41 203 41 41 203 41
41 202 40 40 202 40 40 201 40 40 200 40 40 198 40 40 197 39 39 196 39
39 194 39 39 192 38 38 191 38 38 189 38 38 187 37 37 185 37 37 183 37
37 181 36 36 178 36 36 176 35 35 174 35 35 171 34 34 169 34 34 166 33
33 164 33 33 161 32 32 158 32 32 155 31 31 152 30 30 149 30 30 146 29
29 143 29 29 140 28 28 137 27 27 133 27 27 130 26 26 126 25 25 123 25
25 119 24 24 115 23 23 111 22 22 107 21 21 103 21 21 98 20 20 94 19 19
89 18 18 84 17 17 79 16 16 73 15 15 68 14 14 62 12 12 55 11 11 48 10
10 40 8 8 32 6 6 26 5 5 26 5 5 0 0 0 0 0 0 0 0 0 0 0 0 0 0 0 0 0 0 0 0
0 0 0 0 0 0 0 0 0 0 0 0 0 0 0 0 0 0 0 0 0 0 0 0 0 0 0 0 0 0 0 0 0 0 0
0 0 0 0 0 0 0 0 0 0 0 0 0 0 0 0 0 0 0 0 0 0 0 0 0 0 0 0 0 0 0 0 0 0 0
0 0 0 0 0 0 0 0 0 0 0 0 0 0 0 0 0 0 0 0 0 0 0 0 0 0 0 0 0 0 0 0 0 0 0
0 0 0 0 0 0 0 0 0 0 0 0 0 0 0 0 0 0 0 0 0 0 0 0 0 0 0 0 0 0 0 0 0 0 0
0 0 0 0 0 0 0 0 0 0 0 0 0 0 0 0 0 0 0 0 0 0 0 0 0 0 0 0 0 0 0 0 0 0 0
0 0 0 0 0 0 0 0 0 0 0 0
0 0 0 0 0 0 0 0 0 0 0 0 0 0 0 0 0 0 0 0 0 0 0 0 0 0 0 0 0 0 0 0 0 0 0
0 0 0 0 0 0 0 0 0 0 0 0 0 0 0 0 0 0 0 0 0 0 0 0 0 0 0 0 0 0 0 0 0 0 0
0 0 0 0 0 0 0 0 0 0 0 0 0 0 0 0 0 0 0 0 0 0 0 0 0 0 0 0 0 0 0 0 0 0 0
0 0 0 0 0 0 0 0 0 0 0 0 0 0 0 0 0 0 0 0 0 0 0 0 0 0 0 0 0 0 0 0 0 0 0
0 0 0 0 0 0 0 0 0 0 0 0 0 0 0 0 0 0 0 0 0 0 0 0 0 0 0 0 0 0 0 0 0 0 0
0 0 0 0 0 0 0 0 0 0 0 0 0 0 0 0 0 0 0 0 0 0 0 0 0 0 0 0 0 186 37 37
194 39 39 198 40 40 200 40 40 202 40 40 202 40 40 203 41 41 202 40 40
202 40 40 202 40 40 201 40 40 200 40 40 199 40 40 197 39 39 196 39 39
195 39 39 193 39 39 191 38 38 190 38 38 188 38 38 186 37 37 184 37 37
182 36 36 180 36 36 177 35 35 175 35 35 173 35 35 170 34 34 168 34 34
165 33 33 163 33 33 160 32 32 157 31 31 154 31 31 151 30 30 148 30 30
145 29 29 142 28 28 139 28 28 136 27 27 132 26 26 129 26 26 125 25 25
122 24 24 118 24 24 114 23 23 110 22 22 106 21 21 102 20 20 98 20 20
93 19 19 88 18 18 83 17 17 78 16 16 73 15 15 67 13 13 62 12 12 55 11
11 48 10 10 41 8 8 33 7 7 26 5 5 26 5 5 26 5 5 0 0 0 0 0 0 0 0 0 0 0 0
0 0 0 0 0 0 0 0 0 0 0 0 0 0 0 0 0 0 0 0 0 0 0 0 0 0 0 0 0 0 0 0 0 0 0
0 0 0 0 0 0 0 0 0 0 0 0 0 0 0 0 0 0 0 0 0 0 0 0 0 0 0 0 0 0 0 0 0 0 0
0 0 0 0 0 0 0 0 0 0 0 0 0 0 0 0 0 0 0 0 0 0 0 0 0 0 0 0 0 0 0 0 0 0 0
0 0 0 0 0 0 0 0 0 0 0 0 0 0 0 0 0 0 0 0 0 0 0 0 0 0 0 0 0 0 0 0 0 0 0
0 0 0 0 0 0 0 0 0 0 0 0 0 0 0 0 0 0 0 0 0 0 0 0 0 0 0 0 0 0 0 0 0 0 0
0 0 0 0 0 0 0 0 0 0 0 0 0 0 0 0 0
0 0 0 0 0 0 0 0 0 0 0 0 0 0 0 0 0 0 0 0 0 0 0 0 0 0 0 0 0 0 0 0 0 0 0
0 0 0 0 0 0 0 0 0 0 0 0 0 0 0 0 0 0 0 0 0 0 0 0 0 0 0 0 0 0 0 0 0 0 0
0 0 0 0 0 0 0 0 0 0 0 0 0 0 0 0 0 0 0 0 0 0 0 0 0 0 0 0 0 0 0 0 0 0 0
0 0 0 0 0 0 0 0 0 0 0 0 0 0 0 0 0 0 0 0 0 0 0 0 0 0 0 0 0 0 0 0 0 0 0
0 0 0 0 0 0 0 0 0 0 0 0 0 0 0 0 0 0 0 0 0 0 0 0 0 0 0 0 0 0 0 0 0 0 0
0 0 0 0 0 0 0 0 0 0 0 0 0 0 0 0 0 0 0 0 0 0 0 0 0 0 0 0 0 190 38 38
195 39 39 198 40 40 200 40 40 201 40 40 202 40 40 202 40 40 202 40 40
201 40 40 201 40 40 200 40 40 199 40 40 198 40 40 196 39 39 195 39 39
193 39 39 192 38 38 191 38 38 190 39 39 189 40 40 187 40 40 184 38 38
181 36 36 178 36 36 176 35 35 174 35 35 171 34 34 169 34 34 167 33 33
164 33 33 161 32 32 159 32 32 156 31 31 153 31 31 150 30 30 147 29 29
144 29 29 141 28 28 138 28 28 135 27 27 131 26 26 128 26 26 124 25 25
121 24 24 117 23 23 113 23 23 109 22 22 105 21 21 101 20 20 97 19 19
92 18 18 88 18 18 83 17 17 78 16 16 73 15 15 67 13 13 61 12 12 55 11
11 48 10 10 41 8 8 33 7 7 26 5 5 26 5 5 26 5 5 0 0 0 0 0 0 0 0 0 0 0 0
0 0 0 0 0 0 0 0 0 0 0 0 0 0 0 0 0 0 0 0 0 0 0 0 0 0 0 0 0 0 0 0 0 0 0
0 0 0 0 0 0 0 0 0 0 0 0 0 0 0 0 0 0 0 0 0 0 0 0 0 0 0 0 0 0 0 0 0 0 0
0 0 0 0 0 0 0 0 0 0 0 0 0 0 0 0 0 0 0 0 0 0 0 0 0 0 0 0 0 0 0 0 0 0 0
0 0 0 0 0 0 0 0 0 0 0 0 0 0 0 0 0 0 0 0 0 0 0 0 0 0 0 0 0 0 0 0 0 0 0
0 0 0 0 0 0 0 0 0 0 0 0 0 0 0 0 0 0 0 0 0 0 0 0 0 0 0 0 0 0 0 0 0 0 0
0 0 0 0 0 0 0 0 0 0 0 0 0 0 0 0 0
0 0 0 0 0 0 0 0 0 0 0 0 0 0 0 0 0 0 0 0 0 0 0 0 0 0 0 0 0 0 0 0 0 0 0
0 0 0 0 0 0 0 0 0 0 0 0 0 0 0 0 0 0 0 0 0 0 0 0 0 0 0 0 0 0 0 0 0 0 0
0 0 0 0 0 0 0 0 0 0 0 0 0 0 0 0 0 0 0 0 0 0 0 0 0 0 0 0 0 0 0 0 0 0 0
0 0 0 0 0 0 0 0 0 0 0 0 0 0 0 0 0 0 0 0 0 0 0 0 0 0 0 0 0 0 0 0 0 0 0
0 0 0 0 0 0 0 0 0 0 0 0 0 0 0 0 0 0 0 0 0 0 0 0 0 0 0 0 0 0 0 0 0 0 0
0 0 0 0 0 0 0 0 0 0 0 0 0 0 0 0 0 0 0 0 0 0 0 0 0 0 181 36 36 191 38
38 196 39 39 198 40 40 200 40 40 200 40 40 201 40 40 201 40 40 201 40
40 200 40 40 199 40 40 199 40 40 198 40 40 196 39 39 195 39 39 194 39
39 192 38 38 191 39 39 192 41 41 197 48 48 202 53 53 197 50 50 187 42
42 181 37 37 177 36 36 175 35 35 173 35 35 170 34 34 168 34 34 165 33
33 163 33 33 160 32 32 157 31 31 155 31 31 152 30 30 149 30 30 146 29
29 143 29 29 140 28 28 137 27 27 133 27 27 130 26 26 127 25 25 123 25
25 120 24 24 116 23 23 112 22 22 108 22 22 104 21 21 100 20 20 96 19
19 91 18 18 87 17 17 82 16 16 77 15 15 72 14 14 66 13 13 61 12 12 55
11 11 48 10 10 41 8 8 34 7 7 26 5 5 26 5 5 26 5 5 26 5 5 0 0 0 0 0 0 0
0 0 0 0 0 0 0 0 0 0 0 0 0 0 0 0 0 0 0 0 0 0 0 0 0 0 0 0 0 0 0 0 0 0 0
0 0 0 0 0 0 0 0 0 0 0 0 0 0 0 0 0 0 0 0 0 0 0 0 0 0 0 0 0 0 0 0 0 0 0
0 0 0 0 0 0 0 0 0 0 0 0 0 0 0 0 0 0 0 0 0 0 0 0 0 0 0 0 0 0 0 0 0 0 0
0 0 0 0 0 0 0 0 0 0 0 0 0 0 0 0 0 0 0 0 0 0 0 0 0 0 0 0 0 0 0 0 0 0 0
0 0 0 0 0 0 0 0 0 0 0 0 0 0 0 0 0 0 0 0 0 0 0 0 0 0 0 0 0 0 0 0 0 0 0
0 0 0 0 0 0 0 0 0 0 0 0 0 0 0 0 0 0 0
0 0 0 0 0 0 0 0 0 0 0 0 0 0 0 0 0 0 0 0 0 0 0 0 0 0 0 0 0 0 0 0 0 0 0
0 0 0 0 0 0 0 0 0 0 0 0 0 0 0 0 0 0 0 0 0 0 0 0 0 0 0 0 0 0 0 0 0 0 0
0 0 0 0 0 0 0 0 0 0 0 0 0 0 0 0 0 0 0 0 0 0 0 0 0 0 0 0 0 0 0 0 0 0 0
0 0 0 0 0 0 0 0 0 0 0 0 0 0 0 0 0 0 0 0 0 0 0 0 0 0 0 0 0 0 0 0 0 0 0
0 0 0 0 0 0 0 0 0 0 0 0 0 0 0 0 0 0 0 0 0 0 0 0 0 0 0 0 0 0 0 0 0 0 0
0 0 0 0 0 0 0 0 0 0 0 0 0 0 0 0 0 0 0 0 0 0 0 0 0 0 185 37 37 192 38
38 195 39 39 198 40 40 199 40 40 200 40 40 200 40 40 200 40 40 200 40
40 199 40 40 198 40 40 197 39 39 196 39 39 195 39 39 194 39 39 192 38
38 191 38 38 192 40 40 200 50 50 220 72 72 231 84 84 215 70 70 193 49
49 180 38 38 176 35 35 173 35 35 171 34 34 169 34 34 166 33 33 164 33
33 161 32 32 159 32 32 156 31 31 153 31 31 150 30 30 148 30 30 145 29
29 142 28 28 139 28 28 135 27 27 132 26 26 129 26 26 125 25 25 122 24
24 118 24 24 115 23 23 111 22 22 107 21 21 103 21 21 99 20 20 95 19 19
90 18 18 86 17 17 81 16 16 76 15 15 71 14 14 66 13 13 60 12 12 54 11
11 48 10 10 41 8 8 34 7 7 26 5 5 26 5 5 26 5 5 26 5 5 0 0 0 0 0 0 0 0
0 0 0 0 0 0 0 0 0 0 0 0 0 0 0 0 0 0 0 0 0 0 0 0 0 0 0 0 0 0 0 0 0 0 0
0 0 0 0 0 0 0 0 0 0 0 0 0 0 0 0 0 0 0 0 0 0 0 0 0 0 0 0 0 0 0 0 0 0 0
0 0 0 0 0 0 0 0 0 0 0 0 0 0 0 0 0 0 0 0 0 0 0 0 0 0 0 0 0 0 0 0 0 0 0
0 0 0 0 0 0 0 0 0 0 0 0 0 0 0 0 0 0 0 0 0 0 0 0 0 0 0 0 0 0 0 0 0 0 0
0 0 0 0 0 0 0 0 0 0 0 0 0 0 0 0 0 0 0 0 0 0 0 0 0 0 0 0 0 0 0 0 0 0 0
0 0 0 0 0 0 0 0 0 0 0 0 0 0 0 0 0 0
0 0 0 0 0 0 0 0 0 0 0 0 0 0 0 0 0 0 0 0 0 0 0 0 0 0 0 0 0 0 0 0 0 0 0
0 0 0 0 0 0 0 0 0 0 0 0 0 0 0 0 0 0 0 0 0 0 0 0 0 0 0 0 0 0 0 0 0 0 0
0 0 0 0 0 0 0 0 0 0 0 0 0 0 0 0 0 0 0 0 0 0 0 0 0 0 0 0 0 0 0 0 0 0 0
0 0 0 0 0 0 0 0 0 0 0 0 0 0 0 0 0 0 0 0 0 0 0 0 0 0 0 0 0 0 0 0 0 0 0
0 0 0 0 0 0 0 0 0 0 0 0 0 0 0 0 0 0 0 0 0 0 0 0 0 0 0 0 0 0 0 0 0 0 0
0 0 0 0 0 0 0 0 0 0 0 0 0 0 0 0 0 0 0 0 0 0 0 0 0 0 187 37 37 192 38
38 195 39 39 197 39 39 198 40 40 199 40 40 199 40 40 199 40 40 198 40
40 198 40 40 197 39 39 196 39 39 195 39 39 194 39 39 192 38 38 191 38
38 190 38 38 193 43 43 213 64 64 246 99 99 255 110 110 226 82 82 194
51 51 179 38 38 175 35 35 172 34 34 170 34 34 167 33 33 165 33 33 162
32 32 160 32 32 157 31 31 155 31 31 152 30 30 149 30 30 146 29 29 143
29 29 140 28 28 137 27 27 134 27 27 131 26 26 128 26 26 124 25 25 121
24 24 117 23 23 113 23 23 110 22 22 106 21 21 102 20 20 98 20 20 94 19
19 89 18 18 85 17 17 80 16 16 75 15 15 70 14 14 65 13 13 59 12 12 53
11 11 47 9 9 41 8 8 33 7 7 26 5 5 26 5 5 26 5 5 26 5 5 0 0 0 0 0 0 0 0
0 0 0 0 0 0 0 0 0 0 0 0 0 0 0 0 0 0 0 0 0 0 0 0 0 0 0 0 0 0 0 0 0 0 0
0 0 0 0 0 0 0 0 0 0 0 0 0 0 0 0 0 0 0 0 0 0 0 0 0 0 0 0 0 0 0 0 0 0 0
0 0 0 0 0 0 0 0 0 0 0 0 0 0 0 0 0 0 0 0 0 0 0 0 0 0 0 0 0 0 0 0 0 0 0
0 0 0 0 0 0 0 0 0 0 0 0 0 0 0 0 0 0 0 0 0 0 0 0 0 0 0 0 0 0 0 0 0 0 0
0 0 0 0 0 0 0 0 0 0 0 0 0 0 0 0 0 0 0 0 0 0 0 0 0 0 0 0 0 0 0 0 0 0 0
0 0 0 0 0 0 0 0 0 0 0 0 0 0 0 0 0 0
0 0 0 0 0 0 0 0 0 0 0 0 0 0 0 0 0 0 0 0 0 0 0 0 0 0 0 0 0 0 0 0 0 0 0
0 0 0 0 0 0 0 0 0 0 0 0 0 0 0 0 0 0 0 0 0 0 0 0 0 0 0 0 0 0 0 0 0 0 0
0 0 0 0 0 0 0 0 0 0 0 0 0 0 0 0 0 0 0 0 0 0 0 0 0 0 0 0 0 0 0 0 0 0 0
0 0 0 0 0 0 0 0 0 0 0 0 0 0 0 0 0 0 0 0 0 0 0 0 0 0 0 0 0 0 0 0 0 0 0
0 0 0 0 0 0 0 0 0 0 0 0 0 0 0 0 0 0 0 0 0 0 0 0 0 0 0 0 0 0 0 0 0 0 0
0 0 0 0 0 0 0 0 0 0 0 0 0 0 0 0 0 0 0 0 0 0 0 176 35 35 187 37 37 192
38 38 194 39 39 196 39 39 197 39 39 197 39 39 198 40 40 197 39 39 197
39 39 196 39 39 196 39 39 195 39 39 193 39 39 192 38 38 191 38 38 190
38 38 189 38 38 194 45 45 215 67 67 243 97 97 244 99 99 214 71 71 187
46 46 177 37 37 173 35 35 170 34 34 168 34 34 166 33 33 163 33 33 161
32 32 158 32 32 156 31 31 153 31 31 150 30 30 148 30 30 145 29 29 142
28 28 139 28 28 136 27 27 133 27 27 129 26 26 126 25 25 123 25 25 119
24 24 116 23 23 112 22 22 108 22 22 105 21 21 101 20 20 97 19 19 92 18
18 88 18 18 84 17 17 79 16 16 74 15 15 69 14 14 64 13 13 58 12 12 53
11 11 46 9 9 40 8 8 33 7 7 26 5 5 26 5 5 26 5 5 26 5 5 26 5 5 0 0 0 0
0 0 0 0 0 0 0 0 0 0 0 0 0 0 0 0 0 0 0 0 0 0 0 0 0 0 0 0 0 0 0 0 0 0 0
0 0 0 0 0 0 0 0 0 0 0 0 0 0 0 0 0 0 0 0 0 0 0 0 0 0 0 0 0 0 0 0 0 0 0
0 0 0 0 0 0 0 0 0 0 0 0 0 0 0 0 0 0 0 0 0 0 0 0 0 0 0 0 0 0 0 0 0 0 0
0 0 0 0 0 0 0 0 0 0 0 0 0 0 0 0 0 0 0 0 0 0 0 0 0 0 0 0 0 0 0 0 0 0 0
0 0 0 0 0 0 0 0 0 0 0 0 0 0 0 0 0 0 0 0 0 0 0 0 0 0 0 0 0 0 0 0 0 0 0
0 0 0 0 0 0 0 0 0 0 0 0 0 0 0 0 0 0 0
0 0 0 0 0 0 0 0 0 0 0 0 0 0 0 0 0 0 0 0 0 0 0 0 0 0 0 0 0 0 0 0 0 0 0
0 0 0 0 0 0 0 0 0 0 0 0 0 0 0 0 0 0 0 0 0 0 0 0 0 0 0 0 0 0 0 0 0 0 0
0 0 0 0 0 0 0 0 0 0 0 0 0 0 0 0 0 0 0 0 0 0 0 0 0 0 0 0 0 0 0 0 0 0 0
0 0 0 0 0 0 0 0 0 0 0 0 0 0 0 0 0 0 0 0 0 0 0 0 0 0 0 0 0 0 0 0 0 0 0
0 0 0 0 0 0 0 0 0 0 0 0 0 0 0 0 0 0 0 0 0 0 0 0 0 0 0 0 0 0 0 0 0 0 0
0 0 0 0 0 0 0 0 0 0 0 0 0 0 0 0 0 0 0 0 0 0 0 179 36 36 187 37 37 191
38 38 193 39 39 195 39 39 196 39 39 196 39 39 196 39 39 196 39 39 195
39 39 195 39 39 194 39 39 193 39 39 192 38 38 191 38 38 189 38 38 188
38 38 187 38 38 190 42 42 202 55 55 214 69 69 210 66 66 192 51 51 179
39 39 174 35 35 171 34 34 169 34 34 167 33 33 164 33 33 162 32 32 159
32 32 157 31 31 154 31 31 152 30 30 149 30 30 146 29 29 143 29 29 140
28 28 137 27 27 134 27 27 131 26 26 128 26 26 125 25 25 121 24 24 118
24 24 114 23 23 111 22 22 107 21 21 103 21 21 99 20 20 95 19 19 91 18
18 87 17 17 82 16 16 78 16 16 73 15 15 68 14 14 63 13 13 57 11 11 52
10 10 46 9 9 39 8 8 32 6 6 26 5 5 26 5 5 26 5 5 26 5 5 26 5 5 0 0 0 0
0 0 0 0 0 0 0 0 0 0 0 0 0 0 0 0 0 0 0 0 0 0 0 0 0 0 0 0 0 0 0 0 0 0 0
0 0 0 0 0 0 0 0 0 0 0 0 0 0 0 0 0 0 0 0 0 0 0 0 0 0 0 0 0 0 0 0 0 0 0
0 0 0 0 0 0 0 0 0 0 0 0 0 0 0 0 0 0 0 0 0 0 0 0 0 0 0 0 0 0 0 0 0 0 0
0 0 0 0 0 0 0 0 0 0 0 0 0 0 0 0 0 0 0 0 0 0 0 0 0 0 0 0 0 0 0 0 0 0 0
0 0 0 0 0 0 0 0 0 0 0 0 0 0 0 0 0 0 0 0 0 0 0 0 0 0 0 0 0 0 0 0 0 0 0
0 0 0 0 0 0 0 0 0 0 0 0 0 0 0 0 0 0 0
0 0 0 0 0 0 0 0 0 0 0 0 0 0 0 0 0 0 0 0 0 0 0 0 0 0 0 0 0 0 0 0 0 0 0
0 0 0 0 0 0 0 0 0 0 0 0 0 0 0 0 0 0 0 0 0 0 0 0 0 0 0 0 0 0 0 0 0 0 0
0 0 0 0 0 0 0 0 0 0 0 0 0 0 0 0 0 0 0 0 0 0 0 0 0 0 0 0 0 0 0 0 0 0 0
0 0 0 0 0 0 0 0 0 0 0 0 0 0 0 0 0 0 0 0 0 0 0 0 0 0 0 0 0 0 0 0 0 0 0
0 0 0 0 0 0 0 0 0 0 0 0 0 0 0 0 0 0 0 0 0 0 0 0 0 0 0 0 0 0 0 0 0 0 0
0 0 0 0 0 0 0 0 0 0 0 0 0 0 0 0 0 0 0 0 0 0 0 180 36 36 186 37 37 190
38 38 192 38 38 193 39 39 194 39 39 195 39 39 195 39 39 194 39 39 194
39 39 193 39 39 192 38 38 191 38 38 190 38 38 189 38 38 188 38 38 186
37 37 185 37 37 185 39 39 188 43 43 190 46 46 186 44 44 180 39 39 175
36 36 172 34 34 169 34 34 167 33 33 165 33 33 163 33 33 160 32 32 158
32 32 155 31 31 153 31 31 150 30 30 147 29 29 144 29 29 142 28 28 139
28 28 136 27 27 133 27 27 130 26 26 126 25 25 123 25 25 120 24 24 116
23 23 113 23 23 109 22 22 105 21 21 102 20 20 98 20 20 94 19 19 90 18
18 85 17 17 81 16 16 76 15 15 72 14 14 67 13 13 61 12 12 56 11 11 50
10 10 44 9 9 38 8 8 31 6 6 26 5 5 26 5 5 26 5 5 26 5 5 26 5 5 0 0 0 0
0 0 0 0 0 0 0 0 0 0 0 0 0 0 0 0 0 0 0 0 0 0 0 0 0 0 0 0 0 0 0 0 0 0 0
0 0 0 0 0 0 0 0 0 0 0 0 0 0 0 0 0 0 0 0 0 0 0 0 0 0 0 0 0 0 0 0 0 0 0
0 0 0 0 0 0 0 0 0 0 0 0 0 0 0 0 0 0 0 0 0 0 0 0 0 0 0 0 0 0 0 0 0 0 0
0 0 0 0 0 0 0 0 0 0 0 0 0 0 0 0 0 0 0 0 0 0 0 0 0 0 0 0 0 0 0 0 0 0 0
0 0 0 0 0 0 0 0 0 0 0 0 0 0 0 0 0 0 0 0 0 0 0 0 0 0 0 0 0 0 0 0 0 0 0
0 0 0 0 0 0 0 0 0 0 0 0 0 0 0 0 0 0 0
0 0 0 0 0 0 0 0 0 0 0 0 0 0 0 0 0 0 0 0 0 0 0 0 0 0 0 0 0 0 0 0 0 0 0
0 0 0 0 0 0 0 0 0 0 0 0 0 0 0 0 0 0 0 0 0 0 0 0 0 0 0 0 0 0 0 0 0 0 0
0 0 0 0 0 0 0 0 0 0 0 0 0 0 0 0 0 0 0 0 0 0 0 0 0 0 0 0 0 0 0 0 0 0 0
0 0 0 0 0 0 0 0 0 0 0 0 0 0 0 0 0 0 0 0 0 0 0 0 0 0 0 0 0 0 0 0 0 0 0
0 0 0 0 0 0 0 0 0 0 0 0 0 0 0 0 0 0 0 0 0 0 0 0 0 0 0 0 0 0 0 0 0 0 0
0 0 0 0 0 0 0 0 0 0 0 0 0 0 0 0 0 0 0 0 0 0 0 180 36 36 186 37 37 189
38 38 191 38 38 192 38 38 193 39 39 193 39 39 193 39 39 193 39 39 192
38 38 192 38 38 191 38 38 190 38 38 189 38 38 187 37 37 186 37 37 185
37 37 183 37 37 182 37 37 181 37 37 180 37 37 177 37 37 175 35 35 172
35 35 170 34 34 168 34 34 166 33 33 163 33 33 161 32 32 159 32 32 156
31 31 154 31 31 151 30 30 148 30 30 146 29 29 143 29 29 140 28 28 137
27 27 134 27 27 131 26 26 128 26 26 125 25 25 121 24 24 118 24 24 115
23 23 111 22 22 108 22 22 104 21 21 100 20 20 96 19 19 92 18 18 88 18
18 84 17 17 79 16 16 75 15 15 70 14 14 65 13 13 60 12 12 55 11 11 49
10 10 43 9 9 37 7 7 30 6 6 26 5 5 26 5 5 26 5 5 26 5 5 26 5 5 0 0 0 0
0 0 0 0 0 0 0 0 0 0 0 0 0 0 0 0 0 0 0 0 0 0 0 0 0 0 0 0 0 0 0 0 0 0 0
0 0 0 0 0 0 0 0 0 0 0 0 0 0 0 0 0 0 0 0 0 0 0 0 0 0 0 0 0 0 0 0 0 0 0
0 0 0 0 0 0 0 0 0 0 0 0 0 0 0 0 0 0 0 0 0 0 0 0 0 0 0 0 0 0 0 0 0 0 0
0 0 0 0 0 0 0 0 0 0 0 0 0 0 0 0 0 0 0 0 0 0 0 0 0 0 0 0 0 0 0 0 0 0 0
0 0 0 0 0 0 0 0 0 0 0 0 0 0 0 0 0 0 0 0 0 0 0 0 0 0 0 0 0 0 0 0 0 0 0
0 0 0 0 0 0 0 0 0 0 0 0 0 0 0 0 0 0 0
0 0 0 0 0 0 0 0 0 0 0 0 0 0 0 0 0 0 0 0 0 0 0 0 0 0 0 0 0 0 0 0 0 0 0
0 0 0 0 0 0 0 0 0 0 0 0 0 0 0 0 0 0 0 0 0 0 0 0 0 0 0 0 0 0 0 0 0 0 0
0 0 0 0 0 0 0 0 0 0 0 0 0 0 0 0 0 0 0 0 0 0 0 0 0 0 0 0 0 0 0 0 0 0 0
0 0 0 0 0 0 0 0 0 0 0 0 0 0 0 0 0 0 0 0 0 0 0 0 0 0 0 0 0 0 0 0 0 0 0
0 0 0 0 0 0 0 0 0 0 0 0 0 0 0 0 0 0 0 0 0 0 0 0 0 0 0 0 0 0 0 0 0 0 0
0 0 0 0 0 0 0 0 0 0 0 0 0 0 0 0 0 0 0 0 166 33 33 179 36 36 184 37 37
187 37 37 189 38 38 190 38 38 191 38 38 191 38 38 191 38 38 191 38 38
190 38 38 190 38 38 189 38 38 188 38 38 187 37 37 186 37 37 184 37 37
183 37 37 181 36 36 180 36 36 178 36 36 176 35 35 174 35 35 172 34 34
170 34 34 168 34 34 166 33 33 164 33 33 161 32 32 159 32 32 157 31 31
154 31 31 152 30 30 149 30 30 147 29 29 144 29 29 141 28 28 138 28 28
135 27 27 132 26 26 129 26 26 126 25 25 123 25 25 120 24 24 116 23 23
113 23 23 110 22 22 106 21 21 102 20 20 98 20 20 95 19 19 91 18 18 86
17 17 82 16 16 78 16 16 73 15 15 69 14 14 64 13 13 59 12 12 53 11 11
48 10 10 42 8 8 36 7 7 29 6 6 26 5 5 26 5 5 26 5 5 26 5 5 26 5 5 26 5
5 0 0 0 0 0 0 0 0 0 0 0 0 0 0 0 0 0 0 0 0 0 0 0 0 0 0 0 0 0 0 0 0 0 0
0 0 0 0 0 0 0 0 0 0 0 0 0 0 0 0 0 0 0 0 0 0 0 0 0 0 0 0 0 0 0 0 0 0 0
0 0 0 0 0 0 0 0 0 0 0 0 0 0 0 0 0 0 0 0 0 0 0 0 0 0 0 0 0 0 0 0 0 0 0
0 0 0 0 0 0 0 0 0 0 0 0 0 0 0 0 0 0 0 0 0 0 0 0 0 0 0 0 0 0 0 0 0 0 0
0 0 0 0 0 0 0 0 0 0 0 0 0 0 0 0 0 0 0 0 0 0 0 0 0 0 0 0 0 0 0 0 0 0 0
0 0 0 0 0 0 0 0 0 0 0 0 0 0 0 0 0 0 0 0 0
0 0 0 0 0 0 0 0 0 0 0 0 0 0 0 0 0 0 0 0 0 0 0 0 0 0 0 0 0 0 0 0 0 0 0
0 0 0 0 0 0 0 0 0 0 0 0 0 0 0 0 0 0 0 0 0 0 0 0 0 0 0 0 0 0 0 0 0 0 0
0 0 0 0 0 0 0 0 0 0 0 0 0 0 0 0 0 0 0 0 0 0 0 0 0 0 0 0 0 0 0 0 0 0 0
0 0 0 0 0 0 0 0 0 0 0 0 0 0 0 0 0 0 0 0 0 0 0 0 0 0 0 0 0 0 0 0 0 0 0
0 0 0 0 0 0 0 0 0 0 0 0 0 0 0 0 0 0 0 0 0 0 0 0 0 0 0 0 0 0 0 0 0 0 0
0 0 0 0 0 0 0 0 0 0 0 0 0 0 0 0 0 0 0 0 168 34 34 178 36 36 183 37 37
186 37 37 188 38 38 189 38 38 189 38 38 189 38 38 189 38 38 189 38 38
189 38 38 188 38 38 187 37 37 186 37 37 185 37 37 184 37 37 182 36 36
181 36 36 179 36 36 178 36 36 176 35 35 174 35 35 172 34 34 170 34 34
168 34 34 166 33 33 164 33 33 162 32 32 160 32 32 157 31 31 155 31 31
152 30 30 150 30 30 147 29 29 145 29 29 142 28 28 139 28 28 136 27 27
134 27 27 131 26 26 128 26 26 124 25 25 121 24 24 118 24 24 115 23 23
111 22 22 108 22 22 104 21 21 101 20 20 97 19 19 93 19 19 89 18 18 85
17 17 81 16 16 76 15 15 72 14 14 67 13 13 62 12 12 57 11 11 52 10 10
46 9 9 40 8 8 34 7 7 27 5 5 26 5 5 26 5 5 26 5 5 26 5 5 26 5 5 26 5 5
0 0 0 0 0 0 0 0 0 0 0 0 0 0 0 0 0 0 0 0 0 0 0 0 0 0 0 0 0 0 0 0 0 0 0
0 0 0 0 0 0 0 0 0 0 0 0 0 0 0 0 0 0 0 0 0 0 0 0 0 0 0 0 0 0 0 0 0 0 0
0 0 0 0 0 0 0 0 0 0 0 0 0 0 0 0 0 0 0 0 0 0 0 0 0 0 0 0 0 0 0 0 0 0 0
0 0 0 0 0 0 0 0 0 0 0 0 0 0 0 0 0 0 0 0 0 0 0 0 0 0 0 0 0 0 0 0 0 0 0
0 0 0 0 0 0 0 0 0 0 0 0 0 0 0 0 0 0 0 0 0 0 0 0 0 0 0 0 0 0 0 0 0 0 0
0 0 0 0 0 0 0 0 0 0 0 0 0 0 0 0 0 0 0 0
0 0 0 0 0 0 0 0 0 0 0 0 0 0 0 0 0 0 0 0 0 0 0 0 0 0 0 0 0 0 0 0 0 0 0
0 0 0 0 0 0 0 0 0 0 0 0 0 0 0 0 0 0 0 0 0 0 0 0 0 0 0 0 0 0 0 0 0 0 0
0 0 0 0 0 0 0 0 0 0 0 0 0 0 0 0 0 0 0 0 0 0 0 0 0 0 0 0 0 0 0 0 0 0 0
0 0 0 0 0 0 0 0 0 0 0 0 0 0 0 0 0 0 0 0 0 0 0 0 0 0 0 0 0 0 0 0 0 0 0
0 0 0 0 0 0 0 0 0 0 0 0 0 0 0 0 0 0 0 0 0 0 0 0 0 0 0 0 0 0 0 0 0 0 0
0 0 0 0 0 0 0 0 0 0 0 0 0 0 0 0 0 0 0 0 168 34 34 177 35 35 181 36 36
184 37 37 186 37 37 187 37 37 187 37 37 188 38 38 187 37 37 187 37 37
187 37 37 186 37 37 185 37 37 184 37 37 183 37 37 182 36 36 180 36 36
179 36 36 177 35 35 176 35 35 174 35 35 172 34 34 170 34 34 168 34 34
166 33 33 164 33 33 162 32 32 160 32 32 158 32 32 155 31 31 153 31 31
151 30 30 148 30 30 145 29 29 143 29 29 140 28 28 137 27 27 135 27 27
132 26 26 129 26 26 126 25 25 123 25 25 119 24 24 116 23 23 113 23 23
109 22 22 106 21 21 102 20 20 99 20 20 95 19 19 91 18 18 87 17 17 83
17 17 79 16 16 74 15 15 70 14 14 65 13 13 60 12 12 55 11 11 50 10 10
45 9 9 39 8 8 33 7 7 26 5 5 26 5 5 26 5 5 26 5 5 26 5 5 26 5 5 26 5 5
0 0 0 0 0 0 0 0 0 0 0 0 0 0 0 0 0 0 0 0 0 0 0 0 0 0 0 0 0 0 0 0 0 0 0
0 0 0 0 0 0 0 0 0 0 0 0 0 0 0 0 0 0 0 0 0 0 0 0 0 0 0 0 0 0 0 0 0 0 0
0 0 0 0 0 0 0 0 0 0 0 0 0 0 0 0 0 0 0 0 0 0 0 0 0 0 0 0 0 0 0 0 0 0 0
0 0 0 0 0 0 0 0 0 0 0 0 0 0 0 0 0 0 0 0 0 0 0 0 0 0 0 0 0 0 0 0 0 0 0
0 0 0 0 0 0 0 0 0 0 0 0 0 0 0 0 0 0 0 0 0 0 0 0 0 0 0 0 0 0 0 0 0 0 0
0 0 0 0 0 0 0 0 0 0 0 0 0 0 0 0 0 0 0 0
0 0 0 0 0 0 0 0 0 0 0 0 0 0 0 0 0 0 0 0 0 0 0 0 0 0 0 0 0 0 0 0 0 0 0
0 0 0 0 0 0 0 0 0 0 0 0 0 0 0 0 0 0 0 0 0 0 0 0 0 0 0 0 0 0 0 0 0 0 0
0 0 0 0 0 0 0 0 0 0 0 0 0 0 0 0 0 0 0 0 0 0 0 0 0 0 0 0 0 0 0 0 0 0 0
0 0 0 0 0 0 0 0 0 0 0 0 0 0 0 0 0 0 0 0 0 0 0 0 0 0 0 0 0 0 0 0 0 0 0
0 0 0 0 0 0 0 0 0 0 0 0 0 0 0 0 0 0 0 0 0 0 0 0 0 0 0 0 0 0 0 0 0 0 0
0 0 0 0 0 0 0 0 0 0 0 0 0 0 0 0 0 0 0 0 167 33 33 175 35 35 179 36 36
182 36 36 184 37 37 185 37 37 185 37 37 186 37 37 185 37 37 185 37 37
185 37 37 184 37 37 183 37 37 182 36 36 181 36 36 180 36 36 178 36 36
177 35 35 175 35 35 174 35 35 172 34 34 170 34 34 168 34 34 166 33 33
164 33 33 162 32 32 160 32 32 158 32 32 156 31 31 153 31 31 151 30 30
149 30 30 146 29 29 144 29 29 141 28 28 138 28 28 135 27 27 133 27 27
130 26 26 127 25 25 124 25 25 121 24 24 118 24 24 114 23 23 111 22 22
108 22 22 104 21 21 101 20 20 97 19 19 93 19 19 89 18 18 85 17 17 81
16 16 77 15 15 73 15 15 68 14 14 63 13 13 59 12 12 54 11 11 48 10 10
43 9 9 37 7 7 31 6 6 26 5 5 26 5 5 26 5 5 26 5 5 26 5 5 26 5 5 26 5 5
0 0 0 0 0 0 0 0 0 0 0 0 0 0 0 0 0 0 0 0 0 0 0 0 0 0 0 0 0 0 0 0 0 0 0
0 0 0 0 0 0 0 0 0 0 0 0 0 0 0 0 0 0 0 0 0 0 0 0 0 0 0 0 0 0 0 0 0 0 0
0 0 0 0 0 0 0 0 0 0 0 0 0 0 0 0 0 0 0 0 0 0 0 0 0 0 0 0 0 0 0 0 0 0 0
0 0 0 0 0 0 0 0 0 0 0 0 0 0 0 0 0 0 0 0 0 0 0 0 0 0 0 0 0 0 0 0 0 0 0
0 0 0 0 0 0 0 0 0 0 0 0 0 0 0 0 0 0 0 0 0 0 0 0 0 0 0 0 0 0 0 0 0 0 0
0 0 0 0 0 0 0 0 0 0 0 0 0 0 0 0 0 0 0 0
0 0 0 0 0 0 0 0 0 0 0 0 0 0 0 0 0 0 0 0 0 0 0 0 0 0 0 0 0 0 0 0 0 0 0
0 0 0 0 0 0 0 0 0 0 0 0 0 0 0 0 0 0 0 0 0 0 0 0 0 0 0 0 0 0 0 0 0 0 0
0 0 0 0 0 0 0 0 0 0 0 0 0 0 0 0 0 0 0 0 0 0 0 0 0 0 0 0 0 0 0 0 0 0 0
0 0 0 0 0 0 0 0 0 0 0 0 0 0 0 0 0 0 0 0 0 0 0 0 0 0 0 0 0 0 0 0 0 0 0
0 0 0 0 0 0 0 0 0 0 0 0 0 0 0 0 0 0 0 0 0 0 0 0 0 0 0 0 0 0 0 0 0 0 0
0 0 0 0 0 0 0 0 0 0 0 0 0 0 0 0 0 0 0 0 165 33 33 173 35 35 177 35 35
180 36 36 182 36 36 183 37 37 183 37 37 183 37 37 183 37 37 183 37 37
182 36 36 182 36 36 181 36 36 180 36 36 179 36 36 178 36 36 176 35 35
175 35 35 173 35 35 172 34 34 170 34 34 168 34 34 166 33 33 164 33 33
162 32 32 160 32 32 158 32 32 156 31 31 154 31 31 151 30 30 149 30 30
147 29 29 144 29 29 142 28 28 139 28 28 136 27 27 133 27 27 131 26 26
128 26 26 125 25 25 122 24 24 119 24 24 116 23 23 112 22 22 109 22 22
106 21 21 102 20 20 99 20 20 95 19 19 91 18 18 87 17 17 83 17 17 79 16
16 75 15 15 71 14 14 66 13 13 62 12 12 57 11 11 52 10 10 46 9 9 41 8 8
35 7 7 29 6 6 26 5 5 26 5 5 26 5 5 26 5 5 26 5 5 26 5 5 26 5 5 0 0 0 0
0 0 0 0 0 0 0 0 0 0 0 0 0 0 0 0 0 0 0 0 0 0 0 0 0 0 0 0 0 0 0 0 0 0 0
0 0 0 0 0 0 0 0 0 0 0 0 0 0 0 0 0 0 0 0 0 0 0 0 0 0 0 0 0 0 0 0 0 0 0
0 0 0 0 0 0 0 0 0 0 0 0 0 0 0 0 0 0 0 0 0 0 0 0 0 0 0 0 0 0 0 0 0 0 0
0 0 0 0 0 0 0 0 0 0 0 0 0 0 0 0 0 0 0 0 0 0 0 0 0 0 0 0 0 0 0 0 0 0 0
0 0 0 0 0 0 0 0 0 0 0 0 0 0 0 0 0 0 0 0 0 0 0 0 0 0 0 0 0 0 0 0 0 0 0
0 0 0 0 0 0 0 0 0 0 0 0 0 0 0 0
0 0 0 0 0 0 0 0 0 0 0 0 0 0 0 0 0 0 0 0 0 0 0 0 0 0 0 0 0 0 0 0 0 0 0
0 0 0 0 0 0 0 0 0 0 0 0 0 0 0 0 0 0 0 0 0 0 0 0 0 0 0 0 0 0 0 0 0 0 0
0 0 0 0 0 0 0 0 0 0 0 0 0 0 0 0 0 0 0 0 0 0 0 0 0 0 0 0 0 0 0 0 0 0 0
0 0 0 0 0 0 0 0 0 0 0 0 0 0 0 0 0 0 0 0 0 0 0 0 0 0 0 0 0 0 0 0 0 0 0
0 0 0 0 0 0 0 0 0 0 0 0 0 0 0 0 0 0 0 0 0 0 0 0 0 0 0 0 0 0 0 0 0 0 0
0 0 0 0 0 0 0 0 0 0 0 0 0 0 0 0 0 0 0 0 163 33 33 171 34 34 175 35 35
178 36 36 179 36 36 180 36 36 181 36 36 181 36 36 181 36 36 181 36 36
180 36 36 180 36 36 179 36 36 178 36 36 177 35 35 175 35 35 174 35 35
173 35 35 171 34 34 169 34 34 168 34 34 166 33 33 164 33 33 162 32 32
160 32 32 158 32 32 156 31 31 154 31 31 152 30 30 149 30 30 147 29 29
145 29 29 142 28 28 139 28 28 137 27 27 134 27 27 131 26 26 129 26 26
126 25 25 123 25 25 120 24 24 117 23 23 114 23 23 110 22 22 107 21 21
104 21 21 100 20 20 97 19 19 93 19 19 89 18 18 85 17 17 81 16 16 77 15
15 73 15 15 69 14 14 64 13 13 60 12 12 55 11 11 50 10 10 44 9 9 39 8 8
33 7 7 27 5 5 26 5 5 26 5 5 26 5 5 26 5 5 26 5 5 26 5 5 26 5 5 0 0 0 0
0 0 0 0 0 0 0 0 0 0 0 0 0 0 0 0 0 0 0 0 0 0 0 0 0 0 0 0 0 0 0 0 0 0 0
0 0 0 0 0 0 0 0 0 0 0 0 0 0 0 0 0 0 0 0 0 0 0 0 0 0 0 0 0 0 0 0 0 0 0
0 0 0 0 0 0 0 0 0 0 0 0 0 0 0 0 0 0 0 0 0 0 0 0 0 0 0 0 0 0 0 0 0 0 0
0 0 0 0 0 0 0 0 0 0 0 0 0 0 0 0 0 0 0 0 0 0 0 0 0 0 0 0 0 0 0 0 0 0 0
0 0 0 0 0 0 0 0 0 0 0 0 0 0 0 0 0 0 0 0 0 0 0 0 0 0 0 0 0 0 0 0 0 0 0
0 0 0 0 0 0 0 0 0 0 0 0 0 0 0 0
0 0 0 0 0 0 0 0 0 0 0 0 0 0 0 0 0 0 0 0 0 0 0 0 0 0 0 0 0 0 0 0 0 0 0
0 0 0 0 0 0 0 0 0 0 0 0 0 0 0 0 0 0 0 0 0 0 0 0 0 0 0 0 0 0 0 0 0 0 0
0 0 0 0 0 0 0 0 0 0 0 0 0 0 0 0 0 0 0 0 0 0 0 0 0 0 0 0 0 0 0 0 0 0 0
0 0 0 0 0 0 0 0 0 0 0 0 0 0 0 0 0 0 0 0 0 0 0 0 0 0 0 0 0 0 0 0 0 0 0
0 0 0 0 0 0 0 0 0 0 0 0 0 0 0 0 0 0 0 0 0 0 0 0 0 0 0 0 0 0 0 0 0 0 0
0 0 0 0 0 0 0 0 0 0 0 0 0 0 0 0 0 0 0 0 160 32 32 168 34 34 173 35 35
175 35 35 177 35 35 178 36 36 179 36 36 179 36 36 179 36 36 178 36 36
178 36 36 177 35 35 176 35 35 175 35 35 174 35 35 173 35 35 172 34 34
170 34 34 169 34 34 167 33 33 166 33 33 164 33 33 162 32 32 160 32 32
158 32 32 156 31 31 154 31 31 152 30 30 149 30 30 147 29 29 145 29 29
142 28 28 140 28 28 137 27 27 135 27 27 132 26 26 129 26 26 126 25 25
124 25 25 121 24 24 118 24 24 115 23 23 111 22 22 108 22 22 105 21 21
101 20 20 98 20 20 94 19 19 91 18 18 87 17 17 83 17 17 79 16 16 75 15
15 71 14 14 67 13 13 62 12 12 57 11 11 53 11 11 48 10 10 42 8 8 37 7 7
31 6 6 26 5 5 26 5 5 26 5 5 26 5 5 26 5 5 26 5 5 26 5 5 26 5 5 0 0 0 0
0 0 0 0 0 0 0 0 0 0 0 0 0 0 0 0 0 0 0 0 0 0 0 0 0 0 0 0 0 0 0 0 0 0 0
0 0 0 0 0 0 0 0 0 0 0 0 0 0 0 0 0 0 0 0 0 0 0 0 0 0 0 0 0 0 0 0 0 0 0
0 0 0 0 0 0 0 0 0 0 0 0 0 0 0 0 0 0 0 0 0 0 0 0 0 0 0 0 0 0 0 0 0 0 0
0 0 0 0 0 0 0 0 0 0 0 0 0 0 0 0 0 0 0 0 0 0 0 0 0 0 0 0 0 0 0 0 0 0 0
0 0 0 0 0 0 0 0 0 0 0 0 0 0 0 0 0 0 0 0 0 0 0 0 0 0 0 0 0 0 0 0 0 0 0
0 0 0 0 0 0 0 0 0 0 0 0 0 0 0 0
0 0 0 0 0 0 0 0 0 0 0 0 0 0 0 0 0 0 0 0 0 0 0 0 0 0 0 0 0 0 0 0 0 0 0
0 0 0 0 0 0 0 0 0 0 0 0 0 0 0 0 0 0 0 0 0 0 0 0 0 0 0 0 0 0 0 0 0 0 0
0 0 0 0 0 0 0 0 0 0 0 0 0 0 0 0 0 0 0 0 0 0 0 0 0 0 0 0 0 0 0 0 0 0 0
0 0 0 0 0 0 0 0 0 0 0 0 0 0 0 0 0 0 0 0 0 0 0 0 0 0 0 0 0 0 0 0 0 0 0
0 0 0 0 0 0 0 0 0 0 0 0 0 0 0 0 0 0 0 0 0 0 0 0 0 0 0 0 0 0 0 0 0 0 0
0 0 0 0 0 0 0 0 0 0 0 0 0 0 0 0 0 0 0 0 157 31 31 166 33 33 170 34 34
173 35 35 174 35 35 175 35 35 176 35 35 176 35 35 176 35 35 176 35 35
176 35 35 175 35 35 174 35 35 173 35 35 172 34 34 171 34 34 169 34 34
168 34 34 167 33 33 165 33 33 163 33 33 162 32 32 160 32 32 158 32 32
156 31 31 154 31 31 152 30 30 149 30 30 147 29 29 145 29 29 143 29 29
140 28 28 138 28 28 135 27 27 132 26 26 130 26 26 127 25 25 124 25 25
121 24 24 118 24 24 115 23 23 112 22 22 109 22 22 106 21 21 103 21 21
99 20 20 96 19 19 92 18 18 89 18 18 85 17 17 81 16 16 77 15 15 73 15
15 69 14 14 64 13 13 60 12 12 55 11 11 50 10 10 45 9 9 40 8 8 35 7 7
29 6 6 26 5 5 26 5 5 26 5 5 26 5 5 26 5 5 26 5 5 26 5 5 26 5 5 0 0 0 0
0 0 0 0 0 0 0 0 0 0 0 0 0 0 0 0 0 0 0 0 0 0 0 0 0 0 0 0 0 0 0 0 0 0 0
0 0 0 0 0 0 0 0 0 0 0 0 0 0 0 0 0 0 0 0 0 0 0 0 0 0 0 0 0 0 0 0 0 0 0
0 0 0 0 0 0 0 0 0 0 0 0 0 0 0 0 0 0 0 0 0 0 0 0 0 0 0 0 0 0 0 0 0 0 0
0 0 0 0 0 0 0 0 0 0 0 0 0 0 0 0 0 0 0 0 0 0 0 0 0 0 0 0 0 0 0 0 0 0 0
0 0 0 0 0 0 0 0 0 0 0 0 0 0 0 0 0 0 0 0 0 0 0 0 0 0 0 0 0 0 0 0 0 0 0
0 0 0 0 0 0 0 0 0 0 0 0 0 0 0 0
0 0 0 0 0 0 0 0 0 0 0 0 0 0 0 0 0 0 0 0 0 0 0 0 0 0 0 0 0 0 0 0 0 0 0
0 0 0 0 0 0 0 0 0 0 0 0 0 0 0 0 0 0 0 0 0 0 0 0 0 0 0 0 0 0 0 0 0 0 0
0 0 0 0 0 0 0 0 0 0 0 0 0 0 0 0 0 0 0 0 0 0 0 0 0 0 0 0 0 0 0 0 0 0 0
0 0 0 0 0 0 0 0 0 31 154 31 31 154 31 30 151 30 29 147 29 28 142 28 27
136 27 26 129 26 24 121 24 22 112 22 20 102 20 18 89 18 0 0 0 0 0 0 0
0 0 0 0 0 0 0 0 0 0 0 0 0 0 0 0 0 0 0 0 0 0 0 0 0 0 0 0 0 0 0 0 0 0 0
0 0 0 0 0 0 154 31 31 163 33 33 167 33 33 170 34 34 172 34 34 173 35
35 173 35 35 174 35 35 174 35 35 174 35 35 173 35 35 172 34 34 172 34
34 171 34 34 170 34 34 168 34 34 167 33 33 166 33 33 164 33 33 163 33
33 161 32 32 159 32 32 157 31 31 155 31 31 153 31 31 151 30 30 149 30
30 147 29 29 145 29 29 143 29 29 140 28 28 138 28 28 135 27 27 133 27
27 130 26 26 128 26 26 125 25 25 122 24 24 119 24 24 116 23 23 113 23
23 110 22 22 107 21 21 104 21 21 100 20 20 97 19 19 94 19 19 90 18 18
86 17 17 83 17 17 79 16 16 75 15 15 71 14 14 66 13 13 62 12 12 58 12
12 53 11 11 48 10 10 43 9 9 38 8 8 32 6 6 26 5 5 26 5 5 26 5 5 26 5 5
26 5 5 26 5 5 26 5 5 26 5 5 26 5 5 0 0 0 0 0 0 0 0 0 0 0 0 0 0 0 0 0 0
0 0 0 0 0 0 0 0 0 0 0 0 0 0 0 0 0 0 0 0 0 0 0 0 0 0 0 0 0 0 28 28 139
29 29 145 29 29 147 29 29 146 29 29 144 28 28 141 27 27 136 26 26 130
25 25 123 23 23 113 19 19 97 0 0 0 0 0 0 0 0 0 0 0 0 0 0 0 0 0 0 0 0 0
0 0 0 0 0 0 0 0 0 0 0 0 0 0 0 0 0 0 0 0 0 0 0 0 0 0 0 0 0 0 0 0 0 0 0
0 0 0 0 0 0 0 0 0 0 0 0 0 0 0 0 0 0 0 0 0 0 0 0 0 0 0 0 0 0 0 0 0 0 0
0 0 0 0 0 0 0 0 0 0 0 0 0 0 0 0 0 0 0 0 0 0 0
0 0 0 0 0 0 0 0 0 0 0 0 0 0 0 0 0 0 0 0 0 0 0 0 0 0 0 0 0 0 0 0 0 0 0
0 0 0 0 0 0 0 0 0 0 0 0 0 0 0 0 0 0 0 0 0 0 0 0 0 0 0 0 0 0 0 0 0 0 0
0 0 0 0 0 0 0 0 0 0 0 0 0 0 0 0 0 0 0 0 0 0 0 0 0 0 0 0 0 0 0 0 0 0 0
34 169 34 34 172 34 34 171 34 34 168 34 33 164 33 32 159 32 31 154 31
30 149 30 29 143 29 27 136 27 26 129 26 24 121 24 23 113 23 21 104 21
19 93 19 16 81 16 13 65 13 0 0 0 0 0 0 0 0 0 0 0 0 0 0 0 0 0 0 0 0 0 0
0 0 0 0 0 0 0 0 0 0 0 0 0 0 0 0 0 150 30 30 159 32 32 164 33 33 167 33
33 169 34 34 170 34 34 171 34 34 171 34 34 171 34 34 171 34 34 170 34
34 170 34 34 169 34 34 168 34 34 167 33 33 166 33 33 165 33 33 163 33
33 162 32 32 160 32 32 158 32 32 157 31 31 155 31 31 153 31 31 151 30
30 149 30 30 147 29 29 145 29 29 143 29 29 140 28 28 138 28 28 136 27
27 133 27 27 130 26 26 128 26 26 125 25 25 122 24 24 120 24 24 117 23
23 114 23 23 111 22 22 108 22 22 105 21 21 101 20 20 98 20 20 95 19 19
91 18 18 88 18 18 84 17 17 80 16 16 76 15 15 72 14 14 68 14 14 64 13
13 60 12 12 55 11 11 51 10 10 46 9 9 41 8 8 35 7 7 30 6 6 26 5 5 26 5
5 26 5 5 26 5 5 26 5 5 26 5 5 26 5 5 26 5 5 26 5 5 0 0 0 0 0 0 0 0 0 0
0 0 0 0 0 0 0 0 0 0 0 0 0 0 0 0 0 0 0 0 0 0 0 0 0 0 0 0 0 29 29 147 32
32 159 33 33 163 33 33 165 33 33 165 33 33 165 33 33 163 32 32 160 31
31 156 30 30 152 29 29 147 28 28 141 27 27 133 25 25 125 23 23 115 20
20 102 16 16 82 0 0 0 0 0 0 0 0 0 0 0 0 0 0 0 0 0 0 0 0 0 0 0 0 0 0 0
0 0 0 0 0 0 0 0 0 0 0 0 0 0 0 0 0 0 0 0 0 0 0 0 0 0 0 0 0 0 0 0 0 0 0
0 0 0 0 0 0 0 0 0 0 0 0 0 0 0 0 0 0 0 0 0 0 0 0 0 0 0 0 0 0 0 0 0 0 0
0 0 0 0 0 0 0 0
0 0 0 0 0 0 0 0 0 0 0 0 0 0 0 0 0 0 0 0 0 0 0 0 0 0 0 0 0 0 0 0 0 0 0
0 0 0 0 0 0 0 0 0 0 0 0 0 0 0 0 0 0 0 0 0 0 0 0 0 0 0 0 0 0 0 0 0 0 0
0 0 0 0 0 0 0 0 0 0 0 0 0 0 0 0 0 0 0 0 0 0 0 0 0 0 0 0 0 36 179 36 36
182 36 36 182 36 36 179 36 35 176 35 34 172 34 34 168 34 33 163 33 32
158 32 30 152 30 29 146 29 28 139 28 26 132 26 25 125 25 23 117 23 22
109 22 20 100 20 18 90 18 16 79 16 13 66 13 9 47 9 0 0 0 0 0 0 0 0 0 0
0 0 0 0 0 0 0 0 0 0 0 0 0 0 0 0 0 0 0 0 0 0 0 145 29 29 156 31 31 161
32 32 164 33 33 166 33 33 167 33 33 168 34 34 168 34 34 168 34 34 168
34 34 168 34 34 167 33 33 166 33 33 166 33 33 164 33 33 163 33 33 162
32 32 161 32 32 159 32 32 158 32 32 156 31 31 154 31 31 152 30 30 151
30 30 149 30 30 147 29 29 145 29 29 142 28 28 140 28 28 138 28 28 136
27 27 133 27 27 131 26 26 128 26 26 125 25 25 123 25 25 120 24 24 117
23 23 114 23 23 111 22 22 108 22 22 105 21 21 102 20 20 99 20 20 96 19
19 92 18 18 89 18 18 85 17 17 82 16 16 78 16 16 74 15 15 70 14 14 66
13 13 62 12 12 57 11 11 53 11 11 48 10 10 43 9 9 38 8 8 33 7 7 27 5 5
26 5 5 26 5 5 26 5 5 26 5 5 26 5 5 26 5 5 26 5 5 26 5 5 26 5 5 0 0 0 0
0 0 0 0 0 0 0 0 0 0 0 0 0 0 0 0 0 0 0 0 0 0 0 0 0 0 0 0 0 30 30 152 33
33 166 34 34 172 35 35 175 35 35 177 35 35 177 35 35 176 35 35 175 34
34 172 34 34 169 33 33 166 32 32 161 31 31 156 30 30 151 29 29 145 27
27 137 26 26 129 24 24 120 22 22 109 19 19 95 15 15 73 0 0 0 0 0 0 0 0
0 0 0 0 0 0 0 0 0 0 0 0 0 0 0 0 0 0 0 0 0 0 0 0 0 0 0 0 0 0 0 0 0 0 0
0 0 0 0 0 0 0 0 0 0 0 0 0 0 0 0 0 0 0 0 0 0 0 0 0 0 0 0 0 0 0 0 0 0 0
0 0 0 0 0 0 0 0 0 0 0 0 0 0 0 0 0 0 0 0 0
0 0 0 0 0 0 0 0 0 0 0 0 0 0 0 0 0 0 0 0 0 0 0 0 0 0 0 0 0 0 0 0 0 0 0
0 0 0 0 0 0 0 0 0 0 0 0 0 0 0 0 0 0 0 0 0 0 0 0 0 0 0 0 0 0 0 0 0 0 0
0 0 0 0 0 0 0 0 0 0 0 0 0 0 0 0 0 0 0 0 0 0 0 0 0 0 38 189 38 38 190
38 38 188 38 37 186 37 37 183 37 36 179 36 35 175 35 34 170 34 33 165
33 32 159 32 31 154 31 29 147 29 28 141 28 27 134 27 25 127 25 24 119
24 22 111 22 21 103 21 19 94 19 17 84 17 15 73 15 12 60 12 9 45 9 0 0
0 0 0 0 0 0 0 0 0 0 0 0 0 0 0 0 0 0 0 0 0 0 0 0 0 0 0 0 137 27 27 152
30 30 157 31 31 161 32 32 163 33 33 164 33 33 165 33 33 165 33 33 165
33 33 165 33 33 165 33 33 164 33 33 164 33 33 163 33 33 162 32 32 161
32 32 159 32 32 158 32 32 157 31 31 155 31 31 153 31 31 152 30 30 150
30 30 148 30 30 146 29 29 144 29 29 142 28 28 140 28 28 138 28 28 135
27 27 133 27 27 131 26 26 128 26 26 126 25 25 123 25 25 120 24 24 118
24 24 115 23 23 112 22 22 109 22 22 106 21 21 103 21 21 100 20 20 97
19 19 93 19 19 90 18 18 86 17 17 83 17 17 79 16 16 75 15 15 71 14 14
67 13 13 63 13 13 59 12 12 55 11 11 50 10 10 45 9 9 41 8 8 35 7 7 30 6
6 26 5 5 26 5 5 26 5 5 26 5 5 26 5 5 26 5 5 26 5 5 26 5 5 26 5 5 26 5
5 0 0 0 0 0 0 0 0 0 0 0 0 0 0 0 0 0 0 0 0 0 0 0 0 0 0 0 0 0 0 33 33
166 35 35 175 36 36 181 37 37 183 37 37 185 37 37 185 37 37 185 37 37
183 36 36 181 36 36 179 35 35 176 34 34 172 34 34 168 33 33 163 32 32
158 30 30 152 29 29 145 28 28 138 26 26 130 24 24 121 22 22 110 19 19
97 16 16 81 0 0 0 0 0 0 0 0 0 0 0 0 0 0 0 0 0 0 0 0 0 0 0 0 0 0 0 0 0
0 0 0 0 0 0 0 0 0 0 0 0 0 0 0 0 0 0 0 0 0 0 0 0 0 0 0 0 0 0 0 0 0 0 0
0 0 0 0 0 0 0 0 0 0 0 0 0 0 0 0 0 0 0 0 0 0 0 0 0 0 0 0 0 0 0 0
0 0 0 0 0 0 0 0 0 0 0 0 0 0 0 0 0 0 0 0 0 0 0 0 0 0 0 0 0 0 0 0 0 0 0
0 0 0 0 0 0 0 0 0 0 0 0 0 0 0 0 0 0 0 0 0 0 0 0 0 0 0 0 0 0 0 0 0 0 0
0 0 0 0 0 0 0 0 0 0 0 0 0 0 0 0 0 0 0 0 38 189 38 39 194 39 39 195 39
39 193 39 38 191 38 38 188 38 37 184 37 36 180 36 35 176 35 34 171 34
33 165 33 32 160 32 31 154 31 30 148 30 28 142 28 27 135 27 26 128 26
24 120 24 23 113 23 21 104 21 19 96 19 17 86 17 15 76 15 13 65 13 11
53 11 8 38 8 5 26 5 0 0 0 0 0 0 0 0 0 0 0 0 0 0 0 0 0 0 0 0 0 0 0 0 0
0 0 147 29 29 153 31 31 157 31 31 159 32 32 161 32 32 162 32 32 162 32
32 163 33 33 162 32 32 162 32 32 162 32 32 161 32 32 160 32 32 159 32
32 158 32 32 157 31 31 155 31 31 154 31 31 152 30 30 151 30 30 149 30
30 147 29 29 145 29 29 143 29 29 141 28 28 139 28 28 137 27 27 135 27
27 133 27 27 130 26 26 128 26 26 126 25 25 123 25 25 120 24 24 118 24
24 115 23 23 112 22 22 109 22 22 106 21 21 103 21 21 100 20 20 97 19
19 94 19 19 91 18 18 87 17 17 84 17 17 80 16 16 77 15 15 73 15 15 69
14 14 65 13 13 61 12 12 56 11 11 52 10 10 48 10 10 43 9 9 38 8 8 33 7
7 27 5 5 26 5 5 26 5 5 26 5 5 26 5 5 26 5 5 26 5 5 26 5 5 26 5 5 26 5
5 0 0 0 0 0 0 0 0 0 0 0 0 0 0 0 0 0 0 0 0 0 0 0 0 0 0 0 29 29 146 34
34 172 36 36 181 37 37 186 38 38 189 38 38 191 38 38 191 38 38 191 38
38 190 38 38 188 37 37 186 37 37 184 36 36 180 35 35 177 35 35 173 34
34 168 33 33 163 31 31 157 30 30 151 29 29 144 27 27 137 26 26 129 24
24 119 22 22 109 19 19 96 16 16 80 11 11 55 0 0 0 0 0 0 0 0 0 0 0 0 0
0 0 0 0 0 0 0 0 0 0 0 0 0 0 0 0 0 0 0 0 0 0 0 0 0 0 0 0 0 0 0 0 0 0 0
0 0 0 0 0 0 0 0 0 0 0 0 0 0 0 0 0 0 0 0 0 0 0 0 0 0 0 0 0 0 0 0 0 0 0
0 0 0 0 0 0 0
0 0 0 0 0 0 0 0 0 0 0 0 0 0 0 0 0 0 0 0 0 0 0 0 0 0 0 0 0 0 0 0 0 0 0
0 0 0 0 0 0 0 0 0 0 0 0 0 0 0 0 0 0 0 0 0 0 0 0 0 0 0 0 0 0 0 0 0 0 0
0 0 0 0 0 0 0 0 0 0 0 0 0 0 0 0 0 39 194 39 40 198 40 40 198 40 39 197
39 39 195 39 38 192 38 38 188 38 37 184 37 36 180 36 35 176 35 34 171
34 33 165 33 32 160 32 31 154 31 30 148 30 28 142 28 27 135 27 26 128
26 24 121 24 23 113 23 21 105 21 19 97 19 18 88 18 16 78 16 14 68 14
11 57 11 9 44 9 6 28 6 5 26 5 0 0 0 0 0 0 0 0 0 0 0 0 0 0 0 0 0 0 0 0
0 0 0 0 142 28 28 149 30 30 153 31 31 156 31 31 157 31 31 159 32 32
159 32 32 159 32 32 159 32 32 159 32 32 159 32 32 158 32 32 157 31 31
156 31 31 155 31 31 154 31 31 153 31 31 151 30 30 150 30 30 148 30 30
146 29 29 145 29 29 143 29 29 141 28 28 139 28 28 137 27 27 135 27 27
132 26 26 130 26 26 128 26 26 125 25 25 123 25 25 120 24 24 118 24 24
115 23 23 112 22 22 110 22 22 107 21 21 104 21 21 101 20 20 98 20 20
95 19 19 91 18 18 88 18 18 85 17 17 81 16 16 78 16 16 74 15 15 70 14
14 66 13 13 62 12 12 58 12 12 54 11 11 49 10 10 45 9 9 40 8 8 35 7 7
30 6 6 26 5 5 26 5 5 26 5 5 26 5 5 26 5 5 26 5 5 26 5 5 26 5 5 26 5 5
26 5 5 0 0 0 0 0 0 0 0 0 0 0 0 0 0 0 0 0 0 0 0 0 0 0 0 30 30 152 35 35
175 37 37 184 38 38 189 39 39 193 39 39 195 39 39 196 39 39 196 39 39
195 39 39 194 38 38 192 38 38 190 37 37 187 37 37 184 36 36 180 35 35
176 34 34 171 33 33 166 32 32 161 31 31 155 30 30 149 28 28 142 27 27
134 25 25 125 23 23 116 21 21 105 19 19 93 15 15 77 11 11 53 0 0 0 0 0
0 0 0 0 0 0 0 0 0 0 0 0 0 0 0 0 0 0 0 0 0 0 0 0 0 0 0 0 0 0 0 0 0 0 0
0 0 0 0 0 0 0 0 0 0 0 0 0 0 0 0 0 0 0 0 0 0 0 0 0 0 0 0 0 0 0 0 0 0 0
0 0 0 0 0 0 0 0 0 0 0 0
0 0 0 0 0 0 0 0 0 0 0 0 0 0 0 0 0 0 0 0 0 0 0 0 0 0 0 0 0 0 0 0 0 0 0
0 0 0 0 0 0 0 0 0 0 0 0 0 0 0 0 0 0 0 0 0 0 0 0 0 0 0 0 0 0 0 0 0 0 0
0 0 0 0 0 0 0 0 0 0 0 0 0 0 39 196 39 40 201 40 40 201 40 40 200 40 40
198 40 39 195 39 38 192 38 38 188 38 37 184 37 36 180 36 35 175 35 34
170 34 33 165 33 32 159 32 31 153 31 29 147 29 28 141 28 27 134 27 25
127 25 24 120 24 23 113 23 21 105 21 19 97 19 18 88 18 16 79 16 14 69
14 12 58 12 9 47 9 7 33 7 5 26 5 5 26 5 0 0 0 0 0 0 0 0 0 0 0 0 0 0 0
0 0 0 0 0 0 136 27 27 145 29 29 149 30 30 152 30 30 154 31 31 155 31
31 156 31 31 156 31 31 156 31 31 156 31 31 156 31 31 155 31 31 154 31
31 153 31 31 152 30 30 151 30 30 150 30 30 148 30 30 147 29 29 145 29
29 144 29 29 142 28 28 140 28 28 138 28 28 136 27 27 134 27 27 132 26
26 130 26 26 127 25 25 125 25 25 123 25 25 120 24 24 118 24 24 115 23
23 113 23 23 110 22 22 107 21 21 104 21 21 101 20 20 98 20 20 95 19 19
92 18 18 89 18 18 85 17 17 82 16 16 78 16 16 75 15 15 71 14 14 67 13
13 63 13 13 59 12 12 55 11 11 51 10 10 46 9 9 42 8 8 37 7 7 32 6 6 27
5 5 26 5 5 26 5 5 26 5 5 26 5 5 26 5 5 26 5 5 26 5 5 26 5 5 26 5 5 26
5 5 0 0 0 0 0 0 0 0 0 0 0 0 0 0 0 0 0 0 0 0 0 29 29 144 35 35 175 37
37 185 38 38 191 39 39 195 39 39 197 40 40 199 40 40 199 40 40 199 40
40 198 39 39 196 39 39 195 38 38 192 38 38 189 37 37 186 36 36 182 36
36 178 35 35 174 34 34 169 33 33 164 32 32 158 30 30 152 29 29 145 28
28 138 26 26 130 24 24 121 22 22 111 20 20 100 17 17 87 14 14 71 9 9
47 0 0 0 0 0 0 0 0 0 0 0 0 0 0 0 0 0 0 0 0 0 0 0 0 0 0 0 0 0 0 0 0 0 0
0 0 0 0 0 0 0 0 0 0 0 0 0 0 0 0 0 0 0 0 0 0 0 0 0 0 0 0 0 0 0 0 0 0 0
0 0 0 0 0 0 0 0 0 0 0 0 0 0 0
0 0 0 0 0 0 0 0 0 0 0 0 0 0 0 0 0 0 0 0 0 0 0 0 0 0 0 0 0 0 0 0 0 0 0
0 0 0 0 0 0 0 0 0 0 0 0 0 0 0 0 0 0 0 0 0 0 0 0 0 0 0 0 0 0 0 0 0 0 0
0 0 0 0 0 0 0 0 0 0 0 39 195 39 40 202 40 41 203 41 40 202 40 40 200
40 40 198 40 39 195 39 38 191 38 37 187 37 37 183 37 36 179 36 35 174
35 34 169 34 33 163 33 32 158 32 30 152 30 29 146 29 28 140 28 27 133
27 25 126 25 24 119 24 22 112 22 21 104 21 19 96 19 17 87 17 16 78 16
14 69 14 12 59 12 10 48 10 7 36 7 5 26 5 5 26 5 0 0 0 0 0 0 0 0 0 0 0
0 0 0 0 0 0 0 0 0 0 128 26 26 140 28 28 145 29 29 148 30 30 150 30 30
152 30 30 152 30 30 153 31 31 153 31 31 153 31 31 152 30 30 152 30 30
151 30 30 150 30 30 149 30 30 148 30 30 147 29 29 145 29 29 144 29 29
142 28 28 141 28 28 139 28 28 137 27 27 135 27 27 133 27 27 131 26 26
129 26 26 127 25 25 125 25 25 122 24 24 120 24 24 117 23 23 115 23 23
112 22 22 110 22 22 107 21 21 104 21 21 101 20 20 98 20 20 95 19 19 92
18 18 89 18 18 86 17 17 83 17 17 79 16 16 76 15 15 72 14 14 68 14 14
64 13 13 61 12 12 56 11 11 52 10 10 48 10 10 43 9 9 39 8 8 34 7 7 29 6
6 26 5 5 26 5 5 26 5 5 26 5 5 26 5 5 26 5 5 26 5 5 26 5 5 26 5 5 26 5
5 26 5 5 0 0 0 0 0 0 0 0 0 0 0 0 0 0 0 0 0 0 0 0 0 34 34 172 37 37 184
38 38 191 39 39 196 40 40 199 40 40 200 40 40 201 40 40 201 40 40 201
40 40 200 40 40 198 39 39 196 39 39 194 38 38 191 38 38 188 37 37 184
36 36 180 35 35 176 34 34 171 33 33 166 32 32 160 31 31 154 30 30 148
28 28 140 27 27 133 25 25 125 23 23 115 21 21 105 19 19 94 16 16 80 13
13 63 7 7 35 0 0 0 0 0 0 0 0 0 0 0 0 0 0 0 0 0 0 0 0 0 0 0 0 0 0 0 0 0
0 0 0 0 0 0 0 0 0 0 0 0 0 0 0 0 0 0 0 0 0 0 0 0 0 0 0 0 0 0 0 0 0 0 0
0 0 0 0 0 0 0 0 0 0 0 0 0 0 0 0 0
0 0 0 0 0 0 0 0 0 0 0 0 0 0 0 0 0 0 0 0 0 0 0 0 0 0 0 0 0 0 0 0 0 0 0
0 0 0 0 0 0 0 0 0 0 0 0 0 0 0 0 0 0 0 0 0 0 0 0 0 0 0 0 0 0 0 0 0 0 0
0 0 0 0 0 0 0 0 0 0 0 40 202 40 41 204 41 41 203 41 40 202 40 40 200
40 39 197 39 39 194 39 38 190 38 37 186 37 36 182 36 35 177 35 34 172
34 33 167 33 32 162 32 31 156 31 30 150 30 29 144 29 28 138 28 26 131
26 25 125 25 24 118 24 22 110 22 21 103 21 19 95 19 17 86 17 16 78 16
14 68 14 12 59 12 10 48 10 7 36 7 5 26 5 5 26 5 5 26 5 0 0 0 0 0 0 0 0
0 0 0 0 0 0 0 0 0 0 0 0 0 134 27 27 140 28 28 144 29 29 146 29 29 148
30 30 149 30 30 149 30 30 149 30 30 149 30 30 149 30 30 149 30 30 148
30 30 147 29 29 146 29 29 145 29 29 144 29 29 142 28 28 141 28 28 139
28 28 138 28 28 136 27 27 134 27 27 132 26 26 130 26 26 128 26 26 126
25 25 124 25 25 122 24 24 119 24 24 117 23 23 115 23 23 112 22 22 110
22 22 107 21 21 104 21 21 101 20 20 98 20 20 96 19 19 93 19 19 89 18
18 86 17 17 83 17 17 80 16 16 76 15 15 73 15 15 69 14 14 65 13 13 62
12 12 58 12 12 53 11 11 49 10 10 45 9 9 40 8 8 36 7 7 31 6 6 26 5 5 26
5 5 26 5 5 26 5 5 26 5 5 26 5 5 26 5 5 26 5 5 26 5 5 26 5 5 26 5 5 0 0
0 0 0 0 0 0 0 0 0 0 0 0 0 0 0 0 0 0 0 33 33 166 36 36 181 38 38 190 39
39 195 40 40 199 40 40 201 40 40 202 41 41 203 41 41 203 40 40 202 40
40 201 40 40 199 39 39 197 39 39 195 38 38 192 38 38 188 37 37 185 36
36 181 35 35 177 34 34 172 33 33 167 32 32 161 31 31 155 30 30 149 28
28 142 27 27 135 25 25 127 24 24 118 22 22 109 20 20 98 17 17 86 14 14
71 10 10 52 0 0 0 0 0 0 0 0 0 0 0 0 0 0 0 0 0 0 0 0 0 0 0 0 0 0 0 0 0
0 0 0 0 0 0 0 0 0 0 0 0 0 0 0 0 0 0 0 0 0 0 0 0 0 0 0 0 0 0 0 0 0 0 0
0 0 0 0 0 0 0 0 0 0 0 0 0 0 0 0 0
0 0 0 0 0 0 0 0 0 0 0 0 0 0 0 0 0 0 0 0 0 0 0 0 0 0 0 0 0 0 0 0 0 0 0
0 0 0 0 0 0 0 0 0 0 0 0 0 0 0 0 0 0 0 0 0 0 0 0 0 0 0 0 0 0 0 0 0 0 0
0 0 0 0 0 0 0 0 40 200 40 41 203 41 41 204 41 41 203 41 40 201 40 40
199 40 39 196 39 38 192 38 38 188 38 37 184 37 36 180 36 35 175 35 34
170 34 33 165 33 32 160 32 31 154 31 30 148 30 28 142 28 27 136 27 26
130 26 25 123 25 23 116 23 22 109 22 20 101 20 19 93 19 17 85 17 15 76
15 13 67 13 12 58 12 9 47 9 7 36 7 5 26 5 5 26 5 5 26 5 5 26 5 0 0 0 0
0 0 0 0 0 0 0 0 0 0 0 0 0 0 127 25 25 135 27 27 139 28 28 142 28 28
144 29 29 145 29 29 146 29 29 146 29 29 146 29 29 146 29 29 145 29 29
145 29 29 144 29 29 143 29 29 142 28 28 140 28 28 139 28 28 138 28 28
136 27 27 135 27 27 133 27 27 131 26 26 129 26 26 127 25 25 125 25 25
123 25 25 121 24 24 119 24 24 117 23 23 114 23 23 112 22 22 109 22 22
107 21 21 104 21 21 101 20 20 98 20 20 96 19 19 93 19 19 90 18 18 86
17 17 83 17 17 80 16 16 77 15 15 73 15 15 70 14 14 66 13 13 62 12 12
58 12 12 54 11 11 50 10 10 46 9 9 42 8 8 37 7 7 32 6 6 27 5 5 26 5 5
26 5 5 26 5 5 26 5 5 26 5 5 26 5 5 26 5 5 26 5 5 26 5 5 26 5 5 26 5 5
0 0 0 0 0 0 0 0 0 0 0 0 0 0 0 0 0 0 30 30 149 35 35 176 37 37 186 39
39 193 40 40 198 40 40 201 40 40 202 41 41 203 41 41 204 41 41 203 41
41 203 40 40 201 40 40 200 39 39 197 39 39 195 38 38 192 38 38 189 37
37 185 36 36 181 35 35 177 34 34 172 33 33 167 32 32 162 31 31 156 30
30 150 29 29 143 27 27 136 26 26 129 24 24 120 22 22 111 20 20 101 18
18 90 15 15 77 12 12 61 8 8 39 0 0 0 0 0 0 0 0 0 0 0 0 0 0 0 0 0 0 0 0
0 0 0 0 0 0 0 0 0 0 0 0 0 0 0 0 0 0 0 0 0 0 0 0 0 0 0 0 0 0 0 0 0 0 0
0 0 0 0 0 0 0 0 0 0 0 0 0 0 0 0 0 0 0 0 0 0 0
0 0 0 0 0 0 0 0 0 0 0 0 0 0 0 0 0 0 0 0 0 0 0 0 0 0 0 0 0 0 0 0 0 0 0
0 0 0 0 0 0 0 0 0 0 0 0 0 0 0 0 0 0 0 0 0 0 0 0 0 0 0 0 0 0 0 0 0 0 0
0 0 0 0 0 39 195 39 40 202 40 41 204 41 41 203 41 40 202 40 40 200 40
39 197 39 39 194 39 38 190 38 37 186 37 37 182 37 36 178 36 35 173 35
34 168 34 33 163 33 31 157 31 30 152 30 29 146 29 28 140 28 27 134 27
25 127 25 24 121 24 23 114 23 21 106 21 20 99 20 18 91 18 17 83 17 15
75 15 13 66 13 11 56 11 9 46 9 7 35 7 5 26 5 5 26 5 5 26 5 5 26 5 0 0
0 0 0 0 0 0 0 0 0 0 0 0 0 0 0 0 118 24 24 129 26 26 134 27 27 137 27
27 140 28 28 141 28 28 142 28 28 142 28 28 142 28 28 142 28 28 142 28
28 141 28 28 140 28 28 139 28 28 138 28 28 137 27 27 136 27 27 135 27
27 133 27 27 131 26 26 130 26 26 128 26 26 126 25 25 124 25 25 122 24
24 120 24 24 118 24 24 116 23 23 113 23 23 111 22 22 109 22 22 106 21
21 104 21 21 101 20 20 98 20 20 95 19 19 93 19 19 90 18 18 87 17 17 83
17 17 80 16 16 77 15 15 74 15 15 70 14 14 67 13 13 63 13 13 59 12 12
55 11 11 51 10 10 47 9 9 43 9 9 38 8 8 34 7 7 29 6 6 26 5 5 26 5 5 26
5 5 26 5 5 26 5 5 26 5 5 26 5 5 26 5 5 26 5 5 26 5 5 26 5 5 26 5 5 0 0
0 0 0 0 0 0 0 0 0 0 0 0 0 0 0 0 33 33 166 36 36 181 38 38 189 39 39
195 40 40 199 40 40 201 41 41 203 41 41 204 41 41 204 41 41 204 41 41
203 40 40 201 40 40 199 39 39 197 39 39 195 38 38 192 38 38 189 37 37
185 36 36 181 35 35 177 34 34 172 33 33 167 32 32 162 31 31 156 30 30
150 29 29 144 27 27 137 26 26 129 24 24 121 22 22 112 21 21 103 18 18
92 16 16 80 13 13 66 10 10 48 5 5 26 0 0 0 0 0 0 0 0 0 0 0 0 0 0 0 0 0
0 0 0 0 0 0 0 0 0 0 0 0 0 0 0 0 0 0 0 0 0 0 0 0 0 0 0 0 0 0 0 0 0 0 0
0 0 0 0 0 0 0 0 0 0 0 0 0 0 0 0 0 0 0 0 0 0 0
0 0 0 0 0 0 0 0 0 0 0 0 0 0 0 0 0 0 0 0 0 0 0 0 0 0 0 0 0 0 0 0 0 0 0
0 0 0 0 0 0 0 0 0 0 0 0 0 0 0 0 0 0 0 0 0 0 0 0 0 0 0 0 0 0 0 0 0 0 0
0 0 0 0 0 40 199 40 40 202 40 41 203 41 40 202 40 40 200 40 40 198 40
39 195 39 38 191 38 38 188 38 42 189 42 47 191 47 38 178 38 34 170 34
33 165 33 32 160 32 31 155 31 30 149 30 29 143 29 27 137 27 26 131 26
25 125 25 24 118 24 22 111 22 21 104 21 19 97 19 18 89 18 16 81 16 14
72 14 13 64 13 11 54 11 9 44 9 7 34 7 5 26 5 5 26 5 5 26 5 5 26 5 5 26
5 0 0 0 0 0 0 0 0 0 0 0 0 0 0 0 0 0 0 122 24 24 129 26 26 133 27 27
135 27 27 137 27 27 138 28 28 138 28 28 138 28 28 138 28 28 138 28 28
138 28 28 137 27 27 136 27 27 135 27 27 134 27 27 133 27 27 131 26 26
130 26 26 128 26 26 127 25 25 125 25 25 123 25 25 121 24 24 119 24 24
117 23 23 115 23 23 113 23 23 110 22 22 108 22 22 106 21 21 103 21 21
100 20 20 98 20 20 95 19 19 92 18 18 89 18 18 86 17 17 83 17 17 80 16
16 77 15 15 74 15 15 70 14 14 67 13 13 63 13 13 60 12 12 56 11 11 52
10 10 48 10 10 44 9 9 39 8 8 35 7 7 30 6 6 26 5 5 26 5 5 26 5 5 26 5 5
26 5 5 26 5 5 26 5 5 26 5 5 26 5 5 26 5 5 26 5 5 26 5 5 0 0 0 0 0 0 0
0 0 0 0 0 0 0 0 0 0 0 5 5 26 34 34 172 37 37 184 38 38 191 39 39 196
40 40 199 40 40 202 41 41 203 41 41 204 41 41 204 41 41 203 40 40 202
40 40 201 40 40 199 39 39 197 39 39 194 38 38 191 38 38 188 37 37 184
36 36 180 35 35 176 34 34 172 33 33 167 32 32 162 31 31 156 30 30 150
29 29 144 27 27 137 26 26 130 24 24 122 23 23 113 21 21 104 19 19 94
16 16 82 14 14 69 11 11 53 6 6 32 0 0 0 0 0 0 0 0 0 0 0 0 0 0 0 0 0 0
0 0 0 0 0 0 0 0 0 0 0 0 0 0 0 0 0 0 0 0 0 0 0 0 0 0 0 0 0 0 0 0 0 0 0
0 0 0 0 0 0 0 0 0 0 0 0 0 0 0 0 0 0 0 0 0 0
0 0 0 0 0 0 0 0 0 0 0 0 0 0 0 0 0 0 0 0 0 0 0 0 0 0 0 0 0 0 0 0 0 0 0
0 0 0 0 0 0 0 0 0 0 0 0 0 0 0 0 0 0 0 0 0 0 0 0 0 0 0 0 0 0 0 0 0 0 0
0 0 38 191 38 40 199 40 40 201 40 40 201 40 40 200 40 40 198 40 39 195
39 38 192 38 38 189 38 46 194 46 132 255 132 139 255 139 48 186 48 34
168 34 33 163 33 31 157 31 30 152 30 29 146 29 28 141 28 27 135 27 26
128 26 24 122 24 23 115 23 22 108 22 20 101 20 19 94 19 17 86 17 16 78
16 14 70 14 12 61 12 10 52 10 8 42 8 6 32 6 5 26 5 5 26 5 5 26 5 5 26
5 5 26 5 0 0 0 0 0 0 0 0 0 0 0 0 0 0 0 0 0 0 113 23 23 122 24 24 127
25 25 130 26 26 132 26 26 133 27 27 134 27 27 134 27 27 134 27 27 134
27 27 134 27 27 133 27 27 132 26 26 131 26 26 130 26 26 129 26 26 128
26 26 126 25 25 125 25 25 123 25 25 121 24 24 120 24 24 118 24 24 116
23 23 114 23 23 112 22 22 109 22 22 107 21 21 105 21 21 102 20 20 100
20 20 97 19 19 95 19 19 92 18 18 89 18 18 86 17 17 83 17 17 80 16 16
77 15 15 74 15 15 71 14 14 67 13 13 64 13 13 60 12 12 56 11 11 53 11
11 49 10 10 45 9 9 40 8 8 36 7 7 31 6 6 27 5 5 26 5 5 26 5 5 26 5 5 26
5 5 26 5 5 26 5 5 26 5 5 26 5 5 26 5 5 26 5 5 26 5 5 26 5 5 0 0 0 0 0
0 0 0 0 0 0 0 0 0 0 0 0 0 31 31 156 35 35 175 37 37 185 38 38 191 39
39 196 40 40 199 40 40 201 40 40 202 41 41 203 41 41 203 40 40 202 40
40 201 41 41 200 45 45 203 43 43 200 39 39 193 38 38 190 37 37 187 37
37 183 36 36 179 35 35 175 34 34 171 33 33 166 32 32 161 31 31 155 30
30 149 29 29 143 27 27 136 26 26 129 24 24 121 23 23 113 21 21 104 19
19 94 17 17 83 14 14 71 11 11 56 8 8 38 5 5 26 0 0 0 0 0 0 0 0 0 0 0 0
0 0 0 0 0 0 0 0 0 0 0 0 0 0 0 0 0 0 0 0 0 0 0 0 0 0 0 0 0 0 0 0 0 0 0
0 0 0 0 0 0 0 0 0 0 0 0 0 0 0 0 0 0 0 0 0 0 0 0 0
0 0 0 0 0 0 0 0 0 0 0 0 0 0 0 0 0 0 0 0 0 0 0 0 0 0 0 0 0 0 0 0 0 0 0
0 0 0 0 0 0 0 0 0 0 0 0 0 0 0 0 0 0 0 0 0 0 0 0 0 0 0 0 0 0 0 0 0 0 0
0 0 39 194 39 40 198 40 40 199 40 40 199 40 39 197 39 39 195 39 39 193
39 38 189 38 38 187 38 75 221 75 242 255 242 155 255 155 43 178 43 33
165 33 32 160 32 31 154 31 30 149 30 29 143 29 28 138 28 26 132 26 25
125 25 24 119 24 22 112 22 21 106 21 20 98 20 18 91 18 17 83 17 15 75
15 13 67 13 12 58 12 10 49 10 8 40 8 6 30 6 5 26 5 5 26 5 5 26 5 5 26
5 5 26 5 0 0 0 0 0 0 0 0 0 0 0 0 0 0 0 0 0 0 0 0 0 115 23 23 121 24 24
125 25 25 127 25 25 129 26 26 130 26 26 130 26 26 130 26 26 130 26 26
130 26 26 129 26 26 129 26 26 128 26 26 127 25 25 126 25 25 124 25 25
123 25 25 121 24 24 120 24 24 118 24 24 116 23 23 114 23 23 112 22 22
110 22 22 108 22 22 106 21 21 104 21 21 101 20 20 99 20 20 97 19 19 94
19 19 91 18 18 89 18 18 86 17 17 83 17 17 80 16 16 77 15 15 74 15 15
70 14 14 67 13 13 64 13 13 60 12 12 57 11 11 53 11 11 49 10 10 45 9 9
41 8 8 37 7 7 32 6 6 28 6 6 26 5 5 26 5 5 26 5 5 26 5 5 26 5 5 26 5 5
26 5 5 26 5 5 26 5 5 26 5 5 26 5 5 26 5 5 0 0 0 0 0 0 0 0 0 0 0 0 0 0
0 0 0 0 0 0 0 32 32 161 35 35 176 37 37 185 38 38 191 39 39 195 40 40
198 40 40 200 40 40 201 40 40 201 40 40 201 40 40 201 40 40 200 60 60
219 143 143 255 105 105 255 44 44 197 38 38 188 37 37 185 36 36 182 36
36 178 35 35 174 34 34 169 33 33 164 32 32 159 31 31 154 30 30 148 28
28 142 27 27 135 26 26 128 24 24 121 23 23 113 21 21 104 19 19 94 17
17 83 14 14 72 12 12 58 8 8 41 5 5 26 0 0 0 0 0 0 0 0 0 0 0 0 0 0 0 0
0 0 0 0 0 0 0 0 0 0 0 0 0 0 0 0 0 0 0 0 0 0 0 0 0 0 0 0 0 0 0 0 0 0 0
0 0 0 0 0 0 0 0 0 0 0 0 0 0 0 0 0 0 0 0 0
0 0 0 0 0 0 0 0 0 0 0 0 0 0 0 0 0 0 0 0 0 0 0 0 0 0 0 0 0 0 0 0 0 0 0
0 0 0 0 0 0 0 0 0 0 0 0 0 0 0 0 0 0 0 0 0 0 0 0 0 0 0 0 0 0 0 0 0 0 0
0 0 39 193 39 39 196 39 39 197 39 39 196 39 39 195 39 38 192 38 38 190
38 37 186 37 37 184 37 58 201 58 99 239 99 55 192 55 34 167 34 32 161
32 31 156 31 30 151 30 29 146 29 28 140 28 27 134 27 26 128 26 24 122
24 23 116 23 22 109 22 20 102 20 19 95 19 18 88 18 16 80 16 14 72 14
13 64 13 11 55 11 9 46 9 7 37 7 5 27 5 5 26 5 5 26 5 5 26 5 5 26 5 5
26 5 0 0 0 0 0 0 0 0 0 0 0 0 0 0 0 0 0 0 0 0 0 105 21 21 114 23 23 119
24 24 122 24 24 124 25 25 125 25 25 126 25 25 126 25 25 126 25 25 126
25 25 125 25 25 125 25 25 124 25 25 123 25 25 122 24 24 121 24 24 119
24 24 118 24 24 116 23 23 114 23 23 113 23 23 111 22 22 109 22 22 107
21 21 105 21 21 103 21 21 100 20 20 98 20 20 96 19 19 93 19 19 91 18
18 88 18 18 85 17 17 82 16 16 79 16 16 76 15 15 73 15 15 70 14 14 67
13 13 64 13 13 60 12 12 57 11 11 53 11 11 49 10 10 45 9 9 41 8 8 37 7
7 33 7 7 28 6 6 26 5 5 26 5 5 26 5 5 26 5 5 26 5 5 26 5 5 26 5 5 26 5
5 26 5 5 26 5 5 26 5 5 26 5 5 26 5 5 0 0 0 0 0 0 0 0 0 0 0 0 0 0 0 0 0
0 0 0 0 33 33 163 35 35 176 37 37 184 38 38 190 39 39 194 39 39 196 40
40 198 40 40 199 40 40 200 40 40 199 40 40 199 41 41 199 92 92 249 253
253 255 154 154 255 47 47 198 37 37 187 37 37 183 36 36 180 35 35 176
34 34 172 33 33 167 33 33 163 32 32 158 30 30 152 29 29 147 28 28 140
27 27 134 25 25 127 24 24 119 22 22 111 21 21 103 19 19 93 17 17 83 14
14 71 12 12 58 9 9 43 5 5 26 0 0 0 0 0 0 0 0 0 0 0 0 0 0 0 0 0 0 0 0 0
0 0 0 0 0 0 0 0 0 0 0 0 0 0 0 0 0 0 0 0 0 0 0 0 0 0 0 0 0 0 0 0 0 0 0
0 0 0 0 0 0 0 0 0 0 0 0 0 0 0 0
0 0 0 0 0 0 0 0 0 0 0 0 0 0 0 0 0 0 0 0 0 0 0 0 0 0 0 0 0 0 0 0 0 0 0
0 0 0 0 0 0 0 0 0 0 0 0 0 0 0 0 0 0 0 0 0 0 0 0 0 0 0 0 0 0 0 0 0 0 36
182 36 38 192 38 39 194 39 39 194 39 39 193 39 38 191 38 38 189 38 37
186 37 37 183 37 36 180 36 37 177 37 37 175 37 34 168 34 33 163 33 32
158 32 31 153 31 30 148 30 28 142 28 27 137 27 26 131 26 25 125 25 24
119 24 22 112 22 21 106 21 20 99 20 18 92 18 17 84 17 15 77 15 14 69
14 12 61 12 10 52 10 9 43 9 7 34 7 5 26 5 5 26 5 5 26 5 5 26 5 5 26 5
5 26 5 5 26 5 0 0 0 0 0 0 0 0 0 0 0 0 0 0 0 0 0 0 0 0 0 106 21 21 112
22 22 116 23 23 118 24 24 120 24 24 121 24 24 121 24 24 122 24 24 122
24 24 121 24 24 121 24 24 120 24 24 119 24 24 118 24 24 117 23 23 115
23 23 114 23 23 112 22 22 111 22 22 109 22 22 107 21 21 105 21 21 103
21 21 101 20 20 99 20 20 97 19 19 94 19 19 92 18 18 90 18 18 87 17 17
84 17 17 82 16 16 79 16 16 76 15 15 73 15 15 70 14 14 67 13 13 63 13
13 60 12 12 57 11 11 53 11 11 49 10 10 46 9 9 42 8 8 38 8 8 33 7 7 29
6 6 26 5 5 26 5 5 26 5 5 26 5 5 26 5 5 26 5 5 26 5 5 26 5 5 26 5 5 26
5 5 26 5 5 26 5 5 26 5 5 0 0 0 0 0 0 0 0 0 0 0 0 0 0 0 0 0 0 0 0 0 5 5
26 33 33 163 35 35 175 37 37 183 38 38 188 38 38 192 39 39 194 39 39
196 39 39 197 39 39 197 39 39 197 39 39 196 40 40 196 54 54 209 91 91
244 63 63 215 39 39 189 37 37 184 36 36 181 36 36 178 35 35 174 34 34
170 33 33 165 32 32 161 31 31 156 30 30 150 29 29 145 28 28 138 26 26
132 25 25 125 24 24 118 22 22 110 20 20 101 18 18 92 16 16 82 14 14 71
12 12 58 9 9 43 5 5 26 5 5 26 0 0 0 0 0 0 0 0 0 0 0 0 0 0 0 0 0 0 0 0
0 0 0 0 0 0 0 0 0 0 0 0 0 0 0 0 0 0 0 0 0 0 0 0 0 0 0 0 0 0 0 0 0 0 0
0 0 0 0 0 0 0 0 0 0 0 0 0 0
0 0 0 0 0 0 0 0 0 0 0 0 0 0 0 0 0 0 0 0 0 0 0 0 0 0 0 0 0 0 0 0 0 0 0
0 0 0 0 0 0 0 0 0 0 0 0 0 0 0 0 0 0 0 0 0 0 0 0 0 0 0 0 0 0 0 0 0 0 36
182 36 38 189 38 38 191 38 38 191 38 38 190 38 38 188 38 37 186 37 37
183 37 36 179 36 35 176 35 34 172 34 34 168 34 33 164 33 32 159 32 31
154 31 30 149 30 29 144 29 28 139 28 27 133 27 25 127 25 24 121 24 23
115 23 22 109 22 20 102 20 19 95 19 18 88 18 16 81 16 15 73 15 13 65
13 11 57 11 10 49 10 8 40 8 6 30 6 5 26 5 5 26 5 5 26 5 5 26 5 5 26 5
5 26 5 5 26 5 0 0 0 0 0 0 0 0 0 0 0 0 0 0 0 0 0 0 0 0 0 94 19 19 105
21 21 110 22 22 113 23 23 115 23 23 116 23 23 117 23 23 117 23 23 117
23 23 117 23 23 116 23 23 116 23 23 115 23 23 114 23 23 113 23 23 111
22 22 110 22 22 109 22 22 107 21 21 105 21 21 103 21 21 102 20 20 100
20 20 97 19 19 95 19 19 93 19 19 91 18 18 88 18 18 86 17 17 83 17 17
81 16 16 78 16 16 75 15 15 72 14 14 69 14 14 66 13 13 63 13 13 60 12
12 56 11 11 53 11 11 49 10 10 45 9 9 42 8 8 38 8 8 34 7 7 29 6 6 26 5
5 26 5 5 26 5 5 26 5 5 26 5 5 26 5 5 26 5 5 26 5 5 26 5 5 26 5 5 26 5
5 26 5 5 26 5 5 26 5 5 0 0 0 0 0 0 0 0 0 0 0 0 0 0 0 0 0 0 0 0 0 28 28
139 32 32 162 35 35 173 36 36 180 37 37 186 38 38 189 38 38 192 39 39
193 39 39 194 39 39 195 39 39 194 39 39 194 39 39 193 39 39 192 39 39
191 38 38 188 37 37 184 36 36 182 36 36 178 35 35 175 34 34 171 33 33
167 33 33 163 32 32 158 31 31 153 30 30 148 28 28 142 27 27 136 26 26
130 25 25 123 23 23 116 22 22 108 20 20 99 18 18 90 16 16 80 14 14 69
11 11 57 8 8 42 5 5 26 5 5 26 0 0 0 0 0 0 0 0 0 0 0 0 0 0 0 0 0 0 0 0
0 0 0 0 0 0 0 0 0 0 0 0 0 0 0 0 0 0 0 0 0 0 0 0 0 0 0 0 0 0 0 0 0 0 0
0 0 0 0 0 0 0 0 0 0 0 0 0 0
0 0 0 0 0 0 0 0 0 0 0 0 0 0 0 0 0 0 0 0 0 0 0 0 0 0 0 0 0 0 0 0 0 0 0
0 0 0 0 0 0 0 0 0 0 0 0 0 0 0 0 0 0 0 0 0 0 0 0 0 0 0 0 0 0 0 0 0 0 36
180 36 37 186 37 38 188 38 37 187 37 37 186 37 37 184 37 36 182 36 36
179 36 35 176 35 34 172 34 34 168 34 33 164 33 32 160 32 31 155 31 30
150 30 29 145 29 28 140 28 27 135 27 26 129 26 25 123 25 23 117 23 22
111 22 21 105 21 20 98 20 18 91 18 17 84 17 15 77 15 14 69 14 12 62 12
11 53 11 9 45 9 7 36 7 5 26 5 5 26 5 5 26 5 5 26 5 5 26 5 5 26 5 5 26
5 5 26 5 0 0 0 0 0 0 0 0 0 0 0 0 0 0 0 0 0 0 0 0 0 0 0 0 94 19 19 102
20 20 106 21 21 109 22 22 110 22 22 111 22 22 112 22 22 112 22 22 112
22 22 112 22 22 111 22 22 111 22 22 110 22 22 109 22 22 107 21 21 106
21 21 105 21 21 103 21 21 101 20 20 100 20 20 98 20 20 96 19 19 94 19
19 91 18 18 89 18 18 87 17 17 85 17 17 82 16 16 79 16 16 77 15 15 74
15 15 71 14 14 68 14 14 65 13 13 62 12 12 59 12 12 56 11 11 52 10 10
49 10 10 45 9 9 41 8 8 38 8 8 34 7 7 29 6 6 26 5 5 26 5 5 26 5 5 26 5
5 26 5 5 26 5 5 26 5 5 26 5 5 26 5 5 26 5 5 26 5 5 26 5 5 26 5 5 26 5
5 0 0 0 0 0 0 0 0 0 0 0 0 0 0 0 0 0 0 0 0 0 0 0 0 28 28 138 32 32 159
34 34 170 36 36 178 37 37 183 37 37 186 38 38 189 38 38 190 38 38 191
38 38 191 38 38 191 38 38 191 38 38 189 38 38 188 37 37 186 37 37 184
36 36 181 36 36 179 35 35 175 34 34 172 34 34 168 33 33 164 32 32 160
31 31 155 30 30 150 29 29 145 28 28 139 27 27 133 25 25 127 24 24 120
23 23 113 21 21 105 19 19 97 18 18 88 16 16 78 13 13 67 11 11 55 8 8
41 5 5 26 5 5 26 0 0 0 0 0 0 0 0 0 0 0 0 0 0 0 0 0 0 0 0 0 0 0 0 0 0 0
0 0 0 0 0 0 0 0 0 0 0 0 0 0 0 0 0 0 0 0 0 0 0 0 0 0 0 0 0 0 0 0 0 0 0
0 0 0 0 0 0 0
0 0 0 0 0 0 0 0 0 0 0 0 0 0 0 0 0 0 0 0 0 0 0 0 0 0 0 0 0 0 0 0 0 0 0
0 0 0 0 0 0 0 0 0 0 0 0 0 0 0 0 0 0 0 0 0 0 0 0 0 0 0 0 0 0 0 0 0 0 35
177 35 36 182 36 37 184 37 37 183 37 36 182 36 36 180 36 36 178 36 35
175 35 34 172 34 34 168 34 33 164 33 32 160 32 31 156 31 30 151 30 29
146 29 28 141 28 27 136 27 26 131 26 25 125 25 24 119 24 23 113 23 21
107 21 20 101 20 19 94 19 17 87 17 16 80 16 15 73 15 13 65 13 11 57 11
10 49 10 8 41 8 6 32 6 5 26 5 5 26 5 5 26 5 5 26 5 5 26 5 5 26 5 5 26
5 5 26 5 0 0 0 0 0 0 0 0 0 0 0 0 0 0 0 0 0 0 0 0 0 0 0 0 0 0 0 93 19
19 99 20 20 102 20 20 104 21 21 106 21 21 107 21 21 107 21 21 107 21
21 107 21 21 107 21 21 106 21 21 105 21 21 104 21 21 103 21 21 102 20
20 100 20 20 99 20 20 97 19 19 95 19 19 94 19 19 92 18 18 90 18 18 88
18 18 85 17 17 83 17 17 81 16 16 78 16 16 76 15 15 73 15 15 70 14 14
67 13 13 64 13 13 61 12 12 58 12 12 55 11 11 52 10 10 48 10 10 45 9 9
41 8 8 37 7 7 33 7 7 29 6 6 26 5 5 26 5 5 26 5 5 26 5 5 26 5 5 26 5 5
26 5 5 26 5 5 26 5 5 26 5 5 26 5 5 26 5 5 26 5 5 26 5 5 0 0 0 0 0 0 0
0 0 0 0 0 0 0 0 0 0 0 0 0 0 0 0 0 0 0 0 27 27 134 31 31 156 33 33 167
35 35 174 36 36 179 37 37 183 37 37 185 37 37 187 38 38 188 38 38 188
38 38 188 37 37 187 37 37 186 37 37 185 37 37 183 36 36 181 36 36 178
35 35 175 34 34 172 34 34 169 33 33 165 32 32 161 31 31 157 30 30 152
29 29 147 28 28 142 27 27 136 26 26 130 25 25 124 23 23 117 22 22 110
20 20 102 19 19 94 17 17 85 15 15 75 13 13 65 10 10 52 8 8 38 5 5 26 5
5 26 0 0 0 0 0 0 0 0 0 0 0 0 0 0 0 0 0 0 0 0 0 0 0 0 0 0 0 0 0 0 0 0 0
0 0 0 0 0 0 0 0 0 0 0 0 0 0 0 0 0 0 0 0 0 0 0 0 0 0 0 0 0 0 0 0 0 0 0
0
0 0 0 0 0 0 0 0 0 0 0 0 0 0 0 0 0 0 0 0 0 0 0 0 0 0 0 0 0 0 0 0 0 0 0
0 0 0 0 0 0 0 0 0 0 0 0 0 0 0 0 0 0 0 0 0 0 0 0 0 0 0 0 0 0 0 0 0 0 35
173 35 36 178 36 36 179 36 36 179 36 36 178 36 35 176 35 35 174 35 34
171 34 33 167 33 33 164 33 32 160 32 31 156 31 30 151 30 29 147 29 28
142 28 27 137 27 26 132 26 25 126 25 24 121 24 23 115 23 22 109 22 21
103 21 19 96 19 18 90 18 17 83 17 15 76 15 14 69 14 12 61 12 11 53 11
9 45 9 7 36 7 5 27 5 5 26 5 5 26 5 5 26 5 5 26 5 5 26 5 5 26 5 5 26 5
5 26 5 0 0 0 0 0 0 0 0 0 0 0 0 0 0 0 0 0 0 0 0 0 0 0 0 0 0 0 77 15 15
90 18 18 95 19 19 98 20 20 100 20 20 101 20 20 102 20 20 102 20 20 102
20 20 102 20 20 101 20 20 101 20 20 100 20 20 99 20 20 97 19 19 96 19
19 95 19 19 93 19 19 91 18 18 89 18 18 87 17 17 85 17 17 83 17 17 81
16 16 79 16 16 76 15 15 74 15 15 71 14 14 69 14 14 66 13 13 63 13 13
60 12 12 57 11 11 54 11 11 51 10 10 47 9 9 44 9 9 40 8 8 37 7 7 33 7 7
29 6 6 26 5 5 26 5 5 26 5 5 26 5 5 26 5 5 26 5 5 26 5 5 26 5 5 26 5 5
26 5 5 26 5 5 26 5 5 26 5 5 26 5 5 26 5 5 0 0 0 0 0 0 0 0 0 0 0 0 0 0
0 0 0 0 0 0 0 0 0 0 0 0 0 26 26 128 30 30 151 32 32 162 34 34 170 35
35 175 36 36 178 36 36 181 37 37 183 37 37 184 37 37 184 37 37 184 37
37 183 36 36 182 36 36 181 36 36 179 35 35 177 35 35 174 34 34 172 34
34 169 33 33 165 32 32 161 31 31 157 31 31 153 30 30 149 29 29 144 28
28 138 27 27 133 25 25 127 24 24 121 23 23 114 21 21 107 20 20 99 18
18 91 16 16 82 14 14 72 12 12 61 10 10 49 7 7 35 5 5 26 5 5 26 0 0 0 0
0 0 0 0 0 0 0 0 0 0 0 0 0 0 0 0 0 0 0 0 0 0 0 0 0 0 0 0 0 0 0 0 0 0 0
0 0 0 0 0 0 0 0 0 0 0 0 0 0 0 0 0 0 0 0 0 0 0 0 0 0 0 0 0 0
0 0 0 0 0 0 0 0 0 0 0 0 0 0 0 0 0 0 0 0 0 0 0 0 0 0 0 0 0 0 0 0 0 0 0
0 0 0 0 0 0 0 0 0 0 0 0 0 0 0 0 0 0 0 0 0 0 0 0 0 0 0 0 0 0 0 0 0 0 34
168 34 35 173 35 35 175 35 35 175 35 35 173 35 34 171 34 34 169 34 33
166 33 33 163 33 32 159 32 31 155 31 30 151 30 29 147 29 28 142 28 28
138 28 27 133 27 25 127 25 24 122 24 23 116 23 22 111 22 21 105 21 20
98 20 18 92 18 17 85 17 16 79 16 14 71 14 13 64 13 11 56 11 10 49 10 8
40 8 6 32 6 5 26 5 5 26 5 5 26 5 5 26 5 5 26 5 5 26 5 5 26 5 5 26 5 5
26 5 0 0 0 0 0 0 0 0 0 0 0 0 0 0 0 0 0 0 0 0 0 0 0 0 0 0 0 0 0 0 76 15
15 86 17 17 90 18 18 93 19 19 95 19 19 96 19 19 97 19 19 97 19 19 97
19 19 96 19 19 96 19 19 95 19 19 94 19 19 93 19 19 91 18 18 90 18 18
88 18 18 87 17 17 85 17 17 83 17 17 81 16 16 79 16 16 77 15 15 75 15
15 72 14 14 70 14 14 67 13 13 64 13 13 62 12 12 59 12 12 56 11 11 53
11 11 50 10 10 46 9 9 43 9 9 40 8 8 36 7 7 32 6 6 28 6 6 26 5 5 26 5 5
26 5 5 26 5 5 26 5 5 26 5 5 26 5 5 26 5 5 26 5 5 26 5 5 26 5 5 26 5 5
26 5 5 26 5 5 26 5 5 0 0 0 0 0 0 0 0 0 0 0 0 0 0 0 0 0 0 0 0 0 0 0 0 0
0 0 0 0 0 24 24 119 29 29 145 31 31 157 33 33 165 34 34 170 35 35 174
35 35 176 36 36 178 36 36 179 36 36 180 36 36 180 36 36 179 36 36 178
35 35 177 35 35 175 35 35 173 34 34 170 34 34 168 33 33 165 32 32 161
32 32 158 31 31 154 30 30 149 29 29 145 28 28 140 27 27 135 26 26 129
25 25 123 23 23 117 22 22 110 21 21 103 19 19 95 17 17 87 16 16 78 14
14 68 12 12 58 9 9 46 6 6 32 5 5 26 5 5 26 0 0 0 0 0 0 0 0 0 0 0 0 0 0
0 0 0 0 0 0 0 0 0 0 0 0 0 0 0 0 0 0 0 0 0 0 0 0 0 0 0 0 0 0 0 0 0 0 0
0 0 0 0 0 0 0 0 0 0 0 0 0 0 0 0 0 0 0 0
0 0 0 0 0 0 0 0 0 0 0 0 0 0 0 0 0 0 0 0 0 0 0 0 0 0 0 0 0 0 0 0 0 0 0
0 0 0 0 0 0 0 0 0 0 0 0 0 0 0 0 0 0 0 0 0 0 0 0 0 0 0 0 0 0 0 0 0 0 32
162 32 34 168 34 34 170 34 34 170 34 34 168 34 33 167 33 33 164 33 32
161 32 32 158 32 31 155 31 30 151 30 29 147 29 28 142 28 28 138 28 27
133 27 26 128 26 25 123 25 23 117 23 22 112 22 21 106 21 20 100 20 19
94 19 17 87 17 16 81 16 15 74 15 13 67 13 12 59 12 10 52 10 9 44 9 7
35 7 5 27 5 5 26 5 5 26 5 5 26 5 5 26 5 5 26 5 5 26 5 5 26 5 5 26 5 0
0 0 0 0 0 0 0 0 0 0 0 0 0 0 0 0 0 0 0 0 0 0 0 0 0 0 0 0 0 0 0 0 0 0 0
73 15 15 81 16 16 85 17 17 88 18 18 89 18 18 90 18 18 91 18 18 91 18
18 91 18 18 90 18 18 90 18 18 89 18 18 88 18 18 87 17 17 85 17 17 84
17 17 82 16 16 80 16 16 79 16 16 77 15 15 75 15 15 72 14 14 70 14 14
68 14 14 65 13 13 63 13 13 60 12 12 57 11 11 54 11 11 51 10 10 48 10
10 45 9 9 42 8 8 38 8 8 35 7 7 31 6 6 27 5 5 26 5 5 26 5 5 26 5 5 26 5
5 26 5 5 26 5 5 26 5 5 26 5 5 26 5 5 26 5 5 26 5 5 26 5 5 26 5 5 26 5
5 26 5 5 0 0 0 0 0 0 0 0 0 0 0 0 0 0 0 0 0 0 0 0 0 0 0 0 0 0 0 0 0 0 0
0 0 0 0 0 28 28 138 30 30 151 32 32 159 33 33 165 34 34 169 34 34 171
35 35 173 35 35 175 35 35 175 35 35 175 35 35 175 35 35 174 34 34 172
34 34 170 34 34 168 33 33 166 33 33 163 32 32 160 31 31 157 31 31 153
30 30 149 29 29 145 28 28 141 27 27 136 26 26 131 25 25 125 24 24 119
23 23 113 21 21 106 20 20 99 18 18 91 17 17 83 15 15 74 13 13 64 11 11
53 8 8 41 5 5 27 5 5 26 5 5 26 0 0 0 0 0 0 0 0 0 0 0 0 0 0 0 0 0 0 0 0
0 0 0 0 0 0 0 0 0 0 0 0 0 0 0 0 0 0 0 0 0 0 0 0 0 0 0 0 0 0 0 0 0 0 0
0 0 0 0 0 0 0 0 0 0 0 0 0 0
0 0 0 0 0 0 0 0 0 0 0 0 0 0 0 0 0 0 0 0 0 0 0 0 0 0 0 0 0 0 0 0 0 0 0
0 0 0 0 0 0 0 0 0 0 0 0 0 0 0 0 0 0 0 0 0 0 0 0 0 0 0 0 0 0 0 0 0 0 31
155 31 32 162 32 33 164 33 33 164 33 33 163 33 32 161 32 32 159 32 31
156 31 31 153 31 30 150 30 29 146 29 28 142 28 27 137 27 27 133 27 26
128 26 25 123 25 24 118 24 22 112 22 21 107 21 20 101 20 19 95 19 18
89 18 16 82 16 15 76 15 14 69 14 12 62 12 11 54 11 9 47 9 8 39 8 6 30
6 5 26 5 5 26 5 5 26 5 5 26 5 5 26 5 5 26 5 5 26 5 5 26 5 5 26 5 0 0 0
0 0 0 0 0 0 0 0 0 0 0 0 0 0 0 0 0 0 0 0 0 0 0 0 0 0 0 0 0 0 0 0 0 0 0
0 68 14 14 76 15 15 80 16 16 82 16 16 84 17 17 85 17 17 85 17 17 85 17
17 85 17 17 84 17 17 84 17 17 83 17 17 81 16 16 80 16 16 79 16 16 77
15 15 76 15 15 74 15 15 72 14 14 70 14 14 68 14 14 65 13 13 63 13 13
61 12 12 58 12 12 55 11 11 53 11 11 50 10 10 47 9 9 44 9 9 40 8 8 37 7
7 34 7 7 30 6 6 26 5 5 26 5 5 26 5 5 26 5 5 26 5 5 26 5 5 26 5 5 26 5
5 26 5 5 26 5 5 26 5 5 26 5 5 26 5 5 26 5 5 26 5 5 26 5 5 0 0 0 0 0 0
0 0 0 0 0 0 0 0 0 0 0 0 0 0 0 0 0 0 0 0 0 0 0 0 0 0 0 0 0 0 0 0 0 26
26 129 29 29 144 30 30 152 32 32 159 33 33 163 33 33 166 34 34 168 34
34 169 34 34 170 34 34 170 34 34 170 34 34 169 33 33 167 33 33 166 33
33 164 32 32 161 32 32 159 31 31 156 30 30 152 30 30 149 29 29 145 28
28 141 27 27 136 26 26 131 25 25 126 24 24 120 23 23 115 22 22 108 20
20 102 19 19 94 17 17 87 16 16 78 14 14 69 12 12 59 10 10 49 7 7 36 5
5 26 5 5 26 5 5 26 0 0 0 0 0 0 0 0 0 0 0 0 0 0 0 0 0 0 0 0 0 0 0 0 0 0
0 0 0 0 0 0 0 0 0 0 0 0 0 0 0 0 0 0 0 0 0 0 0 0 0 0 0 0 0 0 0 0 0 0 0
0 0 0 0 0 0 0 0
0 0 0 0 0 0 0 0 0 0 0 0 0 0 0 0 0 0 0 0 0 0 0 0 0 0 0 0 0 0 0 0 0 0 0
0 0 0 0 0 0 0 0 0 0 0 0 0 0 0 0 0 0 0 0 0 0 0 0 0 0 0 0 0 0 0 0 0 0 29
146 29 31 156 31 32 158 32 32 159 32 32 158 32 31 156 31 31 154 31 30
151 30 30 148 30 29 144 29 28 141 28 27 136 27 26 132 26 26 128 26 25
123 25 24 118 24 23 113 23 21 107 21 20 102 20 19 96 19 18 90 18 17 84
17 15 77 15 14 71 14 13 64 13 11 57 11 10 49 10 8 41 8 7 33 7 5 26 5 5
26 5 5 26 5 5 26 5 5 26 5 5 26 5 5 26 5 5 26 5 5 26 5 5 26 5 0 0 0 0 0
0 0 0 0 0 0 0 0 0 0 0 0 0 0 0 0 0 0 0 0 0 0 0 0 0 0 0 0 0 0 0 0 0 0 0
0 0 62 12 12 70 14 14 74 15 15 76 15 15 78 16 16 78 16 16 79 16 16 79
16 16 78 16 16 78 16 16 77 15 15 76 15 15 75 15 15 73 15 15 72 14 14
70 14 14 69 14 14 67 13 13 65 13 13 63 13 13 60 12 12 58 12 12 56 11
11 53 11 11 50 10 10 48 10 10 45 9 9 42 8 8 39 8 8 35 7 7 32 6 6 28 6
6 26 5 5 26 5 5 26 5 5 26 5 5 26 5 5 26 5 5 26 5 5 26 5 5 26 5 5 26 5
5 26 5 5 26 5 5 26 5 5 26 5 5 26 5 5 26 5 5 0 0 0 0 0 0 0 0 0 0 0 0 0
0 0 0 0 0 0 0 0 0 0 0 0 0 0 0 0 0 0 0 0 0 0 0 0 0 0 0 0 0 24 24 118 27
27 135 29 29 145 30 30 152 31 31 156 32 32 160 32 32 162 33 33 164 33
33 164 33 33 164 33 33 164 33 33 163 32 32 162 32 32 161 32 32 159 31
31 156 31 31 154 30 30 151 29 29 147 29 29 144 28 28 140 27 27 136 26
26 131 25 25 126 24 24 121 23 23 116 22 22 110 21 21 103 19 19 97 18
18 89 16 16 82 15 15 73 13 13 64 11 11 54 9 9 43 6 6 30 5 5 26 5 5 26
5 5 26 0 0 0 0 0 0 0 0 0 0 0 0 0 0 0 0 0 0 0 0 0 0 0 0 0 0 0 0 0 0 0 0
0 0 0 0 0 0 0 0 0 0 0 0 0 0 0 0 0 0 0 0 0 0 0 0 0 0 0 0 0 0 0 0 0 0 0
0 0
0 0 0 0 0 0 0 0 0 0 0 0 0 0 0 0 0 0 0 0 0 0 0 0 0 0 0 0 0 0 0 0 0 0 0
0 0 0 0 0 0 0 0 0 0 0 0 0 0 0 0 0 0 0 0 0 0 0 0 0 0 0 0 0 0 0 0 0 0 0
0 0 30 148 30 30 152 30 30 152 30 30 152 30 30 150 30 30 148 30 29 145
29 28 142 28 28 139 28 27 135 27 26 131 26 25 127 25 24 122 24 24 118
24 23 113 23 21 107 21 20 102 20 19 96 19 18 91 18 17 85 17 16 78 16
14 72 14 13 65 13 12 58 12 10 51 10 9 44 9 7 36 7 6 28 6 5 26 5 5 26 5
5 26 5 5 26 5 5 26 5 5 26 5 5 26 5 5 26 5 5 26 5 5 26 5 0 0 0 0 0 0 0
0 0 0 0 0 0 0 0 0 0 0 0 0 0 0 0 0 0 0 0 0 0 0 0 0 0 0 0 0 0 0 0 0 0 0
0 0 0 55 11 11 63 13 13 67 13 13 70 14 14 71 14 14 72 14 14 72 14 14
72 14 14 72 14 14 71 14 14 70 14 14 69 14 14 68 14 14 66 13 13 65 13
13 63 13 13 61 12 12 59 12 12 57 11 11 55 11 11 53 11 11 50 10 10 48
10 10 45 9 9 42 8 8 39 8 8 36 7 7 33 7 7 30 6 6 26 5 5 26 5 5 26 5 5
26 5 5 26 5 5 26 5 5 26 5 5 26 5 5 26 5 5 26 5 5 26 5 5 26 5 5 26 5 5
26 5 5 26 5 5 26 5 5 26 5 5 0 0 0 0 0 0 0 0 0 0 0 0 0 0 0 0 0 0 0 0 0
0 0 0 0 0 0 0 0 0 0 0 0 0 0 0 0 0 0 0 0 0 0 0 0 20 20 100 25 25 125 27
27 137 29 29 144 30 30 149 31 31 153 31 31 156 31 31 157 32 32 158 32
32 159 32 32 158 32 32 158 31 31 156 31 31 155 31 31 153 30 30 151 30
30 148 29 29 145 28 28 142 28 28 138 27 27 135 26 26 130 25 25 126 24
24 121 23 23 116 22 22 110 21 21 104 20 20 98 18 18 91 17 17 84 15 15
76 14 14 68 12 12 58 10 10 48 7 7 37 5 5 26 5 5 26 5 5 26 0 0 0 0 0 0
0 0 0 0 0 0 0 0 0 0 0 0 0 0 0 0 0 0 0 0 0 0 0 0 0 0 0 0 0 0 0 0 0 0 0
0 0 0 0 0 0 0 0 0 0 0 0 0 0 0 0 0 0 0 0 0 0 0 0 0 0 0 0 0 0 0
0 0 0 0 0 0 0 0 0 0 0 0 0 0 0 0 0 0 0 0 0 0 0 0 0 0 0 0 0 0 0 0 0 0 0
0 0 0 0 0 0 0 0 0 0 0 0 0 0 0 0 0 0 0 0 0 0 0 0 0 0 0 0 0 0 0 0 0 0 0
0 0 28 139 28 29 144 29 29 146 29 29 145 29 29 144 29 28 142 28 28 139
28 27 136 27 27 133 27 26 129 26 25 125 25 24 121 24 23 117 23 22 112
22 21 107 21 20 102 20 19 96 19 18 91 18 17 85 17 16 79 16 15 73 15 13
66 13 12 60 12 11 53 11 9 45 9 8 38 8 6 30 6 5 26 5 5 26 5 5 26 5 5 26
5 5 26 5 5 26 5 5 26 5 5 26 5 5 26 5 5 26 5 0 0 0 0 0 0 0 0 0 0 0 0 0
0 0 0 0 0 0 0 0 0 0 0 0 0 0 0 0 0 0 0 0 0 0 0 0 0 0 0 0 0 0 0 0 0 0 0
0 0 0 45 9 9 55 11 11 60 12 12 62 12 12 64 13 13 65 13 13 65 13 13 65
13 13 65 13 13 64 13 13 63 13 13 62 12 12 61 12 12 59 12 12 57 11 11
56 11 11 54 11 11 52 10 10 50 10 10 47 9 9 45 9 9 42 8 8 40 8 8 37 7 7
34 7 7 31 6 6 28 6 6 26 5 5 26 5 5 26 5 5 26 5 5 26 5 5 26 5 5 26 5 5
26 5 5 26 5 5 26 5 5 26 5 5 26 5 5 26 5 5 26 5 5 26 5 5 26 5 5 26 5 5
0 0 0 0 0 0 0 0 0 0 0 0 0 0 0 0 0 0 0 0 0 0 0 0 0 0 0 0 0 0 0 0 0 0 0
0 0 0 0 0 0 0 0 0 0 0 0 0 0 0 0 23 23 113 25 25 127 27 27 136 28 28
141 29 29 146 30 30 149 30 30 150 30 30 152 30 30 152 30 30 152 30 30
151 30 30 150 30 30 149 29 29 147 29 29 145 28 28 142 28 28 139 27 27
136 27 27 133 26 26 129 25 25 125 24 24 120 23 23 115 22 22 110 21 21
105 20 20 99 18 18 92 17 17 85 16 16 78 14 14 70 12 12 61 10 10 52 8 8
42 6 6 30 5 5 26 5 5 26 5 5 26 0 0 0 0 0 0 0 0 0 0 0 0 0 0 0 0 0 0 0 0
0 0 0 0 0 0 0 0 0 0 0 0 0 0 0 0 0 0 0 0 0 0 0 0 0 0 0 0 0 0 0 0 0 0 0
0 0 0 0 0 0 0 0 0 0 0 0 0 0 0 0 0
0 0 0 0 0 0 0 0 0 0 0 0 0 0 0 0 0 0 0 0 0 0 0 0 0 0 0 0 0 0 0 0 0 0 0
0 0 0 0 0 0 0 0 0 0 0 0 0 0 0 0 0 0 0 0 0 0 0 0 0 0 0 0 0 0 0 0 0 0 0
0 0 25 127 25 27 136 27 28 138 28 28 138 28 27 137 27 27 136 27 27 133
27 26 130 26 25 127 25 25 123 25 24 119 24 23 115 23 22 111 22 21 106
21 20 101 20 19 96 19 18 91 18 17 85 17 16 79 16 15 73 15 13 67 13 12
60 12 11 54 11 9 47 9 8 39 8 6 32 6 5 26 5 5 26 5 5 26 5 5 26 5 5 26 5
5 26 5 5 26 5 5 26 5 5 26 5 5 26 5 5 26 5 0 0 0 0 0 0 0 0 0 0 0 0 0 0
0 0 0 0 0 0 0 0 0 0 0 0 0 0 0 0 0 0 0 0 0 0 0 0 0 0 0 0 0 0 0 0 0 0 0
0 0 0 0 0 0 0 0 46 9 9 52 10 10 54 11 11 56 11 11 57 11 11 57 11 11 57
11 11 57 11 11 56 11 11 55 11 11 54 11 11 53 11 11 51 10 10 50 10 10
48 10 10 46 9 9 44 9 9 41 8 8 39 8 8 36 7 7 34 7 7 31 6 6 28 6 6 26 5
5 26 5 5 26 5 5 26 5 5 26 5 5 26 5 5 26 5 5 26 5 5 26 5 5 26 5 5 26 5
5 26 5 5 26 5 5 26 5 5 26 5 5 26 5 5 26 5 5 0 0 0 0 0 0 0 0 0 0 0 0 0
0 0 0 0 0 0 0 0 0 0 0 0 0 0 0 0 0 0 0 0 0 0 0 0 0 0 0 0 0 0 0 0 0 0 0
0 0 0 0 0 0 0 0 0 19 19 95 23 23 115 25 25 126 27 27 133 27 27 137 28
28 141 29 29 143 29 29 144 29 29 145 29 29 145 29 29 145 29 29 144 28
28 142 28 28 141 28 28 139 27 27 136 27 27 133 26 26 130 25 25 127 25
25 123 24 24 119 23 23 114 22 22 109 21 21 104 20 20 98 18 18 92 17 17
86 16 16 79 14 14 72 13 13 63 11 11 55 9 9 45 7 7 34 5 5 26 5 5 26 5 5
26 5 5 26 0 0 0 0 0 0 0 0 0 0 0 0 0 0 0 0 0 0 0 0 0 0 0 0 0 0 0 0 0 0
0 0 0 0 0 0 0 0 0 0 0 0 0 0 0 0 0 0 0 0 0 0 0 0 0 0 0 0 0 0 0 0 0 0 0
0 0 0 0 0 0 0
0 0 0 0 0 0 0 0 0 0 0 0 0 0 0 0 0 0 0 0 0 0 0 0 0 0 0 0 0 0 0 0 0 0 0
0 0 0 0 0 0 0 0 0 0 0 0 0 0 0 0 0 0 0 0 0 0 0 0 0 0 0 0 0 0 0 0 0 0 0
0 0 0 0 0 25 126 25 26 130 26 26 131 26 26 130 26 26 129 26 25 126 25
25 124 25 24 121 24 23 117 23 23 113 23 22 109 22 21 105 21 20 100 20
19 95 19 18 90 18 17 84 17 16 79 16 15 73 15 13 67 13 12 61 12 11 54
11 9 47 9 8 40 8 7 33 7 5 26 5 5 26 5 5 26 5 5 26 5 5 26 5 5 26 5 5 26
5 5 26 5 5 26 5 5 26 5 5 26 5 0 0 0 0 0 0 0 0 0 0 0 0 0 0 0 0 0 0 0 0
0 0 0 0 0 0 0 0 0 0 0 0 0 0 0 0 0 0 0 0 0 0 0 0 0 0 0 0 0 0 0 0 0 0 0
0 0 0 0 0 0 0 0 34 7 7 42 8 8 46 9 9 48 10 10 49 10 10 49 10 10 49 10
10 49 10 10 48 10 10 47 9 9 46 9 9 44 9 9 43 9 9 41 8 8 39 8 8 37 7 7
35 7 7 32 6 6 30 6 6 27 5 5 26 5 5 26 5 5 26 5 5 26 5 5 26 5 5 26 5 5
26 5 5 26 5 5 26 5 5 26 5 5 26 5 5 26 5 5 26 5 5 26 5 5 26 5 5 26 5 5
26 5 5 26 5 5 0 0 0 0 0 0 0 0 0 0 0 0 0 0 0 0 0 0 0 0 0 0 0 0 0 0 0 0
0 0 0 0 0 0 0 0 0 0 0 0 0 0 0 0 0 0 0 0 0 0 0 0 0 0 0 0 0 0 0 0 0 0 0
20 20 100 23 23 114 25 25 123 26 26 128 26 26 132 27 27 135 27 27 137
27 27 137 28 28 138 27 27 137 27 27 137 27 27 135 27 27 134 26 26 132
26 26 129 25 25 127 25 25 123 24 24 120 23 23 116 22 22 112 21 21 107
21 21 103 19 19 97 18 18 92 17 17 86 16 16 79 14 14 72 13 13 65 11 11
56 9 9 47 7 7 37 5 5 26 5 5 26 5 5 26 5 5 26 0 0 0 0 0 0 0 0 0 0 0 0 0
0 0 0 0 0 0 0 0 0 0 0 0 0 0 0 0 0 0 0 0 0 0 0 0 0 0 0 0 0 0 0 0 0 0 0
0 0 0 0 0 0 0 0 0 0 0 0 0 0 0 0 0 0 0 0 0 0 0 0 0 0 0
0 0 0 0 0 0 0 0 0 0 0 0 0 0 0 0 0 0 0 0 0 0 0 0 0 0 0 0 0 0 0 0 0 0 0
0 0 0 0 0 0 0 0 0 0 0 0 0 0 0 0 0 0 0 0 0 0 0 0 0 0 0 0 0 0 0 0 0 0 0
0 0 0 0 0 22 112 22 24 120 24 24 122 24 24 122 24 24 121 24 24 119 24
23 117 23 23 114 23 22 110 22 21 107 21 20 102 20 20 98 20 19 93 19 18
89 18 17 83 17 16 78 16 14 72 14 13 67 13 12 60 12 11 54 11 10 48 10 8
41 8 7 34 7 5 26 5 5 26 5 5 26 5 5 26 5 5 26 5 5 26 5 5 26 5 5 26 5 5
26 5 5 26 5 5 26 5 5 26 5 0 0 0 0 0 0 0 0 0 0 0 0 0 0 0 0 0 0 0 0 0 0
0 0 0 0 0 0 0 0 0 0 0 0 0 0 0 0 0 0 0 0 0 0 0 0 0 0 0 0 0 0 0 0 0 0 0
0 0 0 0 0 0 0 0 0 0 0 0 30 6 6 35 7 7 38 8 8 39 8 8 40 8 8 40 8 8 40 8
8 39 8 8 38 8 8 37 7 7 35 7 7 34 7 7 32 6 6 30 6 6 28 6 6 26 5 5 26 5
5 26 5 5 26 5 5 26 5 5 26 5 5 26 5 5 26 5 5 26 5 5 26 5 5 26 5 5 26 5
5 26 5 5 26 5 5 26 5 5 26 5 5 26 5 5 26 5 5 26 5 5 0 0 0 0 0 0 0 0 0 0
0 0 0 0 0 0 0 0 0 0 0 0 0 0 0 0 0 0 0 0 0 0 0 0 0 0 0 0 0 0 0 0 0 0 0
0 0 0 0 0 0 0 0 0 0 0 0 0 0 0 0 0 0 0 0 0 0 0 0 15 15 76 20 20 100 22
22 111 24 24 118 24 24 122 25 25 126 26 26 128 26 26 129 26 26 130 26
26 130 26 26 129 26 26 128 25 25 126 25 25 124 24 24 122 24 24 119 23
23 116 23 23 113 22 22 109 21 21 105 20 20 100 19 19 95 18 18 90 17 17
85 16 16 78 14 14 72 13 13 65 11 11 57 10 10 48 8 8 39 6 6 29 5 5 26 5
5 26 5 5 26 5 5 26 0 0 0 0 0 0 0 0 0 0 0 0 0 0 0 0 0 0 0 0 0 0 0 0 0 0
0 0 0 0 0 0 0 0 0 0 0 0 0 0 0 0 0 0 0 0 0 0 0 0 0 0 0 0 0 0 0 0 0 0 0
0 0 0 0 0 0 0 0 0 0 0 0 0 0
0 0 0 0 0 0 0 0 0 0 0 0 0 0 0 0 0 0 0 0 0 0 0 0 0 0 0 0 0 0 0 0 0 0 0
0 0 0 0 0 0 0 0 0 0 0 0 0 0 0 0 0 0 0 0 0 0 0 0 0 0 0 0 0 0 0 0 0 0 0
0 0 0 0 0 0 0 0 22 108 22 23 113 23 23 114 23 23 113 23 22 112 22 22
109 22 21 106 21 21 103 21 20 99 20 19 95 19 18 91 18 17 87 17 16 82
16 15 77 15 14 71 14 13 66 13 12 60 12 11 54 11 9 47 9 8 41 8 7 34 7 5
26 5 5 26 5 5 26 5 5 26 5 5 26 5 5 26 5 5 26 5 5 26 5 5 26 5 5 26 5 5
26 5 5 26 5 0 0 0 0 0 0 0 0 0 0 0 0 0 0 0 0 0 0 0 0 0 0 0 0 0 0 0 0 0
0 0 0 0 0 0 0 0 0 0 0 0 0 0 0 0 0 0 0 0 0 0 0 0 0 0 0 0 0 0 0 0 0 0 0
0 0 0 0 0 0 0 0 0 0 0 0 0 0 26 5 5 26 5 5 29 6 6 30 6 6 30 6 6 30 6 6
29 6 6 28 6 6 27 5 5 26 5 5 26 5 5 26 5 5 26 5 5 26 5 5 26 5 5 26 5 5
26 5 5 26 5 5 26 5 5 26 5 5 26 5 5 26 5 5 26 5 5 26 5 5 26 5 5 26 5 5
26 5 5 26 5 5 26 5 5 26 5 5 0 0 0 0 0 0 0 0 0 0 0 0 0 0 0 0 0 0 0 0 0
0 0 0 0 0 0 0 0 0 0 0 0 0 0 0 0 0 0 0 0 0 0 0 0 0 0 0 0 0 0 0 0 0 0 0
0 0 0 0 0 0 0 0 0 0 0 0 0 0 0 0 0 0 0 0 0 0 16 16 80 19 19 97 21 21
106 22 22 112 23 23 116 24 24 118 24 24 120 24 24 121 24 24 121 24 24
121 24 24 120 24 24 118 23 23 117 23 23 114 22 22 112 22 22 109 21 21
105 20 20 101 19 19 97 19 19 93 18 18 88 16 16 82 15 15 77 14 14 70 13
13 64 11 11 56 10 10 48 8 8 39 6 6 30 5 5 26 5 5 26 5 5 26 5 5 26 0 0
0 0 0 0 0 0 0 0 0 0 0 0 0 0 0 0 0 0 0 0 0 0 0 0 0 0 0 0 0 0 0 0 0 0 0
0 0 0 0 0 0 0 0 0 0 0 0 0 0 0 0 0 0 0 0 0 0 0 0 0 0 0 0 0 0 0 0 0 0 0
0 0 0 0 0 0
0 0 0 0 0 0 0 0 0 0 0 0 0 0 0 0 0 0 0 0 0 0 0 0 0 0 0 0 0 0 0 0 0 0 0
0 0 0 0 0 0 0 0 0 0 0 0 0 0 0 0 0 0 0 0 0 0 0 0 0 0 0 0 0 0 0 0 0 0 0
0 0 0 0 0 0 0 0 0 0 0 20 101 20 21 104 21 21 104 21 21 103 21 20 101
20 20 99 20 19 95 19 18 92 18 18 88 18 17 84 17 16 79 16 15 74 15 14
69 14 13 64 13 12 58 12 10 52 10 9 46 9 8 40 8 7 33 7 5 26 5 5 26 5 5
26 5 5 26 5 5 26 5 5 26 5 5 26 5 5 26 5 5 26 5 5 26 5 5 26 5 5 26 5 0
0 0 0 0 0 0 0 0 0 0 0 0 0 0 0 0 0 0 0 0 0 0 0 0 0 0 0 0 0 0 0 0 0 0 0
0 0 0 0 0 0 0 0 0 0 0 0 0 0 0 0 0 0 0 0 0 0 0 0 0 0 0 0 0 0 0 0 0 0 0
0 0 0 0 0 0 0 0 0 0 0 0 0 0 0 0 26 5 5 26 5 5 26 5 5 26 5 5 26 5 5 26
5 5 26 5 5 26 5 5 26 5 5 26 5 5 26 5 5 26 5 5 26 5 5 26 5 5 26 5 5 26
5 5 26 5 5 26 5 5 26 5 5 26 5 5 26 5 5 26 5 5 26 5 5 26 5 5 26 5 5 26
5 5 0 0 0 0 0 0 0 0 0 0 0 0 0 0 0 0 0 0 0 0 0 0 0 0 0 0 0 0 0 0 0 0 0
0 0 0 0 0 0 0 0 0 0 0 0 0 0 0 0 0 0 0 0 0 0 0 0 0 0 0 0 0 0 0 0 0 0 0
0 0 0 0 0 0 0 0 0 0 0 0 0 0 0 0 0 0 0 15 15 77 18 18 91 20 20 99 21 21
104 22 22 108 22 22 110 22 22 111 22 22 112 22 22 112 22 22 111 22 22
110 22 22 108 21 21 106 21 21 103 20 20 100 19 19 97 19 19 93 18 18 89
17 17 84 16 16 79 15 15 74 14 14 68 12 12 62 11 11 55 9 9 47 8 8 39 6
6 30 5 5 26 5 5 26 5 5 26 5 5 26 0 0 0 0 0 0 0 0 0 0 0 0 0 0 0 0 0 0 0
0 0 0 0 0 0 0 0 0 0 0 0 0 0 0 0 0 0 0 0 0 0 0 0 0 0 0 0 0 0 0 0 0 0 0
0 0 0 0 0 0 0 0 0 0 0 0 0 0 0 0 0 0 0 0 0 0 0 0 0 0 0
0 0 0 0 0 0 0 0 0 0 0 0 0 0 0 0 0 0 0 0 0 0 0 0 0 0 0 0 0 0 0 0 0 0 0
0 0 0 0 0 0 0 0 0 0 0 0 0 0 0 0 0 0 0 0 0 0 0 0 0 0 0 0 0 0 0 0 0 0 0
0 0 0 0 0 0 0 0 0 0 0 16 81 16 18 92 18 19 94 19 19 93 19 18 92 18 18
90 18 17 87 17 17 84 17 16 80 16 15 76 15 14 71 14 13 67 13 12 62 12
11 56 11 10 51 10 9 45 9 8 39 8 6 32 6 5 26 5 5 26 5 5 26 5 5 26 5 5
26 5 5 26 5 5 26 5 5 26 5 5 26 5 5 26 5 5 26 5 5 26 5 0 0 0 0 0 0 0 0
0 0 0 0 0 0 0 0 0 0 0 0 0 0 0 0 0 0 0 0 0 0 0 0 0 0 0 0 0 0 0 0 0 0 0
0 0 0 0 0 0 0 0 0 0 0 0 0 0 0 0 0 0 0 0 0 0 0 0 0 0 0 0 0 0 0 0 0 0 0
0 0 0 0 0 0 0 0 0 0 0 0 0 0 0 0 0 0 0 0 0 26 5 5 26 5 5 26 5 5 26 5 5
26 5 5 26 5 5 26 5 5 26 5 5 26 5 5 26 5 5 26 5 5 26 5 5 26 5 5 26 5 5
26 5 5 26 5 5 26 5 5 26 5 5 26 5 5 26 5 5 0 0 0 0 0 0 0 0 0 0 0 0 0 0
0 0 0 0 0 0 0 0 0 0 0 0 0 0 0 0 0 0 0 0 0 0 0 0 0 0 0 0 0 0 0 0 0 0 0
0 0 0 0 0 0 0 0 0 0 0 0 0 0 0 0 0 0 0 0 0 0 0 0 0 0 0 0 0 0 0 0 0 0 0
0 0 0 0 0 0 0 0 0 0 0 0 0 0 0 14 14 71 17 17 83 18 18 90 19 19 95 20
20 98 20 20 100 20 20 101 20 20 101 20 20 101 20 20 100 20 20 99 19 19
97 19 19 94 18 18 91 18 18 88 17 17 84 16 16 80 15 15 75 14 14 70 13
13 65 12 12 59 10 10 52 9 9 45 7 7 37 6 6 28 5 5 26 5 5 26 5 5 26 5 5
26 5 5 26 0 0 0 0 0 0 0 0 0 0 0 0 0 0 0 0 0 0 0 0 0 0 0 0 0 0 0 0 0 0
0 0 0 0 0 0 0 0 0 0 0 0 0 0 0 0 0 0 0 0 0 0 0 0 0 0 0 0 0 0 0 0 0 0 0
0 0 0 0 0 0 0 0 0 0 0 0 0 0 0 0
0 0 0 0 0 0 0 0 0 0 0 0 0 0 0 0 0 0 0 0 0 0 0 0 0 0 0 0 0 0 0 0 0 0 0
0 0 0 0 0 0 0 0 0 0 0 0 0 0 0 0 0 0 0 0 0 0 0 0 0 0 0 0 0 0 0 0 0 0 0
0 0 0 0 0 0 0 0 0 0 0 0 0 0 14 72 14 16 81 16 16 82 16 16 82 16 16 80
16 16 78 16 15 75 15 14 71 14 13 67 13 13 63 13 12 58 12 11 53 11 10
48 10 8 42 8 7 36 7 6 30 6 5 26 5 5 26 5 5 26 5 5 26 5 5 26 5 5 26 5 5
26 5 5 26 5 5 26 5 5 26 5 5 26 5 5 26 5 0 0 0 0 0 0 0 0 0 0 0 0 0 0 0
0 0 0 0 0 0 0 0 0 0 0 0 0 0 0 0 0 0 0 0 0 0 0 0 0 0 0 0 0 0 0 0 0 0 0
0 0 0 0 0 0 0 0 0 0 0 0 0 0 0 0 0 0 0 0 0 0 0 0 0 0 0 0 0 0 0 0 0 0 0
0 0 0 0 0 0 0 0 0 0 0 0 0 0 0 0 0 0 0 0 0 0 0 0 0 0 0 0 0 26 5 5 26 5
5 26 5 5 26 5 5 26 5 5 26 5 5 26 5 5 26 5 5 26 5 5 26 5 5 26 5 5 26 5
5 0 0 0 0 0 0 0 0 0 0 0 0 0 0 0 0 0 0 0 0 0 0 0 0 0 0 0 0 0 0 0 0 0 0
0 0 0 0 0 0 0 0 0 0 0 0 0 0 0 0 0 0 0 0 0 0 0 0 0 0 0 0 0 0 0 0 0 0 0
0 0 0 0 0 0 0 0 0 0 0 0 0 0 0 0 0 0 0 0 0 0 0 0 0 0 0 0 0 0 0 0 0 0 0
0 0 0 0 0 0 0 0 0 0 12 12 61 15 15 74 16 16 81 17 17 85 18 18 88 18 18
89 18 18 90 18 18 90 18 18 89 18 18 88 17 17 86 17 17 84 16 16 81 16
16 78 15 15 74 14 14 70 13 13 65 12 12 60 11 11 55 10 10 48 8 8 41 7 7
34 5 5 26 5 5 26 5 5 26 5 5 26 5 5 26 5 5 26 0 0 0 0 0 0 0 0 0 0 0 0 0
0 0 0 0 0 0 0 0 0 0 0 0 0 0 0 0 0 0 0 0 0 0 0 0 0 0 0 0 0 0 0 0 0 0 0
0 0 0 0 0 0 0 0 0 0 0 0 0 0 0 0 0 0 0 0 0 0 0 0 0 0 0 0 0 0 0 0 0 0 0
0
0 0 0 0 0 0 0 0 0 0 0 0 0 0 0 0 0 0 0 0 0 0 0 0 0 0 0 0 0 0 0 0 0 0 0
0 0 0 0 0 0 0 0 0 0 0 0 0 0 0 0 0 0 0 0 0 0 0 0 0 0 0 0 0 0 0 0 0 0 0
0 0 0 0 0 0 0 0 0 0 0 0 0 0 0 0 0 11 55 11 14 68 14 14 70 14 14 69 14
14 68 14 13 65 13 12 62 12 12 58 12 11 54 11 10 49 10 9 44 9 8 39 8 7
33 7 5 27 5 5 26 5 5 26 5 5 26 5 5 26 5 5 26 5 5 26 5 5 26 5 5 26 5 5
26 5 5 26 5 5 26 5 5 26 5 0 0 0 0 0 0 0 0 0 0 0 0 0 0 0 0 0 0 0 0 0 0
0 0 0 0 0 0 0 0 0 0 0 0 0 0 0 0 0 0 0 0 0 0 0 0 0 0 0 0 0 0 0 0 0 0 0
0 0 0 0 0 0 0 0 0 0 0 0 0 0 0 0 0 0 0 0 0 0 0 0 0 0 0 0 0 0 0 0 0 0 0
0 0 0 0 0 0 0 0 0 0 0 0 0 0 0 0 0 0 0 0 0 0 0 0 0 0 0 0 0 0 0 0 0 0 0
0 0 0 0 0 0 0 0 0 0 0 0 0 0 0 0 0 0 0 0 0 0 0 0 0 0 0 0 0 0 0 0 0 0 0
0 0 0 0 0 0 0 0 0 0 0 0 0 0 0 0 0 0 0 0 0 0 0 0 0 0 0 0 0 0 0 0 0 0 0
0 0 0 0 0 0 0 0 0 0 0 0 0 0 0 0 0 0 0 0 0 0 0 0 0 0 0 0 0 0 0 0 0 0 0
0 0 0 0 0 0 0 0 0 0 0 0 0 0 0 0 0 0 0 0 0 0 0 0 0 0 0 0 0 0 0 0 0 0 0
0 0 0 10 10 48 12 12 62 14 14 69 15 15 73 15 15 76 15 15 77 16 16 78
15 15 77 15 15 76 15 15 75 15 15 73 14 14 70 13 13 67 13 13 63 12 12
59 11 11 54 10 10 49 9 9 43 7 7 37 6 6 29 5 5 26 5 5 26 5 5 26 5 5 26
5 5 26 5 5 26 0 0 0 0 0 0 0 0 0 0 0 0 0 0 0 0 0 0 0 0 0 0 0 0 0 0 0 0
0 0 0 0 0 0 0 0 0 0 0 0 0 0 0 0 0 0 0 0 0 0 0 0 0 0 0 0 0 0 0 0 0 0 0
0 0 0 0 0 0 0 0 0 0 0 0 0 0 0 0 0 0 0 0 0 0 0 0
0 0 0 0 0 0 0 0 0 0 0 0 0 0 0 0 0 0 0 0 0 0 0 0 0 0 0 0 0 0 0 0 0 0 0
0 0 0 0 0 0 0 0 0 0 0 0 0 0 0 0 0 0 0 0 0 0 0 0 0 0 0 0 0 0 0 0 0 0 0
0 0 0 0 0 0 0 0 0 0 0 0 0 0 0 0 0 0 0 0 0 0 0 11 53 11 11 56 11 11 55
11 11 53 11 10 51 10 9 47 9 9 44 9 8 39 8 7 34 7 6 29 6 5 26 5 5 26 5
5 26 5 5 26 5 5 26 5 5 26 5 5 26 5 5 26 5 5 26 5 5 26 5 5 26 5 5 26 5
5 26 5 0 0 0 0 0 0 0 0 0 0 0 0 0 0 0 0 0 0 0 0 0 0 0 0 0 0 0 0 0 0 0 0
0 0 0 0 0 0 0 0 0 0 0 0 0 0 0 0 0 0 0 0 0 0 0 0 0 0 0 0 0 0 0 0 0 0 0
0 0 0 0 0 0 0 0 0 0 0 0 0 0 0 0 0 0 0 0 0 0 0 0 0 0 0 0 0 0 0 0 0 0 0
0 0 0 0 0 0 0 0 0 0 0 0 0 0 0 0 0 0 0 0 0 0 0 0 0 0 0 0 0 0 0 0 0 0 0
0 0 0 0 0 0 0 0 0 0 0 0 0 0 0 0 0 0 0 0 0 0 0 0 0 0 0 0 0 0 0 0 0 0 0
0 0 0 0 0 0 0 0 0 0 0 0 0 0 0 0 0 0 0 0 0 0 0 0 0 0 0 0 0 0 0 0 0 0 0
0 0 0 0 0 0 0 0 0 0 0 0 0 0 0 0 0 0 0 0 0 0 0 0 0 0 0 0 0 0 0 0 0 0 0
0 0 0 0 0 0 0 0 0 0 0 0 0 0 0 0 0 0 0 0 0 0 0 0 0 0 0 0 0 0 0 0 0 0 5
5 27 9 9 46 11 11 54 12 12 59 12 12 62 13 13 63 13 13 64 13 13 63 12
12 62 12 12 60 11 11 57 11 11 54 10 10 51 9 9 46 8 8 41 7 7 36 6 6 30
5 5 26 5 5 26 5 5 26 5 5 26 5 5 26 5 5 26 0 0 0 0 0 0 0 0 0 0 0 0 0 0
0 0 0 0 0 0 0 0 0 0 0 0 0 0 0 0 0 0 0 0 0 0 0 0 0 0 0 0 0 0 0 0 0 0 0
0 0 0 0 0 0 0 0 0 0 0 0 0 0 0 0 0 0 0 0 0 0 0 0 0 0 0 0 0 0 0 0 0 0 0
0 0 0 0 0 0 0 0 0
0 0 0 0 0 0 0 0 0 0 0 0 0 0 0 0 0 0 0 0 0 0 0 0 0 0 0 0 0 0 0 0 0 0 0
0 0 0 0 0 0 0 0 0 0 0 0 0 0 0 0 0 0 0 0 0 0 0 0 0 0 0 0 0 0 0 0 0 0 0
0 0 0 0 0 0 0 0 0 0 0 0 0 0 0 0 0 0 0 0 0 0 0 0 0 0 6 30 6 8 38 8 8 39
8 8 38 8 7 35 7 6 31 6 5 27 5 5 26 5 5 26 5 5 26 5 5 26 5 5 26 5 5 26
5 5 26 5 5 26 5 5 26 5 5 26 5 5 26 5 5 26 5 5 26 5 0 0 0 0 0 0 0 0 0 0
0 0 0 0 0 0 0 0 0 0 0 0 0 0 0 0 0 0 0 0 0 0 0 0 0 0 0 0 0 0 0 0 0 0 0
0 0 0 0 0 0 0 0 0 0 0 0 0 0 0 0 0 0 0 0 0 0 0 0 0 0 0 0 0 0 0 0 0 0 0
0 0 0 0 0 0 0 0 0 0 0 0 0 0 0 0 0 0 0 0 0 0 0 0 0 0 0 0 0 0 0 0 0 0 0
0 0 0 0 0 0 0 0 0 0 0 0 0 0 0 0 0 0 0 0 0 0 0 0 0 0 0 0 0 0 0 0 0 0 0
0 0 0 0 0 0 0 0 0 0 0 0 0 0 0 0 0 0 0 0 0 0 0 0 0 0 0 0 0 0 0 0 0 0 0
0 0 0 0 0 0 0 0 0 0 0 0 0 0 0 0 0 0 0 0 0 0 0 0 0 0 0 0 0 0 0 0 0 0 0
0 0 0 0 0 0 0 0 0 0 0 0 0 0 0 0 0 0 0 0 0 0 0 0 0 0 0 0 0 0 0 0 0 0 0
0 0 0 0 0 0 0 0 0 0 0 0 0 0 0 0 0 0 0 0 0 0 0 0 0 0 0 0 0 0 0 0 0 5 5
26 7 7 36 8 8 42 9 9 45 9 9 47 9 9 47 9 9 46 9 9 45 9 9 43 8 8 40 7 7
36 6 6 32 5 5 26 5 5 26 5 5 26 5 5 26 5 5 26 5 5 26 5 5 26 5 5 26 0 0
0 0 0 0 0 0 0 0 0 0 0 0 0 0 0 0 0 0 0 0 0 0 0 0 0 0 0 0 0 0 0 0 0 0 0
0 0 0 0 0 0 0 0 0 0 0 0 0 0 0 0 0 0 0 0 0 0 0 0 0 0 0 0 0 0 0 0 0 0 0
0 0 0 0 0 0 0 0 0 0 0 0 0 0 0 0 0 0 0 0 0 0 0 0
0 0 0 0 0 0 0 0 0 0 0 0 0 0 0 0 0 0 0 0 0 0 0 0 0 0 0 0 0 0 0 0 0 0 0
0 0 0 0 0 0 0 0 0 0 0 0 0 0 0 0 0 0 0 0 0 0 0 0 0 0 0 0 0 0 0 0 0 0 0
0 0 0 0 0 0 0 0 0 0 0 0 0 0 0 0 0 0 0 0 0 0 0 0 0 0 0 0 0 0 0 0 0 0 0
5 26 5 5 26 5 5 26 5 5 26 5 5 26 5 5 26 5 5 26 5 5 26 5 5 26 5 5 26 5
5 26 5 5 26 5 5 26 5 5 26 5 5 26 5 0 0 0 0 0 0 0 0 0 0 0 0 0 0 0 0 0 0
0 0 0 0 0 0 0 0 0 0 0 0 0 0 0 0 0 0 0 0 0 0 0 0 0 0 0 0 0 0 0 0 0 0 0
0 0 0 0 0 0 0 0 0 0 0 0 0 0 0 0 0 0 0 0 0 0 0 0 0 0 0 0 0 0 0 0 0 0 0
0 0 0 0 0 0 0 0 0 0 0 0 0 0 0 0 0 0 0 0 0 0 0 0 0 0 0 0 0 0 0 0 0 0 0
0 0 0 0 0 0 0 0 0 0 0 0 0 0 0 0 0 0 0 0 0 0 0 0 0 0 0 0 0 0 0 0 0 0 0
0 0 0 0 0 0 0 0 0 0 0 0 0 0 0 0 0 0 0 0 0 0 0 0 0 0 0 0 0 0 0 0 0 0 0
0 0 0 0 0 0 0 0 0 0 0 0 0 0 0 0 0 0 0 0 0 0 0 0 0 0 0 0 0 0 0 0 0 0 0
0 0 0 0 0 0 0 0 0 0 0 0 0 0 0 0 0 0 0 0 0 0 0 0 0 0 0 0 0 0 0 0 0 0 0
0 0 0 0 0 0 0 0 0 0 0 0 0 0 0 0 0 0 0 0 0 0 0 0 0 0 0 0 0 0 0 0 0 0 0
0 0 5 5 26 5 5 26 5 5 26 5 5 26 5 5 27 5 5 26 5 5 26 5 5 26 5 5 26 5 5
26 5 5 26 5 5 26 5 5 26 5 5 26 5 5 26 0 0 0 0 0 0 0 0 0 0 0 0 0 0 0 0
0 0 0 0 0 0 0 0 0 0 0 0 0 0 0 0 0 0 0 0 0 0 0 0 0 0 0 0 0 0 0 0 0 0 0
0 0 0 0 0 0 0 0 0 0 0 0 0 0 0 0 0 0 0 0 0 0 0 0 0 0 0 0 0 0 0 0 0 0 0
0 0 0 0 0 0 0 0 0 0 0 0 0 0 0 0 0 0 0
0 0 0 0 0 0 0 0 0 0 0 0 0 0 0 0 0 0 0 0 0 0 0 0 0 0 0 0 0 0 0 0 0 0 0
0 0 0 0 0 0 0 0 0 0 0 0 0 0 0 0 0 0 0 0 0 0 0 0 0 0 0 0 0 0 0 0 0 0 0
0 0 0 0 0 0 0 0 0 0 0 0 0 0 0 0 0 0 0 0 0 0 0 0 0 0 0 0 0 0 0 0 0 0 0
0 0 0 0 0 0 0 0 0 5 26 5 5 26 5 5 26 5 5 26 5 5 26 5 5 26 5 5 26 5 5
26 5 0 0 0 0 0 0 0 0 0 0 0 0 0 0 0 0 0 0 0 0 0 0 0 0 0 0 0 0 0 0 0 0 0
0 0 0 0 0 0 0 0 0 0 0 0 0 0 0 0 0 0 0 0 0 0 0 0 0 0 0 0 0 0 0 0 0 0 0
0 0 0 0 0 0 0 0 0 0 0 0 0 0 0 0 0 0 0 0 0 0 0 0 0 0 0 0 0 0 0 0 0 0 0
0 0 0 0 0 0 0 0 0 0 0 0 0 0 0 0 0 0 0 0 0 0 0 0 0 0 0 0 0 0 0 0 0 0 0
0 0 0 0 0 0 0 0 0 0 0 0 0 0 0 0 0 0 0 0 0 0 0 0 0 0 0 0 0 0 0 0 0 0 0
0 0 0 0 0 0 0 0 0 0 0 0 0 0 0 0 0 0 0 0 0 0 0 0 0 0 0 0 0 0 0 0 0 0 0
0 0 0 0 0 0 0 0 0 0 0 0 0 0 0 0 0 0 0 0 0 0 0 0 0 0 0 0 0 0 0 0 0 0 0
0 0 0 0 0 0 0 0 0 0 0 0 0 0 0 0 0 0 0 0 0 0 0 0 0 0 0 0 0 0 0 0 0 0 0
0 0 0 0 0 0 0 0 0 0 0 0 0 0 0 0 0 0 0 0 0 0 0 0 0 0 0 0 0 0 0 0 0 0 0
0 0 0 0 0 0 0 0 0 0 0 5 5 26 5 5 26 5 5 26 5 5 26 5 5 26 5 5 26 5 5 26
5 5 26 0 0 0 0 0 0 0 0 0 0 0 0 0 0 0 0 0 0 0 0 0 0 0 0 0 0 0 0 0 0 0 0
0 0 0 0 0 0 0 0 0 0 0 0 0 0 0 0 0 0 0 0 0 0 0 0 0 0 0 0 0 0 0 0 0 0 0
0 0 0 0 0 0 0 0 0 0 0 0 0 0 0 0 0 0 0 0 0 0 0 0 0 0 0 0 0 0 0 0 0 0 0
0 0 0 0 0 0 0 0 0 0 0 0
0 0 0 0 0 0 0 0 0 0 0 0 0 0 0 0 0 0 0 0 0 0 0 0 0 0 0 0 0 0 0 0 0 0 0
0 0 0 0 0 0 0 0 0 0 0 0 0 0 0 0 0 0 0 0 0 0 0 0 0 0 0 0 0 0 0 0 0 0 0
0 0 0 0 0 0 0 0 0 0 0 0 0 0 0 0 0 0 0 0 0 0 0 0 0 0 0 0 0 0 0 0 0 0 0
0 0 0 0 0 0 0 0 0 0 0 0 0 0 0 0 0 0 0 0 0 0 0 0 0 0 0 0 0 0 0 0 0 0 0
0 0 0 0 0 0 0 0 0 0 0 0 0 0 0 0 0 0 0 0 0 0 0 0 0 0 0 0 0 0 0 0 0 0 0
0 0 0 0 0 0 0 0 0 0 0 0 0 0 0 0 0 0 0 0 0 0 0 0 0 0 0 0 0 0 0 0 0 0 0
0 0 0 0 0 0 0 0 0 0 0 0 0 0 0 0 0 0 0 0 0 0 0 0 0 0 0 0 0 0 0 0 0 0 0
0 0 0 0 0 0 0 0 0 0 0 0 0 0 0 0 0 0 0 0 0 0 0 0 0 0 0 0 0 0 0 0 0 0 0
0 0 0 0 0 0 0 0 0 0 0 0 0 0 0 0 0 0 0 0 0 0 0 0 0 0 0 0 0 0 0 0 0 0 0
0 0 0 0 0 0 0 0 0 0 0 0 0 0 0 0 0 0 0 0 0 0 0 0 0 0 0 0 0 0 0 0 0 0 0
0 0 0 0 0 0 0 0 0 0 0 0 0 0 0 0 0 0 0 0 0 0 0 0 0 0 0 0 0 0 0 0 0 0 0
0 0 0 0 0 0 0 0 0 0 0 0 0 0 0 0 0 0 0 0 0 0 0 0 0 0 0 0 0 0 0 0 0 0 0
0 0 0 0 0 0 0 0 0 0 0 0 0 0 0 0 0 0 0 0 0 0 0 0 0 0 0 0 0 0 0 0 0 0 0
0 0 0 0 0 0 0 0 0 0 0 0 0 0 0 0 0 0 0 0 0 0 0 0 0 0 0 0 0 0 0 0 0 0 0
0 0 0 0 0 0 0 0 0 0 0 0 0 0 0 0 0 0 0 0 0 0 0 0 0 0 0 0 0 0 0 0 0 0 0
0 0 0 0 0 0 0 0 0 0 0 0 0 0 0 0 0 0 0 0 0 0 0 0 0 0 0 0 0 0 0 0 0 0 0
0 0 0 0 0 0 0 0 0 0 0 0 0 0 0 0 0 0 0 0 0 0 0 0 0 0 0 0 0 0 0 0 0 0 0
0 0 0 0 0
0 0 0 0 0 0 0 0 0 0 0 0 0 0 0 0 0 0 0 0 0 0 0 0 0 0 0 0 0 0 0 0 0 0 0
0 0 0 0 0 0 0 0 0 0 0 0 0 0 0 0 0 0 0 0 0 0 0 0 0 0 0 0 0 0 0 0 0 0 0
0 0 0 0 0 0 0 0 0 0 0 0 0 0 0 0 0 0 0 0 0 0 0 0 0 0 0 0 0 0 0 0 0 0 0
0 0 0 0 0 0 0 0 0 0 0 0 0 0 0 0 0 0 0 0 0 0 0 0 0 0 0 0 0 0 0 0 0 0 0
0 0 0 0 0 0 0 0 0 0 0 0 0 0 0 0 0 0 0 0 0 0 0 0 0 0 0 0 0 0 0 0 0 0 0
0 0 0 0 0 0 0 0 0 0 0 0 0 0 0 0 0 0 0 0 0 0 0 0 0 0 0 0 0 0 0 0 0 0 0
0 0 0 0 0 0 0 0 0 0 0 0 0 0 0 0 0 0 0 0 0 0 0 0 0 0 0 0 0 0 0 0 0 0 0
0 0 0 0 0 0 0 0 0 0 0 0 0 0 0 0 0 0 0 0 0 0 0 0 0 0 0 0 0 0 0 0 0 0 0
0 0 0 0 0 0 0 0 0 0 0 0 0 0 0 0 0 0 0 0 0 0 0 0 0 0 0 0 0 0 0 0 0 0 0
0 0 0 0 0 0 0 0 0 0 0 0 0 0 0 0 0 0 0 0 0 0 0 0 0 0 0 0 0 0 0 0 0 0 0
0 0 0 0 0 0 0 0 0 0 0 0 0 0 0 0 0 0 0 0 0 0 0 0 0 0 0 0 0 0 0 0 0 0 0
0 0 0 0 0 0 0 0 0 0 0 0 0 0 0 0 0 0 0 0 0 0 0 0 0 0 0 0 0 0 0 0 0 0 0
0 0 0 0 0 0 0 0 0 0 0 0 0 0 0 0 0 0 0 0 0 0 0 0 0 0 0 0 0 0 0 0 0 0 0
0 0 0 0 0 0 0 0 0 0 0 0 0 0 0 0 0 0 0 0 0 0 0 0 0 0 0 0 0 0 0 0 0 0 0
0 0 0 0 0 0 0 0 0 0 0 0 0 0 0 0 0 0 0 0 0 0 0 0 0 0 0 0 0 0 0 0 0 0 0
0 0 0 0 0 0 0 0 0 0 0 0 0 0 0 0 0 0 0 0 0 0 0 0 0 0 0 0 0 0 0 0 0 0 0
0 0 0 0 0 0 0 0 0 0 0 0 0 0 0 0 0 0 0 0 0 0 0 0 0 0 0 0 0 0 0 0 0 0 0
0 0 0 0 0
0 0 0 0 0 0 0 0 0 0 0 0 0 0 0 0 0 0 0 0 0 0 0 0 0 0 0 0 0 0 0 0 0 0 0
0 0 0 0 0 0 0 0 0 0 0 0 0 0 0 0 0 0 0 0 0 0 0 0 0 0 0 0 0 0 0 0 0 0 0
0 0 0 0 0 0 0 0 0 0 0 0 0 0 0 0 0 0 0 0 0 0 0 0 0 0 0 0 0 0 0 0 0 0 0
0 0 0 0 0 0 0 0 0 0 0 0 0 0 0 0 0 0 0 0 0 0 0 0 0 0 0 0 0 0 0 0 0 0 0
0 0 0 0 0 0 0 0 0 0 0 0 0 0 0 0 0 0 0 0 0 0 0 0 0 0 0 0 0 0 0 0 0 0 0
0 0 0 0 0 0 0 0 0 0 0 0 0 0 0 0 0 0 0 0 0 0 0 0 0 0 0 0 0 0 0 0 0 0 0
0 0 0 0 0 0 0 0 0 0 0 0 0 0 0 0 0 0 0 0 0 0 0 0 0 0 0 0 0 0 0 0 0 0 0
0 0 0 0 0 0 0 0 0 0 0 0 0 0 0 0 0 0 0 0 0 0 0 0 0 0 0 0 0 0 0 0 0 0 0
0 0 0 0 0 0 0 0 0 0 0 0 0 0 0 0 0 0 0 0 0 0 0 0 0 0 0 0 0 0 0 0 0 0 0
0 0 0 0 0 0 0 0 0 0 0 0 0 0 0 0 0 0 0 0 0 0 0 0 0 0 0 0 0 0 0 0 0 0 0
0 0 0 0 0 0 0 0 0 0 0 0 0 0 0 0 0 0 0 0 0 0 0 0 0 0 0 0 0 0 0 0 0 0 0
0 0 0 0 0 0 0 0 0 0 0 0 0 0 0 0 0 0 0 0 0 0 0 0 0 0 0 0 0 0 0 0 0 0 0
0 0 0 0 0 0 0 0 0 0 0 0 0 0 0 0 0 0 0 0 0 0 0 0 0 0 0 0 0 0 0 0 0 0 0
0 0 0 0 0 0 0 0 0 0 0 0 0 0 0 0 0 0 0 0 0 0 0 0 0 0 0 0 0 0 0 0 0 0 0
0 0 0 0 0 0 0 0 0 0 0 0 0 0 0 0 0 0 0 0 0 0 0 0 0 0 0 0 0 0 0 0 0 0 0
0 0 0 0 0 0 0 0 0 0 0 0 0 0 0 0 0 0 0 0 0 0 0 0 0 0 0 0 0 0 0 0 0 0 0
0 0 0 0 0 0 0 0 0 0 0 0 0 0 0 0 0 0 0 0 0 0 0 0 0 0 0 0 0 0 0 0 0 0 0
0 0 0 0 0
0 0 0 0 0 0 0 0 0 0 0 0 0 0 0 0 0 0 0 0 0 0 0 0 0 0 0 0 0 0 0 0 0 0 0
0 0 0 0 0 0 0 0 0 0 0 0 0 0 0 0 0 0 0 0 0 0 0 0 0 0 0 0 0 0 0 0 0 0 0
0 0 0 0 0 0 0 0 0 0 0 0 0 0 0 0 0 0 0 0 0 0 0 0 0 0 0 0 0 0 0 0 0 0 0
0 0 0 0 0 0 0 0 0 0 0 0 0 0 0 0 0 0 0 0 0 0 0 0 0 0 0 0 0 0 0 0 0 0 0
0 0 0 0 0 0 0 0 0 0 0 0 0 0 0 0 0 0 0 0 0 0 0 0 0 0 0 0 0 0 0 0 0 0 0
0 0 0 0 0 0 0 0 0 0 0 0 0 0 0 0 0 0 0 0 0 0 0 0 0 0 0 0 0 0 0 0 0 0 0
0 0 0 0 0 0 0 0 0 0 0 0 0 0 0 0 0 0 0 0 0 0 0 0 0 0 0 0 0 0 0 0 0 0 0
0 0 0 0 0 0 0 0 0 0 0 0 0 0 0 0 0 0 0 0 0 0 0 0 0 0 0 0 0 0 0 0 0 0 0
0 0 0 0 0 0 0 0 0 0 0 0 0 0 0 0 0 0 0 0 0 0 0 0 0 0 0 0 0 0 0 0 0 0 0
0 0 0 0 0 0 0 0 0 0 0 0 0 0 0 0 0 0 0 0 0 0 0 0 0 0 0 0 0 0 0 0 0 0 0
0 0 0 0 0 0 0 0 0 0 0 0 0 0 0 0 0 0 0 0 0 0 0 0 0 0 0 0 0 0 0 0 0 0 0
0 0 0 0 0 0 0 0 0 0 0 0 0 0 0 0 0 0 0 0 0 0 0 0 0 0 0 0 0 0 0 0 0 0 0
0 0 0 0 0 0 0 0 0 0 0 0 0 0 0 0 0 0 0 0 0 0 0 0 0 0 0 0 0 0 0 0 0 0 0
0 0 0 0 0 0 0 0 0 0 0 0 0 0 0 0 0 0 0 0 0 0 0 0 0 0 0 0 0 0 0 0 0 0 0
0 0 0 0 0 0 0 0 0 0 0 0 0 0 0 0 0 0 0 0 0 0 0 0 0 0 0 0 0 0 0 0 0 0 0
0 0 0 0 0 0 0 0 0 0 0 0 0 0 0 0 0 0 0 0 0 0 0 0 0 0 0 0 0 0 0 0 0 0 0
0 0 0 0 0 0 0 0 0 0 0 0 0 0 0 0 0 0 0 0 0 0 0 0 0 0 0 0 0 0 0 0 0 0 0
0 0 0 0 0
0 0 0 0 0 0 0 0 0 0 0 0 0 0 0 0 0 0 0 0 0 0 0 0 0 0 0 0 0 0 0 0 0 0 0
0 0 0 0 0 0 0 0 0 0 0 0 0 0 0 0 0 0 0 0 0 0 0 0 0 0 0 0 0 0 0 0 0 0 0
0 0 0 0 0 0 0 0 0 0 0 0 0 0 0 0 0 0 0 0 0 0 0 0 0 0 0 0 0 0 0 0 0 0 0
0 0 0 0 0 0 0 0 0 0 0 0 0 0 0 0 0 0 0 0 0 0 0 0 0 0 0 0 0 0 0 0 0 0 0
0 0 0 0 0 0 0 0 0 0 0 0 0 0 0 0 0 0 0 0 0 0 0 0 0 0 0 0 0 0 0 0 0 0 0
0 0 0 0 0 0 0 0 0 0 0 0 0 0 0 0 0 0 0 0 0 0 0 0 0 0 0 0 0 0 0 0 0 0 0
0 0 0 0 0 0 0 0 0 0 0 0 0 0 0 0 0 0 0 0 0 0 0 0 0 0 0 0 0 0 0 0 0 0 0
0 0 0 0 0 0 0 0 0 0 0 0 0 0 0 0 0 0 0 0 0 0 0 0 0 0 0 0 0 0 0 0 0 0 0
0 0 0 0 0 0 0 0 0 0 0 0 0 0 0 0 0 0 0 0 0 0 0 0 0 0 0 0 0 0 0 0 0 0 0
0 0 0 0 0 0 0 0 0 0 0 0 0 0 0 0 0 0 0 0 0 0 0 0 0 0 0 0 0 0 0 0 0 0 0
0 0 0 0 0 0 0 0 0 0 0 0 0 0 0 0 0 0 0 0 0 0 0 0 0 0 0 0 0 0 0 0 0 0 0
0 0 0 0 0 0 0 0 0 0 0 0 0 0 0 0 0 0 0 0 0 0 0 0 0 0 0 0 0 0 0 0 0 0 0
0 0 0 0 0 0 0 0 0 0 0 0 0 0 0 0 0 0 0 0 0 0 0 0 0 0 0 0 0 0 0 0 0 0 0
0 0 0 0 0 0 0 0 0 0 0 0 0 0 0 0 0 0 0 0 0 0 0 0 0 0 0 0 0 0 0 0 0 0 0
0 0 0 0 0 0 0 0 0 0 0 0 0 0 0 0 0 0 0 0 0 0 0 0 0 0 0 0 0 0 0 0 0 0 0
0 0 0 0 0 0 0 0 0 0 0 0 0 0 0 0 0 0 0 0 0 0 0 0 0 0 0 0 0 0 0 0 0 0 0
0 0 0 0 0 0 0 0 0 0 0 0 0 0 0 0 0 0 0 0 0 0 0 0 0 0 0 0 0 0 0 0 0 0 0
0 0 0 0 0
0 0 0 0 0 0 0 0 0 0 0 0 0 0 0 0 0 0 0 0 0 0 0 0 0 0 0 0 0 0 0 0 0 0 0
0 0 0 0 0 0 0 0 0 0 0 0 0 0 0 0 0 0 0 0 0 0 0 0 0 0 0 0 0 0 0 0 0 0 0
0 0 0 0 0 0 0 0 0 0 0 0 0 0 0 0 0 0 0 0 0 0 0 0 0 0 0 0 0 0 0 0 0 0 0
0 0 0 0 0 0 0 0 0 0 0 0 0 0 0 0 0 0 0 0 0 0 0 0 0 0 0 0 0 0 0 0 0 0 0
0 0 0 0 0 0 0 0 0 0 0 0 0 0 0 0 0 0 0 0 0 0 0 0 0 0 0 0 0 0 0 0 0 0 0
0 0 0 0 0 0 0 0 0 0 0 0 0 0 0 0 0 0 0 0 0 0 0 0 0 0 0 0 0 0 0 0 0 0 0
0 0 0 0 0 0 0 0 0 0 0 0 0 0 0 0 0 0 0 0 0 0 0 0 0 0 0 0 0 0 0 0 0 0 0
0 0 0 0 0 0 0 0 0 0 0 0 0 0 0 0 0 0 0 0 0 0 0 0 0 0 0 0 0 0 0 0 0 0 0
0 0 0 0 0 0 0 0 0 0 0 0 0 0 0 0 0 0 0 0 0 0 0 0 0 0 0 0 0 0 0 0 0 0 0
0 0 0 0 0 0 0 0 0 0 0 0 0 0 0 0 0 0 0 0 0 0 0 0 0 0 0 0 0 0 0 0 0 0 0
0 0 0 0 0 0 0 0 0 0 0 0 0 0 0 0 0 0 0 0 0 0 0 0 0 0 0 0 0 0 0 0 0 0 0
0 0 0 0 0 0 0 0 0 0 0 0 0 0 0 0 0 0 0 0 0 0 0 0 0 0 0 0 0 0 0 0 0 0 0
0 0 0 0 0 0 0 0 0 0 0 0 0 0 0 0 0 0 0 0 0 0 0 0 0 0 0 0 0 0 0 0 0 0 0
0 0 0 0 0 0 0 0 0 0 0 0 0 0 0 0 0 0 0 0 0 0 0 0 0 0 0 0 0 0 0 0 0 0 0
0 0 0 0 0 0 0 0 0 0 0 0 0 0 0 0 0 0 0 0 0 0 0 0 0 0 0 0 0 0 0 0 0 0 0
0 0 0 0 0 0 0 0 0 0 0 0 0 0 0 0 0 0 0 0 0 0 0 0 0 0 0 0 0 0 0 0 0 0 0
0 0 0 0 0 0 0 0 0 0 0 0 0 0 0 0 0 0 0 0 0 0 0 0 0 0 0 0 0 0 0 0 0 0 0
0 0 0 0 0
0 0 0 0 0 0 0 0 0 0 0 0 0 0 0 0 0 0 0 0 0 0 0 0 0 0 0 0 0 0 0 0 0 0 0
0 0 0 0 0 0 0 0 0 0 0 0 0 0 0 0 0 0 0 0 0 0 0 0 0 0 0 0 0 0 0 0 0 0 0
0 0 0 0 0 0 0 0 0 0 0 0 0 0 0 0 0 0 0 0 0 0 0 0 0 0 0 0 0 0 0 0 0 0 0
0 0 0 0 0 0 0 0 0 0 0 0 0 0 0 0 0 0 0 0 0 0 0 0 0 0 0 0 0 0 0 0 0 0 0
0 0 0 0 0 0 0 0 0 0 0 0 0 0 0 0 0 0 0 0 0 0 0 0 0 0 0 0 0 0 0 0 0 0 0
0 0 0 0 0 0 0 0 0 0 0 0 0 0 0 0 0 0 0 0 0 0 0 0 0 0 0 0 0 0 0 0 0 0 0
0 0 0 0 0 0 0 0 0 0 0 0 0 0 0 0 0 0 0 0 0 0 0 0 0 0 0 0 0 0 0 0 0 0 0
0 0 0 0 0 0 0 0 0 0 0 0 0 0 0 0 0 0 0 0 0 0 0 0 0 0 0 0 0 0 0 0 0 0 0
0 0 0 0 0 0 0 0 0 0 0 0 0 0 0 0 0 0 0 0 0 0 0 0 0 0 0 0 0 0 0 0 0 0 0
0 0 0 0 0 0 0 0 0 0 0 0 0 0 0 0 0 0 0 0 0 0 0 0 0 0 0 0 0 0 0 0 0 0 0
0 0 0 0 0 0 0 0 0 0 0 0 0 0 0 0 0 0 0 0 0 0 0 0 0 0 0 0 0 0 0 0 0 0 0
0 0 0 0 0 0 0 0 0 0 0 0 0 0 0 0 0 0 0 0 0 0 0 0 0 0 0 0 0 0 0 0 0 0 0
0 0 0 0 0 0 0 0 0 0 0 0 0 0 0 0 0 0 0 0 0 0 0 0 0 0 0 0 0 0 0 0 0 0 0
0 0 0 0 0 0 0 0 0 0 0 0 0 0 0 0 0 0 0 0 0 0 0 0 0 0 0 0 0 0 0 0 0 0 0
0 0 0 0 0 0 0 0 0 0 0 0 0 0 0 0 0 0 0 0 0 0 0 0 0 0 0 0 0 0 0 0 0 0 0
0 0 0 0 0 0 0 0 0 0 0 0 0 0 0 0 0 0 0 0 0 0 0 0 0 0 0 0 0 0 0 0 0 0 0
0 0 0 0 0 0 0 0 0 0 0 0 0 0 0 0 0 0 0 0 0 0 0 0 0 0 0 0 0 0 0 0 0 0 0
0 0 0 0 0
0 0 0 0 0 0 0 0 0 0 0 0 0 0 0 0 0 0 0 0 0 0 0 0 0 0 0 0 0 0 0 0 0 0 0
0 0 0 0 0 0 0 0 0 0 0 0 0 0 0 0 0 0 0 0 0 0 0 0 0 0 0 0 0 0 0 0 0 0 0
0 0 0 0 0 0 0 0 0 0 0 0 0 0 0 0 0 0 0 0 0 0 0 0 0 0 0 0 0 0 0 0 0 0 0
0 0 0 0 0 0 0 0 0 0 0 0 0 0 0 0 0 0 0 0 0 0 0 0 0 0 0 0 0 0 0 0 0 0 0
0 0 0 0 0 0 0 0 0 0 0 0 0 0 0 0 0 0 0 0 0 0 0 0 0 0 0 0 0 0 0 0 0 0 0
0 0 0 0 0 0 0 0 0 0 0 0 0 0 0 0 0 0 0 0 0 0 0 0 0 0 0 0 0 0 0 0 0 0 0
0 0 0 0 0 0 0 0 0 0 0 0 0 0 0 0 0 0 0 0 0 0 0 0 0 0 0 0 0 0 0 0 0 0 0
0 0 0 0 0 0 0 0 0 0 0 0 0 0 0 0 0 0 0 0 0 0 0 0 0 0 0 0 0 0 0 0 0 0 0
0 0 0 0 0 0 0 0 0 0 0 0 0 0 0 0 0 0 0 0 0 0 0 0 0 0 0 0 0 0 0 0 0 0 0
0 0 0 0 0 0 0 0 0 0 0 0 0 0 0 0 0 0 0 0 0 0 0 0 0 0 0 0 0 0 0 0 0 0 0
0 0 0 0 0 0 0 0 0 0 0 0 0 0 0 0 0 0 0 0 0 0 0 0 0 0 0 0 0 0 0 0 0 0 0
0 0 0 0 0 0 0 0 0 0 0 0 0 0 0 0 0 0 0 0 0 0 0 0 0 0 0 0 0 0 0 0 0 0 0
0 0 0 0 0 0 0 0 0 0 0 0 0 0 0 0 0 0 0 0 0 0 0 0 0 0 0 0 0 0 0 0 0 0 0
0 0 0 0 0 0 0 0 0 0 0 0 0 0 0 0 0 0 0 0 0 0 0 0 0 0 0 0 0 0 0 0 0 0 0
0 0 0 0 0 0 0 0 0 0 0 0 0 0 0 0 0 0 0 0 0 0 0 0 0 0 0 0 0 0 0 0 0 0 0
0 0 0 0 0 0 0 0 0 0 0 0 0 0 0 0 0 0 0 0 0 0 0 0 0 0 0 0 0 0 0 0 0 0 0
0 0 0 0 0 0 0 0 0 0 0 0 0 0 0 0 0 0 0 0 0 0 0 0 0 0 0 0 0 0 0 0 0 0 0
0 0 0 0 0
0 0 0 0 0 0 0 0 0 0 0 0 0 0 0 0 0 0 0 0 0 0 0 0 0 0 0 0 0 0 0 0 0 0 0
0 0 0 0 0 0 0 0 0 0 0 0 0 0 0 0 0 0 0 0 0 0 0 0 0 0 0 0 0 0 0 0 0 0 0
0 0 0 0 0 0 0 0 0 0 0 0 0 0 0 0 0 0 0 0 0 0 0 0 0 0 0 0 0 0 0 0 0 0 0
0 0 0 0 0 0 0 0 0 0 0 0 0 0 0 0 0 0 0 0 0 0 0 0 0 0 0 0 0 0 0 0 0 0 0
0 0 0 0 0 0 0 0 0 0 0 0 0 0 0 0 0 0 0 0 0 0 0 0 0 0 0 0 0 0 0 0 0 0 0
0 0 0 0 0 0 0 0 0 0 0 0 0 0 0 0 0 0 0 0 0 0 0 0 0 0 0 0 0 0 0 0 0 0 0
0 0 0 0 0 0 0 0 0 0 0 0 0 0 0 0 0 0 0 0 0 0 0 0 0 0 0 0 0 0 0 0 0 0 0
0 0 0 0 0 0 0 0 0 0 0 0 0 0 0 0 0 0 0 0 0 0 0 0 0 0 0 0 0 0 0 0 0 0 0
0 0 0 0 0 0 0 0 0 0 0 0 0 0 0 0 0 0 0 0 0 0 0 0 0 0 0 0 0 0 0 0 0 0 0
0 0 0 0 0 0 0 0 0 0 0 0 0 0 0 0 0 0 0 0 0 0 0 0 0 0 0 0 0 0 0 0 0 0 0
0 0 0 0 0 0 0 0 0 0 0 0 0 0 0 0 0 0 0 0 0 0 0 0 0 0 0 0 0 0 0 0 0 0 0
0 0 0 0 0 0 0 0 0 0 0 0 0 0 0 0 0 0 0 0 0 0 0 0 0 0 0 0 0 0 0 0 0 0 0
0 0 0 0 0 0 0 0 0 0 0 0 0 0 0 0 0 0 0 0 0 0 0 0 0 0 0 0 0 0 0 0 0 0 0
0 0 0 0 0 0 0 0 0 0 0 0 0 0 0 0 0 0 0 0 0 0 0 0 0 0 0 0 0 0 0 0 0 0 0
0 0 0 0 0 0 0 0 0 0 0 0 0 0 0 0 0 0 0 0 0 0 0 0 0 0 0 0 0 0 0 0 0 0 0
0 0 0 0 0 0 0 0 0 0 0 0 0 0 0 0 0 0 0 0 0 0 0 0 0 0 0 0 0 0 0 0 0 0 0
0 0 0 0 0 0 0 0 0 0 0 0 0 0 0 0 0 0 0 0 0 0 0 0 0 0 0 0 0 0 0 0 0 0 0
0 0 0 0 0
0 0 0 0 0 0 0 0 0 0 0 0 0 0 0 0 0 0 0 0 0 0 0 0 0 0 0 0 0 0 0 0 0 0 0
0 0 0 0 0 0 0 0 0 0 0 0 0 0 0 0 0 0 0 0 0 0 0 0 0 0 0 0 0 0 0 0 0 0 0
0 0 0 0 0 0 0 0 0 0 0 0 0 0 0 0 0 0 0 0 0 0 0 0 0 0 0 0 0 0 0 0 0 0 0
0 0 0 0 0 0 0 0 0 0 0 0 0 0 0 0 0 0 0 0 0 0 0 0 0 0 0 0 0 0 0 0 0 0 0
0 0 0 0 0 0 0 0 0 0 0 0 0 0 0 0 0 0 0 0 0 0 0 0 0 0 0 0 0 0 0 0 0 0 0
0 0 0 0 0 0 0 0 0 0 0 0 0 0 0 0 0 0 0 0 0 0 0 0 0 0 0 0 0 0 0 0 0 0 0
0 0 0 0 0 0 0 0 0 0 0 0 0 0 0 0 0 0 0 0 0 0 0 0 0 0 0 0 0 0 0 0 0 0 0
0 0 0 0 0 0 0 0 0 0 0 0 0 0 0 0 0 0 0 0 0 0 0 0 0 0 0 0 0 0 0 0 0 0 0
0 0 0 0 0 0 0 0 0 0 0 0 0 0 0 0 0 0 0 0 0 0 0 0 0 0 0 0 0 0 0 0 0 0 0
0 0 0 0 0 0 0 0 0 0 0 0 0 0 0 0 0 0 0 0 0 0 0 0 0 0 0 0 0 0 0 0 0 0 0
0 0 0 0 0 0 0 0 0 0 0 0 0 0 0 0 0 0 0 0 0 0 0 0 0 0 0 0 0 0 0 0 0 0 0
0 0 0 0 0 0 0 0 0 0 0 0 0 0 0 0 0 0 0 0 0 0 0 0 0 0 0 0 0 0 0 0 0 0 0
0 0 0 0 0 0 0 0 0 0 0 0 0 0 0 0 0 0 0 0 0 0 0 0 0 0 0 0 0 0 0 0 0 0 0
0 0 0 0 0 0 0 0 0 0 0 0 0 0 0 0 0 0 0 0 0 0 0 0 0 0 0 0 0 0 0 0 0 0 0
0 0 0 0 0 0 0 0 0 0 0 0 0 0 0 0 0 0 0 0 0 0 0 0 0 0 0 0 0 0 0 0 0 0 0
0 0 0 0 0 0 0 0 0 0 0 0 0 0 0 0 0 0 0 0 0 0 0 0 0 0 0 0 0 0 0 0 0 0 0
0 0 0 0 0 0 0 0 0 0 0 0 0 0 0 0 0 0 0 0 0 0 0 0 0 0 0 0 0 0 0 0 0 0 0
0 0 0 0 0

