P3
200 100
255
0 0 0 0 0 0 0 0 0 0 0 0 0 0 0 0 0 0 0 0 0 0 0 0 0 0 0 0 0 0 0 0 0 0 0
0 0 0 0 0 0 0 0 0 0 0 0 0 0 0 0 0 0 0 0 0 0 0 0 0 0 0 0 0 0 0 0 0 0 0
0 0 0 0 0 0 0 0 0 0 0 0 0 0 0 0 0 0 0 0 0 0 0 0 0 0 0 0 0 0 0 0 0 0 0
0 0 0 0 0 0 0 0 0 0 0 0 0 0 0 0 0 0 0 0 0 0 0 0 0 0 0 0 0 0 0 0 0 0 0
0 0 0 0 0 0 0 0 0 0 0 0 0 0 0 0 0 0 0 0 0 0 0 0 0 0 0 0 0 0 0 0 0 0 0
0 0 0 0 0 0 0 0 0 0 0 0 0 0 0 0 0 0 0 0 0 0 0 0 0 0 0 0 0 0 0 0 0 0 0
0 0 0 0 0 0 0 0 0 0 0 0 0 0 0 0 0 0 0 0 0 0 0 0 0 0 0 0 0 0 0 0 0 0 0
0 0 0 0 0 0 0 0 0 0 0 0 0 0 0 0 0 0 0 0 0 0 0 0 0 0 0 0 0 0 0 0 0 0 0
0 0 0 0 0 0 0 0 0 0 0 0 0 0 0 0 0 0 0 0 0 0 0 0 0 0 0 0 0 0 0 0 0 0 0
0 0 0 0 0 0 0 0 0 0 0 0 0 0 0 0 0 0 0 0 0 0 0 0 0 0 0 0 0 0 0 0 0 0 0
0 0 0 0 0 0 0 0 0 0 0 0 0 0 0 0 0 0 0 0 0 0 0 0 0 0 0 0 0 0 0 0 0 0 0
0 0 0 0 0 0 0 0 0 0 0 0 0 0 0 0 0 0 0 0 0 0 0 0 0 0 0 0 0 0 0 0 0 0 0
0 0 0 0 0 0 0 0 0 0 0 0 0 0 0 0 0 0 0 0 0 0 0 0 0 0 0 0 0 0 0 0 0 0 0
0 0 0 0 0 0 0 0 0 0 0 0 0 0 0 0 0 0 0 0 0 0 0 0 0 0 0 0 0 0 0 0 0 0 0
0 0 0 0 0 0 0 0 0 0 0 0 0 0 0 0 0 0 0 0 0 0 0 0 0 0 0 0 0 0 0 0 0 0 0
0 0 0 0 0 0 0 0 0 0 0 0 0 0 0 0 0 0 0 0 0 0 0 0 0 0 0 0 0 0 0 0 0 0 0
0 0 0 0 0 0 0 0 0 0 0 0 0 0 0 0 0 0 0 0 0 0 0 0 0 0 0 0 0 0 0 0 0 0 0
0 0 0 0 0
0 0 0 0 0 0 0 0 0 0 0 0 0 0 0 0 0 0 0 0 0 0 0 0 0 0 0 0 0 0 0 0 0 0 0
0 0 0 0 0 0 0 0 0 0 0 0 0 0 0 0 0 0 0 0 0 0 0 0 0 0 0 0 0 0 0 0 0 0 0
0 0 0 0 0 0 0 0 0 0 0 0 0 0 0 0 0 0 0 0 0 0 0 0 0 0 0 0 0 0 0 0 0 0 0
0 0 0 0 0 0 0 0 0 0 0 0 0 0 0 0 0 0 0 0 0 0 0 0 0 0 0 0 0 0 0 0 0 0 0
0 0 0 0 0 0 0 0 0 0 0 0 0 0 0 0 0 0 0 0 0 0 0 0 0 0 0 0 0 0 0 0 0 0 0
0 0 0 0 0 0 0 0 0 0 0 0 0 0 0 0 0 0 0 0 0 0 0 0 0 0 0 0 0 0 0 0 0 0 0
0 0 0 0 0 0 0 0 0 0 0 0 0 0 0 0 0 0 0 0 0 0 0 0 0 0 0 0 0 0 0 0 0 0 0
0 0 0 0 0 0 0 0 0 0 0 0 0 0 0 0 0 0 0 0 0 0 0 0 0 0 0 0 0 0 0 0 0 0 0
0 0 0 0 0 0 0 0 0 0 0 0 0 0 0 0 0 0 0 0 0 0 0 0 0 0 0 0 0 0 0 0 0 0 0
0 0 0 0 0 0 0 0 0 0 0 0 0 0 0 0 0 0 0 0 0 0 0 0 0 0 0 0 0 0 0 0 0 0 0
0 0 0 0 0 0 0 0 0 0 0 0 0 0 0 0 0 0 0 0 0 0 0 0 0 0 0 0 0 0 0 0 0 0 0
0 0 0 0 0 0 0 0 0 0 0 0 0 0 0 0 0 0 0 0 0 0 0 0 0 0 0 0 0 0 0 0 0 0 0
0 0 0 0 0 0 0 0 0 0 0 0 0 0 0 0 0 0 0 0 0 0 0 0 0 0 0 0 0 0 0 0 0 0 0
0 0 0 0 0 0 0 0 0 0 0 0 0 0 0 0 0 0 0 0 0 0 0 0 0 0 0 0 0 0 0 0 0 0 0
0 0 0 0 0 0 0 0 0 0 0 0 0 0 0 0 0 0 0 0 0 0 0 0 0 0 0 0 0 0 0 0 0 0 0
0 0 0 0 0 0 0 0 0 0 0 0 0 0 0 0 0 0 0 0 0 0 0 0 0 0 0 0 0 0 0 0 0 0 0
0 0 0 0 0 0 0 0 0 0 0 0 0 0 0 0 0 0 0 0 0 0 0 0 0 0 0 0 0 0 0 0 0 0 0
0 0 0 0 0
0 0 0 0 0 0 0 0 0 0 0 0 0 0 0 0 0 0 0 0 0 0 0 0 0 0 0 0 0 0 0 0 0 0 0
0 0 0 0 0 0 0 0 0 0 0 0 0 0 0 0 0 0 0 0 0 0 0 0 0 0 0 0 0 0 0 0 0 0 0
0 0 0 0 0 0 0 0 0 0 0 0 0 0 0 0 0 0 0 0 0 0 0 0 0 0 0 0 0 0 0 0 0 0 0
0 0 0 0 0 0 0 0 0 0 0 0 0 0 0 0 0 0 0 0 0 0 0 0 0 0 0 0 0 0 0 0 0 0 0
0 0 0 0 0 0 0 0 0 0 0 0 0 0 0 0 0 0 0 0 0 0 0 0 0 0 0 0 0 0 0 0 0 0 0
0 0 0 0 0 0 0 0 0 0 0 0 0 0 0 0 0 0 0 0 0 0 0 0 0 0 0 0 0 0 0 0 0 0 0
0 0 0 0 0 0 0 0 0 0 0 0 0 0 0 0 0 0 0 0 0 0 0 0 0 0 0 0 0 0 0 0 0 0 0
0 0 0 0 0 0 0 0 0 0 0 0 0 0 0 0 0 0 0 0 0 0 0 0 0 0 0 0 0 0 0 0 0 0 0
0 0 0 0 0 0 0 0 0 0 0 0 0 0 0 0 0 0 0 0 0 0 0 0 0 0 0 0 0 0 0 0 0 0 0
0 0 0 0 0 0 0 0 0 0 0 0 0 0 0 0 0 0 0 0 0 0 0 0 0 0 0 0 0 0 0 0 0 0 0
0 0 0 0 0 0 0 0 0 0 0 0 0 0 0 0 0 0 0 0 0 0 0 0 0 0 0 0 0 0 0 0 0 0 0
0 0 0 0 0 0 0 0 0 0 0 0 0 0 0 0 0 0 0 0 0 0 0 0 0 0 0 0 0 0 0 0 0 0 0
0 0 0 0 0 0 0 0 0 0 0 0 0 0 0 0 0 0 0 0 0 0 0 0 0 0 0 0 0 0 0 0 0 0 0
0 0 0 0 0 0 0 0 0 0 0 0 0 0 0 0 0 0 0 0 0 0 0 0 0 0 0 0 0 0 0 0 0 0 0
0 0 0 0 0 0 0 0 0 0 0 0 0 0 0 0 0 0 0 0 0 0 0 0 0 0 0 0 0 0 0 0 0 0 0
0 0 0 0 0 0 0 0 0 0 0 0 0 0 0 0 0 0 0 0 0 0 0 0 0 0 0 0 0 0 0 0 0 0 0
0 0 0 0 0 0 0 0 0 0 0 0 0 0 0 0 0 0 0 0 0 0 0 0 0 0 0 0 0 0 0 0 0 0 0
0 0 0 0 0
0 0 0 0 0 0 0 0 0 0 0 0 0 0 0 0 0 0 0 0 0 0 0 0 0 0 0 0 0 0 0 0 0 0 0
0 0 0 0 0 0 0 0 0 0 0 0 0 0 0 0 0 0 0 0 0 0 0 0 0 0 0 0 0 0 0 0 0 0 0
0 0 0 0 0 0 0 0 0 0 0 0 0 0 0 0 0 0 0 0 0 0 0 0 0 0 0 0 0 0 0 0 0 0 0
0 0 0 0 0 0 0 0 0 0 0 0 0 0 0 0 0 0 0 0 0 0 0 0 0 0 0 0 0 0 0 0 0 0 0
0 0 0 0 0 0 0 0 0 0 0 0 0 0 0 0 0 0 0 0 0 0 0 0 0 0 0 0 0 0 0 0 0 0 0
0 0 0 0 0 0 0 0 0 0 0 0 0 0 0 0 0 0 0 0 0 0 0 0 0 0 0 0 0 0 0 0 0 0 0
0 0 0 0 0 0 0 0 0 0 0 0 0 0 0 0 0 0 0 0 0 0 0 0 0 0 0 0 0 0 0 0 0 0 0
0 0 0 0 0 0 0 0 0 0 0 0 0 0 0 0 0 0 0 0 0 0 0 0 0 0 0 0 0 0 0 0 0 0 0
0 0 0 0 0 0 0 0 0 0 0 0 0 0 0 0 0 0 0 0 0 0 0 0 0 0 0 0 0 0 0 0 0 0 0
0 0 0 0 0 0 0 0 0 0 0 0 0 0 0 0 0 0 0 0 0 0 0 0 0 0 0 0 0 0 0 0 0 0 0
0 0 0 0 0 0 0 0 0 0 0 0 0 0 0 0 0 0 0 0 0 0 0 0 0 0 0 0 0 0 0 0 0 0 0
0 0 0 0 0 0 0 0 0 0 0 0 0 0 0 0 0 0 0 0 0 0 0 0 0 0 0 0 0 0 0 0 0 0 0
0 0 0 0 0 0 0 0 0 0 0 0 0 0 0 0 0 0 0 0 0 0 0 0 0 0 0 0 0 0 0 0 0 0 0
0 0 0 0 0 0 0 0 0 0 0 0 0 0 0 0 0 0 0 0 0 0 0 0 0 0 0 0 0 0 0 0 0 0 0
0 0 0 0 0 0 0 0 0 0 0 0 0 0 0 0 0 0 0 0 0 0 0 0 0 0 0 0 0 0 0 0 0 0 0
0 0 0 0 0 0 0 0 0 0 0 0 0 0 0 0 0 0 0 0 0 0 0 0 0 0 0 0 0 0 0 0 0 0 0
0 0 0 0 0 0 0 0 0 0 0 0 0 0 0 0 0 0 0 0 0 0 0 0 0 0 0 0 0 0 0 0 0 0 0
0 0 0 0 0
0 0 0 0 0 0 0 0 0 0 0 0 0 0 0 0 0 0 0 0 0 0 0 0 0 0 0 0 0 0 0 0 0 0 0
0 0 0 0 0 0 0 0 0 0 0 0 0 0 0 0 0 0 0 0 0 0 0 0 0 0 0 0 0 0 0 0 0 0 0
0 0 0 0 0 0 0 0 0 0 0 0 0 0 0 0 0 0 0 0 0 0 0 0 0 0 0 0 0 0 0 0 0 0 0
0 0 0 0 0 0 0 0 0 0 0 0 0 0 0 0 0 0 0 0 0 0 0 0 0 0 0 0 0 0 0 0 0 0 0
0 0 0 0 0 0 0 0 0 0 0 0 0 0 0 0 0 0 0 0 0 0 0 0 0 0 0 0 0 0 0 0 0 0 0
0 0 0 0 0 0 0 0 0 0 0 0 0 0 0 0 0 0 0 0 0 0 0 0 0 0 0 0 0 0 0 0 0 0 0
0 0 0 0 0 0 0 0 0 0 0 0 0 0 0 0 0 0 0 0 0 0 0 0 0 0 0 0 0 0 0 0 0 0 0
0 0 0 0 0 0 0 0 0 0 0 0 0 0 0 0 0 0 0 0 0 0 0 0 0 0 0 0 0 0 0 0 0 0 0
0 0 0 0 0 0 0 0 0 0 0 0 0 0 0 0 0 0 0 0 0 0 0 0 0 0 0 0 0 0 0 0 0 0 0
0 0 0 0 0 0 0 0 0 0 0 0 0 0 0 0 0 0 0 0 0 0 0 0 0 0 0 0 0 0 0 0 0 0 0
0 0 0 0 0 0 0 0 0 0 0 0 0 0 0 0 0 0 0 0 0 0 0 0 0 0 0 0 0 0 0 0 0 0 0
0 0 0 0 0 0 0 0 0 0 0 0 0 0 0 0 0 0 0 0 0 0 0 0 0 0 0 0 0 0 0 0 0 0 0
0 0 0 0 0 0 0 0 0 0 0 0 0 0 0 0 0 0 0 0 0 0 0 0 0 0 0 0 0 0 0 0 0 0 0
0 0 0 0 0 0 0 0 0 0 0 0 0 0 0 0 0 0 0 0 0 0 0 0 0 0 0 0 0 0 0 0 0 0 0
0 0 0 0 0 0 0 0 0 0 0 0 0 0 0 0 0 0 0 0 0 0 0 0 0 0 0 0 0 0 0 0 0 0 0
0 0 0 0 0 0 0 0 0 0 0 0 0 0 0 0 0 0 0 0 0 0 0 0 0 0 0 0 0 0 0 0 0 0 0
0 0 0 0 0 0 0 0 0 0 0 0 0 0 0 0 0 0 0 0 0 0 0 0 0 0 0 0 0 0 0 0 0 0 0
0 0 0 0 0
0 0 0 0 0 0 0 0 0 0 0 0 0 0 0 0 0 0 0 0 0 0 0 0 0 0 0 0 0 0 0 0 0 0 0
0 0 0 0 0 0 0 0 0 0 0 0 0 0 0 0 0 0 0 0 0 0 0 0 0 0 0 0 0 0 0 0 0 0 0
0 0 0 0 0 0 0 0 0 0 0 0 0 0 0 0 0 0 0 0 0 0 0 0 0 0 0 0 0 0 0 0 0 0 0
0 0 0 0 0 0 0 0 0 0 0 0 0 0 0 0 0 0 0 0 0 0 0 0 0 0 0 0 0 0 0 0 0 0 0
0 0 0 0 0 0 0 0 0 0 0 0 0 0 0 0 0 0 0 0 0 0 0 0 0 0 0 0 0 0 0 0 0 0 0
0 0 0 0 0 0 0 0 0 0 0 0 0 0 0 0 0 0 0 0 0 0 0 0 0 0 0 0 0 0 0 0 0 0 0
0 0 0 0 0 0 0 0 0 0 0 0 0 0 0 0 0 0 0 0 0 0 0 0 0 0 0 0 0 0 0 0 0 0 0
0 0 0 0 0 0 0 0 0 0 0 0 0 0 0 0 0 0 0 0 0 0 0 0 0 0 0 0 0 0 0 0 0 0 0
0 0 0 0 0 0 0 0 0 0 0 0 0 0 0 0 0 0 0 0 0 0 0 0 0 0 0 0 0 0 0 0 0 0 0
0 0 0 0 0 0 0 0 0 0 0 0 0 0 0 0 0 0 0 0 0 0 0 0 0 0 0 0 0 0 0 0 0 0 0
0 0 0 0 0 0 0 0 0 0 0 0 0 0 0 0 0 0 0 0 0 0 0 0 0 0 0 0 0 0 0 0 0 0 0
0 0 0 0 0 0 0 0 0 0 0 0 0 0 0 0 0 0 0 0 0 0 0 0 0 0 0 0 0 0 0 0 0 0 0
0 0 0 0 0 0 0 0 0 0 0 0 0 0 0 0 0 0 0 0 0 0 0 0 0 0 0 0 0 0 0 0 0 0 0
0 0 0 0 0 0 0 0 0 0 0 0 0 0 0 0 0 0 0 0 0 0 0 0 0 0 0 0 0 0 0 0 0 0 0
0 0 0 0 0 0 0 0 0 0 0 0 0 0 0 0 0 0 0 0 0 0 0 0 0 0 0 0 0 0 0 0 0 0 0
0 0 0 0 0 0 0 0 0 0 0 0 0 0 0 0 0 0 0 0 0 0 0 0 0 0 0 0 0 0 0 0 0 0 0
0 0 0 0 0 0 0 0 0 0 0 0 0 0 0 0 0 0 0 0 0 0 0 0 0 0 0 0 0 0 0 0 0 0 0
0 0 0 0 0
0 0 0 0 0 0 0 0 0 0 0 0 0 0 0 0 0 0 0 0 0 0 0 0 0 0 0 0 0 0 0 0 0 0 0
0 0 0 0 0 0 0 0 0 0 0 0 0 0 0 0 0 0 0 0 0 0 0 0 0 0 0 0 0 0 0 0 0 0 0
0 0 0 0 0 0 0 0 0 0 0 0 0 0 0 0 0 0 0 0 0 0 0 0 0 0 0 0 0 0 0 0 0 0 0
0 0 0 0 0 0 0 0 0 0 0 0 0 0 0 0 0 0 0 0 0 0 0 0 0 0 0 0 0 0 0 0 0 0 0
0 0 0 0 0 0 0 0 0 0 0 0 0 0 0 0 0 0 0 0 0 0 0 0 0 0 0 0 0 0 0 0 0 0 0
0 0 0 0 0 0 0 0 0 0 0 0 0 0 0 0 0 0 0 0 0 0 0 0 0 0 0 0 0 0 0 0 0 0 0
0 0 0 0 0 0 0 0 0 0 0 0 0 0 0 0 0 0 0 0 0 0 0 0 0 0 0 0 0 0 0 0 0 0 0
0 0 0 0 0 0 0 0 0 0 0 0 0 0 0 0 0 0 0 0 0 0 0 0 0 0 0 0 0 0 0 0 0 0 0
0 0 0 0 0 0 0 0 0 0 0 0 0 0 0 0 0 0 0 0 0 0 0 0 0 0 0 0 0 0 0 0 0 0 0
0 0 0 0 0 0 0 0 0 0 0 0 0 0 0 0 0 0 0 0 0 0 0 0 0 0 0 0 0 0 0 0 0 0 0
0 0 0 0 0 0 0 0 0 0 0 0 0 0 0 0 0 0 0 0 0 0 0 0 0 0 0 0 0 0 0 0 0 0 0
0 0 0 0 0 0 0 0 0 0 0 0 0 0 0 0 0 0 0 0 0 0 0 0 0 0 0 0 0 0 0 0 0 0 0
0 0 0 0 0 0 0 0 0 0 0 0 0 0 0 0 0 0 0 0 0 0 0 0 0 0 0 0 0 0 0 0 0 0 0
0 0 0 0 0 0 0 0 0 0 0 0 0 0 0 0 0 0 0 0 0 0 0 0 0 0 0 0 0 0 0 0 0 0 0
0 0 0 0 0 0 0 0 0 0 0 0 0 0 0 0 0 0 0 0 0 0 0 0 0 0 0 0 0 0 0 0 0 0 0
0 0 0 0 0 0 0 0 0 0 0 0 0 0 0 0 0 0 0 0 0 0 0 0 0 0 0 0 0 0 0 0 0 0 0
0 0 0 0 0 0 0 0 0 0 0 0 0 0 0 0 0 0 0 0 0 0 0 0 0 0 0 0 0 0 0 0 0 0 0
0 0 0 0 0
0 0 0 0 0 0 0 0 0 0 0 0 0 0 0 0 0 0 0 0 0 0 0 0 0 0 0 0 0 0 0 0 0 0 0
0 0 0 0 0 0 0 0 0 0 0 0 0 0 0 0 0 0 0 0 0 0 0 0 0 0 0 0 0 0 0 0 0 0 0
0 0 0 0 0 0 0 0 0 0 0 0 0 0 0 0 0 0 0 0 0 0 0 0 0 0 0 0 0 0 0 0 0 0 0
0 0 0 0 0 0 0 0 0 0 0 0 0 0 0 0 0 0 0 0 0 0 0 0 0 0 0 0 0 0 0 0 0 0 0
0 0 0 0 0 0 0 0 0 0 0 0 0 0 0 0 0 0 0 0 0 0 0 0 0 0 0 0 0 0 0 0 0 0 0
0 0 0 0 0 0 0 0 0 0 0 0 0 0 0 0 0 0 0 0 0 0 0 0 0 0 0 0 0 0 0 0 0 0 0
0 0 0 0 0 0 0 0 0 0 0 0 0 0 0 0 0 0 0 0 0 0 0 0 0 0 0 0 0 0 0 0 0 0 0
0 0 0 0 0 0 0 0 0 0 0 0 0 0 0 0 0 0 0 0 0 0 0 0 0 0 0 0 0 0 0 0 0 0 0
0 0 0 0 0 0 0 0 0 0 0 0 0 0 0 0 0 0 0 0 0 0 0 0 0 0 0 0 0 0 0 0 0 0 0
0 0 0 0 0 0 0 0 0 0 0 0 0 0 0 0 0 0 0 0 0 0 0 0 0 0 0 0 0 0 0 0 0 0 0
0 0 0 0 0 0 0 0 0 0 0 0 0 0 0 0 0 0 0 0 0 0 0 0 0 0 0 0 0 0 0 0 0 0 0
0 0 0 0 0 0 0 0 0 0 0 0 0 0 0 0 0 0 0 0 0 0 0 0 0 0 0 0 0 0 0 0 0 0 0
0 0 0 0 0 0 0 0 0 0 0 0 0 0 0 0 0 0 0 0 0 0 0 0 0 0 0 0 0 0 0 0 0 0 0
0 0 0 0 0 0 0 0 0 0 0 0 0 0 0 0 0 0 0 0 0 0 0 0 0 0 0 0 0 0 0 0 0 0 0
0 0 0 0 0 0 0 0 0 0 0 0 0 0 0 0 0 0 0 0 0 0 0 0 0 0 0 0 0 0 0 0 0 0 0
0 0 0 0 0 0 0 0 0 0 0 0 0 0 0 0 0 0 0 0 0 0 0 0 0 0 0 0 0 0 0 0 0 0 0
0 0 0 0 0 0 0 0 0 0 0 0 0 0 0 0 0 0 0 0 0 0 0 0 0 0 0 0 0 0 0 0 0 0 0
0 0 0 0 0
0 0 0 0 0 0 0 0 0 0 0 0 0 0 0 0 0 0 0 0 0 0 0 0 0 0 0 0 0 0 0 0 0 0 0
0 0 0 0 0 0 0 0 0 0 0 0 0 0 0 0 0 0 0 0 0 0 0 0 0 0 0 0 0 0 0 0 0 0 0
0 0 0 0 0 0 0 0 0 0 0 0 0 0 0 0 0 0 0 0 0 0 0 0 0 0 0 0 0 0 0 0 0 0 0
0 0 0 0 0 0 0 0 0 0 0 0 0 0 0 0 0 0 0 0 0 0 0 0 0 0 0 0 0 0 0 0 0 0 0
0 0 0 0 0 0 0 0 0 0 0 0 0 0 0 0 0 0 0 0 0 0 0 0 0 0 0 0 0 0 0 0 0 0 0
0 0 0 0 0 0 0 0 0 0 0 0 0 0 0 0 0 0 0 0 0 0 0 0 0 0 0 0 0 0 0 0 0 0 0
0 0 0 0 0 0 0 0 0 0 0 0 0 0 0 0 0 0 0 0 0 0 0 0 0 0 0 0 0 0 0 0 0 0 0
0 0 0 0 0 0 0 0 0 0 0 0 0 0 0 0 0 0 0 0 0 0 0 0 0 0 0 0 0 0 0 0 0 0 0
0 0 0 0 0 0 0 0 0 0 0 0 0 0 0 0 0 0 0 0 0 0 0 0 0 0 0 0 0 0 0 0 0 0 0
0 0 0 0 0 0 0 0 0 0 0 0 0 0 0 0 0 0 0 0 0 0 0 0 0 0 0 0 0 0 0 0 0 0 0
0 0 0 0 0 0 0 0 0 0 0 0 0 0 0 0 0 0 0 0 0 0 0 0 0 0 0 0 0 0 0 0 0 0 0
0 0 0 0 0 0 0 0 0 0 0 0 0 0 0 0 0 0 0 0 0 0 0 0 0 0 0 0 0 0 0 0 0 0 0
0 0 0 0 0 0 0 0 0 0 0 0 0 0 0 0 0 0 0 0 0 0 0 0 0 0 0 0 0 0 0 0 0 0 0
0 0 0 0 0 0 0 0 0 0 0 0 0 0 0 0 0 0 0 0 0 0 0 0 0 0 0 0 0 0 0 0 0 0 0
0 0 0 0 0 0 0 0 0 0 0 0 0 0 0 0 0 0 0 0 0 0 0 0 0 0 0 0 0 0 0 0 0 0 0
0 0 0 0 0 0 0 0 0 0 0 0 0 0 0 0 0 0 0 0 0 0 0 0 0 0 0 0 0 0 0 0 0 0 0
0 0 0 0 0 0 0 0 0 0 0 0 0 0 0 0 0 0 0 0 0 0 0 0 0 0 0 0 0 0 0 0 0 0 0
0 0 0 0 0
0 0 0 0 0 0 0 0 0 0 0 0 0 0 0 0 0 0 0 0 0 0 0 0 0 0 0 0 0 0 0 0 0 0 0
0 0 0 0 0 0 0 0 0 0 0 0 0 0 0 0 0 0 0 0 0 0 0 0 0 0 0 0 0 0 0 0 0 0 0
0 0 0 0 0 0 0 0 0 0 0 0 0 0 0 0 0 0 0 0 0 0 0 0 0 0 0 0 0 0 0 0 0 0 0
0 0 0 0 0 0 0 0 0 0 0 0 0 0 0 0 0 0 0 0 0 0 0 0 0 0 0 0 0 0 0 0 0 0 0
0 0 0 0 0 0 0 0 0 0 0 0 0 0 0 0 0 0 0 0 0 0 0 0 0 0 0 0 0 0 0 0 0 0 0
0 0 0 0 0 0 0 0 0 0 0 0 0 0 0 0 0 0 0 0 0 0 0 0 0 0 0 0 0 0 0 0 0 0 0
0 0 0 0 0 0 0 0 0 0 0 0 0 0 0 0 0 0 0 0 0 0 0 0 0 0 0 0 0 0 0 0 0 0 0
0 0 0 0 0 0 0 0 0 0 0 0 0 0 0 0 0 0 0 0 0 0 0 0 0 0 0 0 0 0 0 0 0 0 0
0 0 0 0 0 0 0 0 0 0 0 0 0 0 0 0 0 0 0 0 0 0 0 0 0 0 0 0 0 0 0 0 0 0 0
0 0 0 0 0 0 0 0 0 0 0 0 0 0 0 0 0 0 0 0 0 0 0 0 0 0 0 0 0 0 0 0 0 0 0
0 0 0 0 0 0 0 0 0 0 0 0 0 0 0 0 0 0 0 0 0 0 0 0 0 0 0 0 0 0 0 0 0 0 0
0 0 0 0 0 0 0 0 0 0 0 0 0 0 0 0 0 0 0 0 0 0 0 0 0 0 0 0 0 0 0 0 0 0 0
0 0 0 0 0 0 0 0 0 0 0 0 0 0 0 0 0 0 0 0 0 0 0 0 0 0 0 0 0 0 0 0 0 0 0
0 0 0 0 0 0 0 0 0 0 0 0 0 0 0 0 0 0 0 0 0 0 0 0 0 0 0 0 0 0 0 0 0 0 0
0 0 0 0 0 0 0 0 0 0 0 0 0 0 0 0 0 0 0 0 0 0 0 0 0 0 0 0 0 0 0 0 0 0 0
0 0 0 0 0 0 0 0 0 0 0 0 0 0 0 0 0 0 0 0 0 0 0 0 0 0 0 0 0 0 0 0 0 0 0
0 0 0 0 0 0 0 0 0 0 0 0 0 0 0 0 0 0 0 0 0 0 0 0 0 0 0 0 0 0 0 0 0 0 0
0 0 0 0 0
0 0 0 0 0 0 0 0 0 0 0 0 0 0 0 0 0 0 0 0 0 0 0 0 0 0 0 0 0 0 0 0 0 0 0
0 0 0 0 0 0 0 0 0 0 0 0 0 0 0 0 0 0 0 0 0 0 0 0 0 0 0 0 0 0 0 0 0 0 0
0 0 0 0 0 0 0 0 0 0 0 0 0 0 0 0 0 0 0 0 0 0 0 0 0 0 0 0 0 0 0 0 0 0 0
0 0 0 0 0 0 0 0 0 0 0 0 0 0 0 0 0 0 0 0 0 0 0 0 0 0 0 0 0 0 0 0 0 0 0
0 0 0 0 0 0 0 0 0 0 0 0 0 0 0 0 0 0 0 0 0 0 0 0 0 0 0 0 0 0 0 0 0 0 0
0 0 0 0 0 0 0 0 0 0 0 0 0 0 0 0 0 0 0 0 0 0 0 0 0 0 0 0 0 0 0 0 0 0 0
0 0 0 0 0 0 0 0 0 0 0 0 0 0 0 0 0 0 0 0 0 0 0 0 0 0 0 0 0 0 0 0 0 0 0
0 0 0 0 0 0 0 0 0 0 0 0 0 0 0 0 0 0 0 0 0 0 0 0 0 0 0 0 0 0 0 0 0 0 0
0 0 0 0 0 0 0 0 0 0 0 0 0 0 0 0 0 0 0 0 0 0 0 0 0 0 0 0 0 0 0 0 0 0 0
0 0 0 0 0 0 0 0 0 0 0 0 0 0 0 0 0 0 0 0 0 0 0 0 0 0 0 0 0 0 0 0 0 0 0
0 0 0 0 0 0 0 0 0 0 0 0 0 0 0 0 0 0 0 0 0 0 0 0 0 0 0 0 0 0 0 0 0 0 0
0 0 0 0 0 0 0 0 0 0 0 0 0 0 0 0 0 0 0 0 0 0 0 0 0 0 0 0 0 0 0 0 0 0 0
0 0 0 0 0 0 0 0 0 0 0 0 0 0 0 0 0 0 0 0 0 0 0 0 0 0 0 0 0 0 0 0 0 0 0
0 0 0 0 0 0 0 0 0 0 0 0 0 0 0 0 0 0 0 0 0 0 0 0 0 0 0 0 0 0 0 0 0 0 0
0 0 0 0 0 0 0 0 0 0 0 0 0 0 0 0 0 0 0 0 0 0 0 0 0 0 0 0 0 0 0 0 0 0 0
0 0 0 0 0 0 0 0 0 0 0 0 0 0 0 0 0 0 0 0 0 0 0 0 0 0 0 0 0 0 0 0 0 0 0
0 0 0 0 0 0 0 0 0 0 0 0 0 0 0 0 0 0 0 0 0 0 0 0 0 0 0 0 0 0 0 0 0 0 0
0 0 0 0 0
0 0 0 0 0 0 0 0 0 0 0 0 0 0 0 0 0 0 0 0 0 0 0 0 0 0 0 0 0 0 0 0 0 0 0
0 0 0 0 0 0 0 0 0 0 0 0 0 0 0 0 0 0 0 0 0 0 0 0 0 0 0 0 0 0 0 0 0 0 0
0 0 0 0 0 0 0 0 0 0 0 0 0 0 0 0 0 0 0 0 0 0 0 0 0 0 0 0 0 0 0 0 0 0 0
0 0 0 0 0 0 0 0 0 0 0 0 0 0 0 0 0 0 0 0 0 0 0 0 0 0 0 0 0 0 0 0 0 0 0
0 0 0 0 0 0 0 0 0 0 0 0 0 0 0 0 0 0 0 0 0 0 0 0 0 0 0 0 0 0 0 0 0 0 0
0 0 0 0 0 0 0 0 0 0 0 0 0 0 0 0 0 0 0 0 0 0 0 0 0 0 0 0 0 0 0 0 0 0 0
0 0 0 0 0 0 0 0 0 0 0 0 0 0 0 0 0 0 0 0 0 0 0 0 0 0 0 0 0 0 0 0 0 0 0
0 0 0 0 0 0 0 0 0 0 0 0 0 0 0 0 0 0 0 0 0 0 0 0 0 0 0 0 0 0 0 0 0 0 0
0 0 0 0 0 0 0 0 0 0 0 0 0 0 0 0 0 0 0 0 0 0 0 0 0 0 0 0 0 0 0 0 0 0 0
0 0 0 0 0 0 0 0 0 0 0 0 0 0 0 0 0 0 0 0 0 0 0 0 0 0 0 0 0 0 0 0 0 0 0
0 0 0 0 0 0 0 0 0 0 0 0 0 0 0 0 0 0 0 0 0 0 0 0 0 0 0 0 0 0 0 0 0 0 0
0 0 0 0 0 0 0 0 0 0 0 0 0 0 0 0 0 0 0 0 0 0 0 0 0 0 0 0 0 0 0 0 0 0 0
0 0 0 0 0 0 0 0 0 0 0 0 0 0 0 0 0 0 0 0 0 0 0 0 0 0 0 0 0 0 0 0 0 0 0
0 0 0 0 0 0 0 0 0 0 0 0 0 0 0 0 0 0 0 0 0 0 0 0 0 0 0 0 0 0 0 0 0 0 0
0 0 0 0 0 0 0 0 0 0 0 0 0 0 0 0 0 0 0 0 0 0 0 0 0 0 0 0 0 0 0 0 0 0 0
0 0 0 0 0 0 0 0 0 0 0 0 0 0 0 0 0 0 0 0 0 0 0 0 0 0 0 0 0 0 0 0 0 0 0
0 0 0 0 0 0 0 0 0 0 0 0 0 0 0 0 0 0 0 0 0 0 0 0 0 0 0 0 0 0 0 0 0 0 0
0 0 0 0 0
0 0 0 0 0 0 0 0 0 0 0 0 0 0 0 0 0 0 0 0 0 0 0 0 0 0 0 0 0 0 0 0 0 0 0
0 0 0 0 0 0 0 0 0 0 0 0 0 0 0 0 0 0 0 0 0 0 0 0 0 0 0 0 0 0 0 0 0 0 0
0 0 0 0 0 0 0 0 0 0 0 0 0 0 0 0 0 0 0 0 0 0 0 0 0 0 0 0 0 0 0 0 0 0 0
0 0 0 0 0 0 0 0 0 0 0 0 0 0 0 0 0 0 0 0 0 0 0 0 0 0 0 0 0 0 0 0 0 0 0
0 0 0 0 0 0 0 0 0 0 0 0 0 0 0 0 0 0 0 0 0 0 0 0 0 0 0 0 0 0 0 0 0 0 0
0 0 0 0 0 0 0 0 0 0 0 0 0 0 0 0 0 0 0 0 0 0 0 0 0 0 0 0 0 0 0 0 0 0 0
0 0 0 0 0 0 0 0 0 0 0 0 0 0 0 0 0 0 0 0 0 0 0 0 0 0 0 0 0 0 0 0 0 0 0
0 0 0 0 0 0 0 0 0 0 0 0 0 0 0 0 0 0 0 0 0 0 0 0 0 0 0 0 0 0 0 0 0 0 0
0 0 0 0 0 0 0 0 0 0 0 0 0 0 0 0 0 0 0 0 0 0 0 0 0 0 0 0 0 0 0 0 0 0 0
0 0 0 0 0 0 0 0 0 0 0 0 0 0 0 0 0 0 0 0 0 0 0 0 0 0 0 0 0 0 0 0 0 0 0
0 0 0 0 0 0 0 0 0 0 0 0 0 0 0 0 0 0 0 0 0 0 0 0 0 0 0 0 0 0 0 0 0 0 0
0 0 0 0 0 0 0 0 0 0 0 0 0 0 0 0 0 0 0 0 0 0 0 0 0 0 0 0 0 0 0 0 0 0 0
0 0 0 0 0 0 0 0 0 0 0 0 0 0 0 0 0 0 0 0 0 0 0 0 0 0 0 0 0 0 0 0 0 0 0
0 0 0 0 0 0 0 0 0 0 0 0 0 0 0 0 0 0 0 0 0 0 0 0 0 0 0 0 0 0 0 0 0 0 0
0 0 0 0 0 0 0 0 0 0 0 0 0 0 0 0 0 0 0 0 0 0 0 0 0 0 0 0 0 0 0 0 0 0 0
0 0 0 0 0 0 0 0 0 0 0 0 0 0 0 0 0 0 0 0 0 0 0 0 0 0 0 0 0 0 0 0 0 0 0
0 0 0 0 0 0 0 0 0 0 0 0 0 0 0 0 0 0 0 0 0 0 0 0 0 0 0 0 0 0 0 0 0 0 0
0 0 0 0 0
0 0 0 0 0 0 0 0 0 0 0 0 0 0 0 0 0 0 0 0 0 0 0 0 0 0 0 0 0 0 0 0 0 0 0
0 0 0 0 0 0 0 0 0 0 0 0 0 0 0 0 0 0 0 0 0 0 0 0 0 0 0 0 0 0 0 0 0 0 0
0 0 0 0 0 0 0 0 0 0 0 0 0 0 0 0 0 0 0 0 0 0 0 0 0 0 0 0 0 0 0 0 0 0 0
0 0 0 0 0 0 0 0 0 0 0 0 0 0 0 0 0 0 0 0 0 0 0 0 0 0 0 0 0 0 0 0 0 0 0
0 0 0 0 0 0 0 0 0 0 0 0 0 0 0 0 0 0 0 0 0 0 0 0 0 0 0 0 0 0 0 0 0 0 0
0 0 0 0 0 0 0 0 0 0 0 0 0 0 0 0 0 0 0 0 0 0 0 0 0 0 0 0 0 0 0 0 0 0 0
0 0 0 0 0 0 0 0 0 0 0 0 0 0 0 0 0 0 0 0 0 0 0 0 0 0 0 0 0 0 0 0 0 0 0
0 0 0 0 0 0 0 0 0 0 0 0 0 0 0 0 0 0 0 0 0 0 0 0 0 0 0 0 0 0 0 0 0 0 0
0 0 0 0 0 0 0 0 0 0 0 0 0 0 0 0 0 0 0 0 0 0 0 0 0 0 0 0 0 0 0 0 0 0 0
0 0 0 0 0 0 0 0 0 0 0 0 0 0 0 0 0 0 0 0 0 0 0 0 0 0 0 0 0 0 0 0 0 0 0
0 0 0 0 0 0 0 0 0 0 0 0 0 0 0 0 0 0 0 0 0 0 0 0 0 0 0 0 0 0 0 0 0 0 0
0 0 0 0 0 0 0 0 0 0 0 0 0 0 0 0 0 0 0 0 0 0 0 0 0 0 0 0 0 0 0 0 0 0 0
0 0 0 0 0 0 0 0 0 0 0 0 0 0 0 0 0 0 0 0 0 0 0 0 0 0 0 0 0 0 0 0 0 0 0
0 0 0 0 0 0 0 0 0 0 0 0 0 0 0 0 0 0 0 0 0 0 0 0 0 0 0 0 0 0 0 0 0 0 0
0 0 0 0 0 0 0 0 0 0 0 0 0 0 0 0 0 0 0 0 0 0 0 0 0 0 0 0 0 0 0 0 0 0 0
0 0 0 0 0 0 0 0 0 0 0 0 0 0 0 0 0 0 0 0 0 0 0 0 0 0 0 0 0 0 0 0 0 0 0
0 0 0 0 0 0 0 0 0 0 0 0 0 0 0 0 0 0 0 0 0 0 0 0 0 0 0 0 0 0 0 0 0 0 0
0 0 0 0 0
0 0 0 0 0 0 0 0 0 0 0 0 0 0 0 0 0 0 0 0 0 0 0 0 0 0 0 0 0 0 0 0 0 0 0
0 0 0 0 0 0 0 0 0 0 0 0 0 0 0 0 0 0 0 0 0 0 0 0 0 0 0 0 0 0 0 0 0 0 0
0 0 0 0 0 0 0 0 0 0 0 0 0 0 0 0 0 0 0 0 0 0 0 0 0 0 0 0 0 0 0 0 0 0 0
0 0 0 0 0 0 0 0 0 0 0 0 0 0 0 0 0 0 0 0 0 0 0 0 0 0 0 0 0 0 0 0 0 0 0
0 0 0 0 0 0 0 0 0 0 0 0 0 0 0 0 0 0 0 0 0 0 0 0 0 0 0 0 0 0 0 0 0 0 0
0 0 0 0 0 0 0 0 0 0 0 0 0 0 0 0 0 0 0 0 0 0 0 0 0 0 0 0 0 0 0 0 0 0 0
0 0 0 0 0 0 0 0 0 0 0 0 0 0 0 0 0 0 0 0 0 0 0 0 0 0 0 0 0 0 0 0 0 0 0
0 0 0 0 0 0 0 0 0 0 0 0 0 0 0 0 0 0 0 0 0 0 0 0 0 0 0 0 0 0 0 0 0 0 0
0 0 0 0 0 0 0 0 0 0 0 0 0 0 0 0 0 0 0 0 0 0 0 0 0 0 0 0 0 0 0 0 0 0 0
0 0 0 0 0 0 0 0 0 0 0 0 0 0 0 0 0 0 0 0 0 0 0 0 0 0 0 0 0 0 0 0 0 0 0
0 0 0 0 0 0 0 0 0 0 0 0 0 0 0 0 0 0 0 0 0 0 0 0 0 0 0 0 0 0 0 0 0 0 0
0 0 0 0 0 0 0 0 0 0 0 0 0 0 0 0 0 0 0 0 0 0 0 0 0 0 0 0 0 0 0 0 0 0 0
0 0 0 0 0 0 0 0 0 0 0 0 0 0 0 0 0 0 0 0 0 0 0 0 0 0 0 0 0 0 0 0 0 0 0
0 0 0 0 0 0 0 0 0 0 0 0 0 0 0 0 0 0 0 0 0 0 0 0 0 0 0 0 0 0 0 0 0 0 0
0 0 0 0 0 0 0 0 0 0 0 0 0 0 0 0 0 0 0 0 0 0 0 0 0 0 0 0 0 0 0 0 0 0 0
0 0 0 0 0 0 0 0 0 0 0 0 0 0 0 0 0 0 0 0 0 0 0 0 0 0 0 0 0 0 0 0 0 0 0
0 0 0 0 0 0 0 0 0 0 0 0 0 0 0 0 0 0 0 0 0 0 0 0 0 0 0 0 0 0 0 0 0 0 0
0 0 0 0 0
0 0 0 0 0 0 0 0 0 0 0 0 0 0 0 0 0 0 0 0 0 0 0 0 0 0 0 0 0 0 0 0 0 0 0
0 0 0 0 0 0 0 0 0 0 0 0 0 0 0 0 0 0 0 0 0 0 0 0 0 0 0 0 0 0 0 0 0 0 0
0 0 0 0 0 0 0 0 0 0 0 0 0 0 0 0 0 0 0 0 0 0 0 0 0 0 0 0 0 0 0 0 0 0 0
0 0 0 0 0 0 0 0 0 0 0 0 0 0 0 0 0 0 0 0 0 0 0 0 0 0 0 0 0 0 0 0 0 0 0
0 0 0 0 0 0 0 0 0 0 0 0 0 0 0 0 0 0 0 0 0 0 0 0 0 0 0 0 0 0 0 0 0 0 0
0 0 0 0 0 0 0 0 0 0 0 0 0 0 0 0 0 0 0 0 0 0 0 0 0 0 0 0 0 0 0 0 0 0 0
0 0 0 0 0 0 0 0 0 0 0 0 0 0 0 0 0 0 0 0 0 0 0 0 0 0 0 0 0 0 0 0 0 0 0
0 0 0 0 0 0 0 0 0 0 0 0 0 0 0 0 0 0 0 0 0 0 0 0 0 0 0 0 0 0 0 0 0 0 0
0 0 0 0 0 0 0 0 0 0 0 0 0 0 0 0 0 0 0 0 0 0 0 0 0 0 0 0 0 0 0 0 0 0 0
0 0 0 0 0 0 0 0 0 0 0 0 0 0 0 0 0 0 0 0 0 0 0 0 0 0 0 0 0 0 0 0 0 0 0
0 0 0 0 0 0 0 0 0 0 0 0 0 0 0 0 0 0 0 0 0 0 0 0 0 0 0 0 0 0 0 0 0 0 0
0 0 0 0 0 0 0 0 0 0 0 0 0 0 0 0 0 0 0 0 0 0 0 0 0 0 0 0 0 0 0 0 0 0 0
0 0 0 0 0 0 0 0 0 0 0 0 0 0 0 0 0 0 0 0 0 0 0 0 0 0 0 0 0 0 0 0 0 0 0
0 0 0 0 0 0 0 0 0 0 0 0 0 0 0 0 0 0 0 0 0 0 0 0 0 0 0 0 0 0 0 0 0 0 0
0 0 0 0 0 0 0 0 0 0 0 0 0 0 0 0 0 0 0 0 0 0 0 0 0 0 0 0 0 0 0 0 0 0 0
0 0 0 0 0 0 0 0 0 0 0 0 0 0 0 0 0 0 0 0 0 0 0 0 0 0 0 0 0 0 0 0 0 0 0
0 0 0 0 0 0 0 0 0 0 0 0 0 0 0 0 0 0 0 0 0 0 0 0 0 0 0 0 0 0 0 0 0 0 0
0 0 0 0 0
0 0 0 0 0 0 0 0 0 0 0 0 0 0 0 0 0 0 0 0 0 0 0 0 0 0 0 0 0 0 0 0 0 0 0
0 0 0 0 0 0 0 0 0 0 0 0 0 0 0 0 0 0 0 0 0 0 0 0 0 0 0 0 0 0 0 0 0 0 0
0 0 0 0 0 0 0 0 0 0 0 0 0 0 0 0 0 0 0 0 0 0 0 0 0 0 0 0 0 0 0 0 0 0 0
0 0 0 0 0 0 0 0 0 0 0 0 0 0 0 0 0 0 0 0 0 0 0 0 0 0 0 0 0 0 0 0 0 0 0
0 0 0 0 0 0 0 0 0 0 0 0 0 0 0 0 0 0 0 0 0 0 0 0 0 0 0 0 0 0 0 0 0 0 0
0 0 0 0 0 0 0 0 0 0 0 0 0 0 0 0 0 0 0 0 0 0 0 0 0 0 0 0 0 0 0 0 0 0 0
0 0 0 0 0 0 0 0 0 0 0 0 0 0 0 0 0 0 0 0 0 0 0 0 0 0 0 0 0 0 0 0 0 0 0
0 0 0 0 0 0 0 0 0 0 0 0 0 0 0 0 0 0 0 0 0 0 0 0 0 0 0 0 0 0 0 0 0 0 0
0 0 0 0 0 0 0 0 0 0 0 0 0 0 0 0 0 0 0 0 0 0 0 0 0 0 0 0 0 0 0 0 0 0 0
0 0 0 0 0 0 0 0 0 0 0 0 0 0 0 0 0 0 0 0 0 0 0 0 0 0 0 0 0 0 0 0 0 0 0
0 0 0 0 0 0 0 0 0 0 0 0 0 0 0 0 0 0 0 0 0 0 0 0 0 0 0 0 0 0 0 0 0 0 0
0 0 0 0 0 0 0 0 0 0 0 0 0 0 0 0 0 0 0 0 0 0 0 0 0 0 0 0 0 0 0 0 0 0 0
0 0 0 0 0 0 0 0 0 0 0 0 0 0 0 0 0 0 0 0 0 0 0 0 0 0 0 0 0 0 0 0 0 0 0
0 0 0 0 0 0 0 0 0 0 0 0 0 0 0 0 0 0 0 0 0 0 0 0 0 0 0 0 0 0 0 0 0 0 0
0 0 0 0 0 0 0 0 0 0 0 0 0 0 0 0 0 0 0 0 0 0 0 0 0 0 0 0 0 0 0 0 0 0 0
0 0 0 0 0 0 0 0 0 0 0 0 0 0 0 0 0 0 0 0 0 0 0 0 0 0 0 0 0 0 0 0 0 0 0
0 0 0 0 0 0 0 0 0 0 0 0 0 0 0 0 0 0 0 0 0 0 0 0 0 0 0 0 0 0 0 0 0 0 0
0 0 0 0 0
0 0 0 0 0 0 0 0 0 0 0 0 0 0 0 0 0 0 0 0 0 0 0 0 0 0 0 0 0 0 0 0 0 0 0
0 0 0 0 0 0 0 0 0 0 0 0 0 0 0 0 0 0 0 0 0 0 0 0 0 0 0 0 0 0 0 0 0 0 0
0 0 0 0 0 0 0 0 0 0 0 0 0 0 0 0 0 0 0 0 0 0 0 0 0 0 0 0 0 0 0 0 0 0 0
0 0 0 0 0 0 0 0 0 0 0 0 0 0 0 0 0 0 0 0 0 0 0 0 0 0 0 0 0 0 0 0 0 0 0
0 0 0 0 0 0 0 0 0 0 0 0 0 0 0 0 0 0 0 0 0 0 0 0 0 0 0 0 0 0 0 0 0 0 0
0 0 0 0 0 0 0 0 0 0 0 0 0 0 0 0 0 0 0 0 0 0 0 0 0 0 0 0 0 0 0 0 0 0 0
0 0 0 0 0 0 0 0 0 0 0 0 0 0 0 0 0 0 0 0 0 0 0 0 0 0 0 0 0 0 0 0 0 0 0
0 0 0 0 0 0 0 0 0 0 0 0 0 0 0 0 0 0 0 0 0 0 0 0 0 0 0 0 0 0 0 0 0 0 0
0 0 0 0 0 0 0 0 0 0 0 0 0 0 0 0 0 0 0 0 0 0 0 0 0 0 0 0 0 0 0 0 0 0 0
0 0 0 0 0 0 0 0 0 0 0 0 0 0 0 0 0 0 0 0 0 0 0 0 0 0 0 0 0 0 0 0 0 0 0
0 0 0 0 0 0 0 0 0 0 0 0 0 0 0 0 0 0 0 0 0 0 0 0 0 0 0 0 0 0 0 0 0 0 0
0 0 0 0 0 0 0 0 0 0 0 0 0 0 0 0 0 0 0 0 0 0 0 0 0 0 0 0 0 0 0 0 0 0 0
0 0 0 0 0 0 0 0 0 0 0 0 0 0 0 0 0 0 0 0 0 0 0 0 0 0 0 0 0 0 0 0 0 0 0
0 0 0 0 0 0 0 0 0 0 0 0 0 0 0 0 0 0 0 0 0 0 0 0 0 0 0 0 0 0 0 0 0 0 0
0 0 0 0 0 0 0 0 0 0 0 0 0 0 0 0 0 0 0 0 0 0 0 0 0 0 0 0 0 0 0 0 0 0 0
0 0 0 0 0 0 0 0 0 0 0 0 0 0 0 0 0 0 0 0 0 0 0 0 0 0 0 0 0 0 0 0 0 0 0
0 0 0 0 0 0 0 0 0 0 0 0 0 0 0 0 0 0 0 0 0 0 0 0 0 0 0 0 0 0 0 0 0 0 0
0 0 0 0 0
1 1 2 1 1 2 1 1 2 1 1 2 1 1 2 1 1 2 1 1 2 1 1 2 1 1 2 1 1 2 1 1 2 1 1
2 1 1 2 1 1 2 1 1 2 1 1 2 1 1 2 1 1 2 1 1 2 1 1 2 1 1 2 1 1 2 1 1 2 1
1 2 1 1 2 1 1 2 1 1 2 1 1 2 1 1 2 1 1 2 1 1 2 1 1 2 1 1 2 1 1 2 1 1 2
1 1 2 1 1 2 1 1 2 1 1 2 1 1 2 1 1 2 1 1 2 1 1 2 1 1 2 1 1 2 1 1 2 1 1
2 1 1 2 1 1 2 1 1 2 1 1 2 1 1 2 1 1 2 1 1 2 1 1 2 1 1 2 1 1 2 1 1 2 1
1 2 1 1 2 1 1 2 1 1 2 1 1 2 1 1 2 1 1 2 1 1 2 1 1 2 1 1 2 1 1 2 1 1 2
1 1 2 1 1 2 1 1 2 1 1 2 1 1 2 1 1 2 1 1 2 1 1 2 1 1 2 1 1 2 1 1 2 1 1
2 1 1 2 1 1 2 1 1 2 1 1 2 1 1 2 1 1 2 1 1 2 1 1 2 1 1 2 1 1 2 1 1 2 1
1 2 1 1 2 1 1 2 1 1 2 1 1 2 1 1 2 1 1 2 1 1 2 1 1 2 1 1 2 1 1 2 1 1 2
1 1 2 1 1 2 1 1 2 1 1 2 1 1 2 1 1 2 1 1 2 1 1 2 1 1 2 1 1 2 1 1 2 1 1
2 1 1 2 1 1 2 1 1 2 1 1 2 1 1 2 1 1 2 1 1 2 1 1 2 1 1 2 1 1 2 1 1 2 1
1 2 1 1 2 1 1 2 1 1 2 1 1 2 1 1 2 1 1 2 1 1 2 1 1 2 1 1 2 1 1 2 1 1 2
1 1 2 1 1 2 1 1 2 1 1 2 1 1 2 1 1 2 1 1 2 1 1 2 1 1 2 1 1 2 1 1 2 1 1
2 1 1 2 1 1 2 1 1 2 1 1 2 1 1 2 1 1 2 1 1 2 1 1 2 1 1 2 1 1 2 1 1 2 1
1 2 1 1 2 1 1 2 1 1 2 1 1 2 1 1 2 1 1 2 1 1 2 1 1 2 1 1 2 1 1 2 1 1 2
1 1 2 1 1 2 1 1 2 1 1 2 1 1 2 1 1 2 1 1 2 1 1 2 1 1 2 1 1 2 1 1 2 1 1
2 1 1 2 1 1 2 1 1 2 1 1 2 1 1 2 1 1 2 1 1 2 1 1 2 1 1 2 1 1 2 1 1 2 1
1 2 1 1 2
1 1 2 1 1 2 1 1 2 1 1 2 1 1 2 1 1 2 1 1 2 1 1 2 1 1 2 1 1 2 1 1 2 1 1
2 1 1 2 1 1 2 1 1 2 1 1 2 1 1 2 1 1 2 1 1 2 1 1 2 1 1 2 1 1 2 1 1 2 1
1 2 1 1 2 1 1 2 1 1 2 1 1 2 1 1 2 1 1 2 1 1 2 1 1 2 1 1 2 1 1 2 1 1 2
1 1 2 1 1 2 1 1 2 1 1 2 1 1 2 1 1 2 1 1 2 1 1 2 1 1 2 1 1 2 1 1 2 1 1
2 1 1 2 1 1 2 1 1 2 1 1 2 1 1 2 1 1 2 1 1 2 1 1 2 1 1 2 1 1 2 1 1 2 1
1 2 1 1 2 1 1 2 1 1 2 1 1 2 1 1 2 1 1 2 1 1 2 1 1 2 1 1 2 1 1 2 1 1 2
1 1 2 1 1 2 1 1 2 1 1 2 1 1 2 1 1 2 1 1 2 1 1 2 1 1 2 1 1 2 1 1 2 1 1
2 1 1 2 1 1 2 1 1 2 1 1 2 1 1 2 1 1 2 1 1 2 1 1 2 1 1 2 1 1 2 1 1 2 1
1 2 1 1 2 1 1 2 1 1 2 1 1 2 1 1 2 1 1 2 1 1 2 1 1 2 1 1 2 1 1 2 1 1 2
1 1 2 1 1 2 1 1 2 1 1 2 1 1 2 1 1 2 1 1 2 1 1 2 1 1 2 1 1 2 1 1 2 1 1
2 1 1 2 1 1 2 1 1 2 1 1 2 1 1 2 1 1 2 1 1 2 1 1 2 1 1 2 1 1 2 1 1 2 1
1 2 1 1 2 1 1 2 1 1 2 1 1 2 1 1 2 1 1 2 1 1 2 1 1 2 1 1 2 1 1 2 1 1 2
1 1 2 1 1 2 1 1 2 1 1 2 1 1 2 1 1 2 1 1 2 1 1 2 1 1 2 1 1 2 1 1 2 1 1
2 1 1 2 1 1 2 1 1 2 1 1 2 1 1 2 1 1 2 1 1 2 1 1 2 1 1 2 1 1 2 1 1 2 1
1 2 1 1 2 1 1 2 1 1 2 1 1 2 1 1 2 1 1 2 1 1 2 1 1 2 1 1 2 1 1 2 1 1 2
1 1 2 1 1 2 1 1 2 1 1 2 1 1 2 1 1 2 1 1 2 1 1 2 1 1 2 1 1 2 1 1 2 1 1
2 1 1 2 1 1 2 1 1 2 1 1 2 1 1 2 1 1 2 1 1 2 1 1 2 1 1 2 1 1 2 1 1 2 1
1 2 1 1 2
2 2 3 2 2 3 2 2 3 2 2 3 2 2 3 2 2 3 2 2 3 2 2 3 2 2 3 2 2 3 2 2 3 2 2
3 2 2 3 2 2 3 2 2 3 2 2 3 2 2 3 2 2 3 2 2 3 2 2 3 2 2 3 2 2 3 2 2 3 2
2 3 2 2 3 2 2 3 2 2 3 2 2 3 2 2 3 2 2 3 2 2 3 2 2 3 2 2 3 2 2 3 2 2 3
2 2 3 2 2 3 2 2 3 2 2 3 2 2 3 2 2 3 2 2 3 2 2 3 2 2 3 2 2 3 2 2 3 2 2
3 2 2 3 2 2 3 2 2 3 2 2 3 2 2 3 2 2 3 2 2 3 2 2 3 2 2 3 2 2 3 2 2 3 2
2 3 2 2 3 2 2 3 2 2 3 2 2 3 2 2 3 2 2 3 2 2 3 2 2 3 2 2 3 2 2 3 2 2 3
2 2 3 2 2 3 2 2 3 2 2 3 2 2 3 2 2 3 2 2 3 2 2 3 2 2 3 2 2 3 2 2 3 2 2
3 2 2 3 2 2 3 2 2 3 2 2 3 2 2 3 2 2 3 2 2 3 2 2 3 2 2 3 2 2 3 2 2 3 2
2 3 2 2 3 2 2 3 2 2 3 2 2 3 2 2 3 2 2 3 2 2 3 2 2 3 2 2 3 2 2 3 2 2 3
2 2 3 2 2 3 2 2 3 2 2 3 2 2 3 2 2 3 2 2 3 2 2 3 2 2 3 2 2 3 2 2 3 2 2
3 2 2 3 2 2 3 2 2 3 2 2 3 2 2 3 2 2 3 2 2 3 2 2 3 2 2 3 2 2 3 2 2 3 2
2 3 2 2 3 2 2 3 2 2 3 2 2 3 2 2 3 2 2 3 2 2 3 2 2 3 2 2 3 2 2 3 2 2 3
2 2 3 2 2 3 2 2 3 2 2 3 2 2 3 2 2 3 2 2 3 2 2 3 2 2 3 2 2 3 2 2 3 2 2
3 2 2 3 2 2 3 2 2 3 2 2 3 2 2 3 2 2 3 2 2 3 2 2 3 2 2 3 2 2 3 2 2 3 2
2 3 2 2 3 2 2 3 2 2 3 2 2 3 2 2 3 2 2 3 2 2 3 2 2 3 2 2 3 2 2 3 2 2 3
2 2 3 2 2 3 2 2 3 2 2 3 2 2 3 2 2 3 2 2 3 2 2 3 2 2 3 2 2 3 2 2 3 2 2
3 2 2 3 2 2 3 2 2 3 2 2 3 2 2 3 2 2 3 2 2 3 2 2 3 2 2 3 2 2 3 2 2 3 2
2 3 2 2 3
2 2 3 2 2 3 2 2 3 2 2 3 2 2 3 2 2 3 2 2 3 2 2 3 2 2 3 2 2 3 2 2 3 2 2
3 2 2 3 2 2 3 2 2 3 2 2 3 2 2 3 2 2 3 2 2 3 2 2 3 2 2 3 2 2 3 2 2 3 2
2 3 2 2 3 2 2 3 2 2 3 2 2 3 2 2 3 2 2 3 2 2 3 2 2 3 2 2 3 2 2 3 2 2 3
2 2 3 2 2 3 2 2 3 2 2 3 2 2 3 2 2 3 2 2 3 2 2 3 2 2 3 2 2 3 2 2 3 2 2
3 2 2 3 2 2 3 2 2 3 2 2 3 2 2 3 2 2 3 2 2 3 2 2 3 2 2 3 2 2 3 2 2 3 2
2 3 2 2 3 2 2 3 2 2 3 2 2 3 2 2 3 2 2 3 2 2 3 2 2 3 2 2 3 2 2 3 2 2 3
2 2 3 2 2 3 2 2 3 2 2 3 2 2 3 2 2 3 2 2 3 2 2 3 2 2 3 2 2 3 2 2 3 2 2
3 2 2 3 2 2 3 2 2 3 2 2 3 2 2 3 2 2 3 2 2 3 2 2 3 2 2 3 2 2 3 2 2 3 2
2 3 2 2 3 2 2 3 2 2 3 2 2 3 2 2 3 2 2 3 2 2 3 2 2 3 2 2 3 2 2 3 2 2 3
2 2 3 2 2 3 2 2 3 2 2 3 2 2 3 2 2 3 2 2 3 2 2 3 2 2 3 2 2 3 2 2 3 2 2
3 2 2 3 2 2 3 2 2 3 2 2 3 2 2 3 2 2 3 2 2 3 2 2 3 2 2 3 2 2 3 2 2 3 2
2 3 2 2 3 2 2 3 2 2 3 2 2 3 2 2 3 2 2 3 2 2 3 2 2 3 2 2 3 2 2 3 2 2 3
2 2 3 2 2 3 2 2 3 2 2 3 2 2 3 2 2 3 2 2 3 2 2 3 2 2 3 2 2 3 2 2 3 2 2
3 2 2 3 2 2 3 2 2 3 2 2 3 2 2 3 2 2 3 2 2 3 2 2 3 2 2 3 2 2 3 2 2 3 2
2 3 2 2 3 2 2 3 2 2 3 2 2 3 2 2 3 2 2 3 2 2 3 2 2 3 2 2 3 2 2 3 2 2 3
2 2 3 2 2 3 2 2 3 2 2 3 2 2 3 2 2 3 2 2 3 2 2 3 2 2 3 2 2 3 2 2 3 2 2
3 2 2 3 2 2 3 2 2 3 2 2 3 2 2 3 2 2 3 2 2 3 2 2 3 2 2 3 2 2 3 2 2 3 2
2 3 2 2 3
2 2 3 2 2 3 2 2 3 2 2 3 2 2 3 2 2 3 2 2 3 2 2 3 2 2 3 2 2 3 2 2 3 2 2
3 2 2 3 2 2 3 2 2 3 2 2 3 2 2 3 2 2 3 2 2 3 2 2 3 2 2 3 2 2 3 2 2 3 2
2 3 2 2 3 2 2 3 2 2 3 2 2 3 2 2 3 2 2 3 2 2 3 2 2 3 2 2 3 2 2 3 2 2 3
2 2 3 2 2 3 2 2 3 2 2 3 2 2 3 2 2 3 2 2 3 2 2 3 2 2 3 2 2 3 2 2 3 2 2
3 2 2 3 2 2 3 2 2 3 2 2 3 2 2 3 2 2 3 2 2 3 2 2 3 2 2 3 2 2 3 2 2 3 2
2 3 2 2 3 2 2 3 2 2 3 2 2 3 2 2 3 2 2 3 2 2 3 2 2 3 2 2 3 2 2 3 2 2 3
2 2 3 2 2 3 2 2 3 2 2 3 2 2 3 2 2 3 2 2 3 2 2 3 2 2 3 2 2 3 2 2 3 2 2
3 2 2 3 2 2 3 2 2 3 2 2 3 2 2 3 2 2 3 2 2 3 2 2 3 2 2 3 2 2 3 2 2 3 2
2 3 2 2 3 2 2 3 2 2 3 2 2 3 2 2 3 2 2 3 2 2 3 2 2 3 2 2 3 2 2 3 2 2 3
2 2 3 2 2 3 2 2 3 2 2 3 2 2 3 2 2 3 2 2 3 2 2 3 2 2 3 2 2 3 2 2 3 2 2
3 2 2 3 2 2 3 2 2 3 2 2 3 2 2 3 2 2 3 2 2 3 2 2 3 2 2 3 2 2 3 2 2 3 2
2 3 2 2 3 2 2 3 2 2 3 2 2 3 2 2 3 2 2 3 2 2 3 2 2 3 2 2 3 2 2 3 2 2 3
2 2 3 2 2 3 2 2 3 2 2 3 2 2 3 2 2 3 2 2 3 2 2 3 2 2 3 2 2 3 2 2 3 2 2
3 2 2 3 2 2 3 2 2 3 2 2 3 2 2 3 2 2 3 2 2 3 2 2 3 2 2 3 2 2 3 2 2 3 2
2 3 2 2 3 2 2 3 2 2 3 2 2 3 2 2 3 2 2 3 2 2 3 2 2 3 2 2 3 2 2 3 2 2 3
2 2 3 2 2 3 2 2 3 2 2 3 2 2 3 2 2 3 2 2 3 2 2 3 2 2 3 2 2 3 2 2 3 2 2
3 2 2 3 2 2 3 2 2 3 2 2 3 2 2 3 2 2 3 2 2 3 2 2 3 2 2 3 2 2 3 2 2 3 2
2 3 2 2 3
2 2 3 2 2 3 2 2 3 2 2 3 2 2 3 2 2 3 2 2 3 2 2 3 2 2 3 2 2 3 2 2 3 2 2
3 2 2 3 2 2 3 2 2 3 2 2 3 2 2 3 2 2 3 2 2 3 2 2 3 2 2 3 2 2 3 2 2 3 2
2 3 2 2 3 2 2 3 2 2 3 2 2 3 2 2 3 2 2 3 2 2 3 2 2 3 2 2 3 2 2 3 2 2 3
2 2 3 2 2 3 2 2 3 2 2 3 2 2 3 2 2 3 2 2 3 2 2 3 2 2 3 2 2 3 2 2 3 2 2
3 2 2 3 2 2 3 2 2 3 2 2 3 2 2 3 2 2 3 2 2 3 2 2 3 2 2 3 2 2 3 2 2 3 2
2 3 2 2 3 2 2 3 2 2 3 2 2 3 2 2 3 2 2 3 2 2 3 2 2 3 2 2 3 2 2 3 2 2 3
2 2 3 2 2 3 2 2 3 2 2 3 2 2 3 2 2 3 2 2 3 2 2 3 2 2 3 2 2 3 2 2 3 2 2
3 2 2 3 2 2 3 2 2 3 2 2 3 2 2 3 2 2 3 2 2 3 2 2 3 2 2 3 2 2 3 2 2 3 2
2 3 2 2 3 2 2 3 2 2 3 2 2 3 2 2 3 2 2 3 2 2 3 2 2 3 2 2 3 2 2 3 2 2 3
2 2 3 2 2 3 2 2 3 2 2 3 2 2 3 2 2 3 2 2 3 2 2 3 2 2 3 2 2 3 2 2 3 2 2
3 2 2 3 2 2 3 2 2 3 2 2 3 2 2 3 2 2 3 2 2 3 2 2 3 2 2 3 2 2 3 2 2 3 2
2 3 2 2 3 2 2 3 2 2 3 2 2 3 2 2 3 2 2 3 2 2 3 2 2 3 2 2 3 2 2 3 2 2 3
2 2 3 2 2 3 2 2 3 2 2 3 2 2 3 2 2 3 2 2 3 2 2 3 2 2 3 2 2 3 2 2 3 2 2
3 2 2 3 2 2 3 2 2 3 2 2 3 2 2 3 2 2 3 2 2 3 2 2 3 2 2 3 2 2 3 2 2 3 2
2 3 2 2 3 2 2 3 2 2 3 2 2 3 2 2 3 2 2 3 2 2 3 2 2 3 2 2 3 2 2 3 2 2 3
2 2 3 2 2 3 2 2 3 2 2 3 2 2 3 2 2 3 2 2 3 2 2 3 2 2 3 2 2 3 2 2 3 2 2
3 2 2 3 2 2 3 2 2 3 2 2 3 2 2 3 2 2 3 2 2 3 2 2 3 2 2 3 2 2 3 2 2 3 2
2 3 2 2 3
2 2 4 2 2 4 2 2 4 2 2 4 2 2 4 2 2 4 2 2 4 2 2 4 2 2 4 2 2 4 2 2 4 2 2
4 2 2 4 2 2 4 2 2 4 2 2 4 2 2 4 2 2 4 2 2 4 2 2 4 2 2 4 2 2 4 2 2 4 2
2 4 2 2 4 2 2 4 2 2 4 2 2 4 2 2 4 2 2 4 2 2 4 2 2 4 2 2 4 2 2 4 2 2 4
2 2 4 2 2 4 2 2 4 2 2 4 2 2 4 2 2 4 2 2 4 2 2 4 2 2 4 2 2 4 2 2 4 2 2
4 2 2 4 2 2 4 2 2 4 2 2 4 2 2 4 2 2 4 2 2 4 2 2 4 2 2 4 2 2 4 2 2 4 2
2 4 2 2 4 2 2 4 2 2 4 2 2 4 2 2 4 2 2 4 2 2 4 2 2 4 2 2 4 2 2 4 2 2 4
2 2 4 2 2 4 2 2 4 2 2 4 2 2 4 2 2 4 2 2 4 2 2 4 2 2 4 2 2 4 2 2 4 2 2
4 2 2 4 2 2 4 2 2 4 2 2 4 2 2 4 2 2 4 2 2 4 2 2 4 2 2 4 2 2 4 2 2 4 2
2 4 2 2 4 2 2 4 2 2 4 2 2 4 2 2 4 2 2 4 2 2 4 2 2 4 2 2 4 2 2 4 2 2 4
2 2 4 2 2 4 2 2 4 2 2 4 2 2 4 2 2 4 2 2 4 2 2 4 2 2 4 2 2 4 2 2 4 2 2
4 2 2 4 2 2 4 2 2 4 2 2 4 2 2 4 2 2 4 2 2 4 2 2 4 2 2 4 2 2 4 2 2 4 2
2 4 2 2 4 2 2 4 2 2 4 2 2 4 2 2 4 2 2 4 2 2 4 2 2 4 2 2 4 2 2 4 2 2 4
2 2 4 2 2 4 2 2 4 2 2 4 2 2 4 2 2 4 2 2 4 2 2 4 2 2 4 2 2 4 2 2 4 2 2
4 2 2 4 2 2 4 2 2 4 2 2 4 2 2 4 2 2 4 2 2 4 2 2 4 2 2 4 2 2 4 2 2 4 2
2 4 2 2 4 2 2 4 2 2 4 2 2 4 2 2 4 2 2 4 2 2 4 2 2 4 2 2 4 2 2 4 2 2 4
2 2 4 2 2 4 2 2 4 2 2 4 2 2 4 2 2 3 2 2 3 2 2 3 2 2 3 2 2 3 2 2 3 2 2
3 2 2 3 2 2 3 2 2 3 2 2 3 2 2 3 2 2 3 2 2 3 2 2 3 2 2 3 2 2 3 2 2 3 2
2 3 2 2 3
2 2 4 2 2 4 2 2 4 2 2 4 2 2 4 2 2 4 2 2 4 2 2 4 2 2 4 2 2 4 2 2 4 2 2
4 2 2 4 2 2 4 2 2 4 2 2 4 2 2 4 2 2 4 2 2 4 2 2 4 2 2 4 2 2 4 2 2 4 2
2 4 2 2 4 2 2 4 2 2 4 2 2 4 2 2 4 2 2 4 2 2 4 2 2 4 2 2 4 2 2 4 2 2 4
2 2 4 2 2 4 2 2 4 2 2 4 2 2 4 2 2 4 2 2 4 2 2 4 2 2 4 2 2 4 2 2 4 2 2
4 2 2 4 2 2 4 2 2 4 2 2 4 2 2 4 2 2 4 2 2 4 2 2 4 2 2 4 2 2 4 2 2 4 2
2 4 2 2 4 2 2 4 2 2 4 2 2 4 2 2 4 2 2 4 2 2 4 2 2 4 2 2 4 2 2 4 2 2 4
2 2 4 2 2 4 2 2 4 2 2 4 2 2 4 2 2 4 2 2 4 2 2 4 2 2 4 2 2 4 2 2 4 2 2
4 2 2 4 2 2 4 2 2 4 2 2 4 2 2 4 2 2 4 2 2 4 2 2 4 2 2 4 2 2 4 2 2 4 2
2 4 2 2 4 2 2 4 2 2 4 2 2 4 2 2 4 2 2 4 2 2 4 2 2 4 2 2 4 2 2 4 2 2 4
2 2 4 2 2 4 2 2 4 2 2 4 2 2 4 2 2 4 2 2 4 2 2 4 2 2 4 2 2 4 2 2 4 2 2
4 2 2 4 2 2 4 2 2 4 2 2 4 2 2 4 2 2 4 2 2 4 2 2 4 2 2 4 2 2 4 2 2 4 2
2 4 2 2 4 2 2 4 2 2 4 2 2 4 2 2 4 2 2 4 2 2 4 2 2 4 2 2 4 2 2 4 2 2 4
2 2 4 2 2 4 2 2 4 2 2 4 2 2 4 2 2 4 2 2 4 2 2 4 2 2 4 2 2 4 2 2 4 2 2
4 2 2 4 2 2 4 2 2 4 2 2 4 2 2 4 2 2 4 2 2 4 2 2 4 2 2 4 2 2 4 2 2 4 2
2 4 2 2 4 2 2 4 2 2 4 2 2 4 2 2 4 2 2 4 2 2 4 2 2 4 2 2 4 2 2 4 2 2 4
2 2 4 2 2 4 2 2 4 2 2 4 2 2 4 2 2 4 2 2 4 2 2 4 2 2 4 2 2 4 2 2 4 2 2
4 2 2 4 2 2 4 2 2 4 2 2 4 2 2 4 2 2 4 2 2 4 2 2 4 2 2 4 2 2 4 2 2 4 2
2 4 2 2 4
2 2 4 2 2 4 2 2 4 3 3 4 3 3 4 3 3 4 3 3 4 3 3 4 3 3 4 3 3 4 3 3 4 3 3
4 3 3 4 3 3 4 3 3 4 3 3 4 3 3 4 3 3 4 3 3 4 3 3 4 3 3 4 3 3 4 3 3 4 3
3 4 3 3 4 3 3 4 3 3 4 3 3 4 3 3 4 3 3 4 3 3 4 3 3 4 3 3 4 3 3 4 3 3 4
3 3 4 3 3 4 3 3 4 3 3 4 3 3 4 3 3 4 3 3 4 3 3 4 3 3 4 3 3 4 3 3 4 3 3
4 3 3 4 3 3 4 3 3 4 3 3 4 3 3 4 3 3 4 3 3 4 3 3 4 3 3 4 3 3 4 3 3 4 3
3 4 3 3 4 3 3 4 3 3 4 3 3 4 3 3 4 3 3 4 3 3 4 3 3 4 3 3 4 3 3 4 3 3 4
3 3 4 3 3 4 3 3 4 3 3 4 3 3 4 3 3 4 3 3 4 3 3 4 3 3 4 3 3 4 3 3 4 3 3
4 3 3 4 3 3 4 3 3 4 3 3 4 3 3 4 3 3 4 3 3 4 3 3 4 3 3 4 3 3 4 3 3 4 3
3 4 3 3 4 3 3 4 3 3 4 3 3 4 3 3 4 3 3 4 3 3 4 3 3 4 3 3 4 3 3 4 3 3 4
3 3 4 3 3 4 3 3 4 3 3 4 3 3 4 3 3 4 3 3 4 3 3 4 3 3 4 3 3 4 3 3 4 3 3
4 3 3 4 3 3 4 3 3 4 3 3 4 3 3 4 3 3 4 3 3 4 3 3 4 3 3 4 3 3 4 3 3 4 3
3 4 3 3 4 3 3 4 3 3 4 3 3 4 3 3 4 3 3 4 3 3 4 3 3 4 3 3 4 3 3 4 3 3 4
3 3 4 3 3 4 3 3 4 3 3 4 3 3 4 3 3 4 3 3 4 3 3 4 3 3 4 3 3 4 3 3 4 3 3
4 3 3 4 3 3 4 3 3 4 3 3 4 3 3 4 3 3 4 3 3 4 3 3 4 3 3 4 3 3 4 3 3 4 3
3 4 3 3 4 3 3 4 3 3 4 3 3 4 3 3 4 3 3 4 2 2 4 2 2 4 2 2 4 2 2 4 2 2 4
2 2 4 2 2 4 2 2 4 2 2 4 2 2 4 2 2 4 2 2 4 2 2 4 2 2 4 2 2 4 2 2 4 2 2
4 2 2 4 2 2 4 2 2 4 2 2 4 2 2 4 2 2 4 2 2 4 2 2 4 2 2 4 2 2 4 2 2 4 2
2 4 2 2 4
3 3 4 3 3 4 3 3 4 3 3 4 3 3 4 3 3 4 3 3 4 3 3 4 3 3 4 3 3 4 3 3 4 3 3
4 3 3 4 3 3 4 3 3 4 3 3 4 3 3 4 3 3 4 3 3 4 3 3 4 3 3 4 3 3 4 3 3 4 3
3 4 3 3 4 3 3 4 3 3 4 3 3 4 3 3 4 3 3 4 3 3 4 3 3 4 3 3 4 3 3 4 3 3 4
3 3 4 3 3 4 3 3 4 3 3 4 3 3 4 3 3 4 3 3 4 3 3 4 3 3 4 3 3 4 3 3 4 3 3
4 3 3 4 3 3 4 3 3 4 3 3 4 3 3 4 3 3 4 3 3 4 3 3 4 3 3 4 3 3 4 3 3 4 3
3 4 3 3 4 3 3 4 3 3 4 3 3 4 3 3 4 3 3 4 3 3 4 3 3 4 3 3 4 3 3 4 3 3 4
3 3 4 3 3 4 3 3 4 3 3 4 3 3 4 3 3 4 3 3 5 3 3 5 3 3 5 3 3 5 3 3 5 3 3
5 3 3 5 3 3 5 3 3 5 3 3 5 3 3 5 3 3 5 3 3 5 3 3 5 3 3 5 3 3 5 3 3 5 3
3 5 3 3 5 3 3 4 3 3 4 3 3 4 3 3 4 3 3 4 3 3 4 3 3 4 3 3 4 3 3 4 3 3 4
3 3 4 3 3 4 3 3 4 3 3 4 3 3 4 3 3 4 3 3 4 3 3 4 3 3 4 3 3 4 3 3 4 3 3
4 3 3 4 3 3 4 3 3 4 3 3 4 3 3 4 3 3 4 3 3 4 3 3 4 3 3 4 3 3 4 3 3 4 3
3 4 3 3 4 3 3 4 3 3 4 3 3 4 3 3 4 3 3 4 3 3 4 3 3 4 3 3 4 3 3 4 3 3 4
3 3 4 3 3 4 3 3 4 3 3 4 3 3 4 3 3 4 3 3 4 3 3 4 3 3 4 3 3 4 3 3 4 3 3
4 3 3 4 3 3 4 3 3 4 3 3 4 3 3 4 3 3 4 3 3 4 3 3 4 3 3 4 3 3 4 3 3 4 3
3 4 3 3 4 3 3 4 3 3 4 3 3 4 3 3 4 3 3 4 3 3 4 3 3 4 3 3 4 3 3 4 3 3 4
3 3 4 3 3 4 3 3 4 3 3 4 3 3 4 3 3 4 3 3 4 3 3 4 3 3 4 3 3 4 3 3 4 3 3
4 3 3 4 3 3 4 3 3 4 3 3 4 3 3 4 3 3 4 3 3 4 3 3 4 3 3 4 3 3 4 3 3 4 3
3 4 3 3 4
3 3 4 3 3 4 3 3 4 3 3 5 3 3 5 3 3 5 3 3 5 3 3 5 3 3 5 3 3 5 3 3 5 3 3
5 3 3 5 3 3 5 3 3 5 3 3 5 3 3 5 3 3 5 3 3 5 3 3 5 3 3 5 3 3 5 3 3 5 3
3 5 3 3 5 3 3 5 3 3 5 3 3 5 3 3 5 3 3 5 3 3 5 3 3 5 3 3 5 3 3 5 3 3 5
3 3 5 3 3 5 3 3 5 3 3 5 3 3 5 3 3 5 3 3 5 3 3 5 3 3 5 3 3 5 3 3 5 3 3
5 3 3 5 3 3 5 3 3 5 3 3 5 3 3 5 3 3 5 3 3 5 3 3 5 3 3 5 3 3 5 3 3 5 3
3 5 3 3 5 3 3 5 3 3 5 3 3 5 3 3 5 3 3 5 3 3 5 3 3 5 3 3 5 3 3 5 3 3 5
3 3 5 3 3 5 3 3 5 3 3 5 3 3 5 3 3 5 3 3 5 3 3 5 3 3 5 3 3 5 3 3 5 3 3
5 3 3 5 3 3 5 3 3 5 3 3 5 3 3 5 3 3 5 3 3 5 3 3 5 3 3 5 3 3 5 3 3 5 3
3 5 3 3 5 3 3 5 3 3 5 3 3 5 3 3 5 3 3 5 3 3 5 3 3 5 3 3 5 3 3 5 3 3 5
3 3 5 3 3 5 3 3 5 3 3 5 3 3 5 3 3 5 3 3 5 3 3 5 3 3 5 3 3 5 3 3 5 3 3
5 3 3 5 3 3 5 3 3 5 3 3 5 3 3 5 3 3 5 3 3 5 3 3 5 3 3 5 3 3 5 3 3 5 3
3 5 3 3 5 3 3 5 3 3 5 3 3 5 3 3 5 3 3 5 3 3 5 3 3 5 3 3 5 3 3 5 3 3 5
3 3 5 3 3 5 3 3 5 3 3 5 3 3 5 3 3 5 3 3 5 3 3 5 3 3 5 3 3 5 3 3 5 3 3
5 3 3 5 3 3 5 3 3 5 3 3 5 3 3 5 3 3 5 3 3 5 3 3 5 3 3 5 3 3 5 3 3 5 3
3 5 3 3 4 3 3 4 3 3 4 3 3 4 3 3 4 3 3 4 3 3 4 3 3 4 3 3 4 3 3 4 3 3 4
3 3 4 3 3 4 3 3 4 3 3 4 3 3 4 3 3 4 3 3 4 3 3 4 3 3 4 3 3 4 3 3 4 3 3
4 3 3 4 3 3 4 3 3 4 3 3 4 3 3 4 3 3 4 3 3 4 3 3 4 3 3 4 3 3 4 3 3 4 3
3 4 3 3 4
3 3 5 3 3 5 3 3 5 3 3 5 3 3 5 3 3 5 3 3 5 3 3 5 3 3 5 3 3 5 3 3 5 3 3
5 3 3 5 3 3 5 3 3 5 3 3 5 3 3 5 3 3 5 3 3 5 3 3 5 3 3 5 3 3 5 3 3 5 3
3 5 3 3 5 3 3 5 3 3 5 3 3 5 3 3 5 3 3 5 3 3 5 3 3 5 3 3 5 3 3 5 3 3 5
3 3 5 3 3 5 3 3 5 3 3 5 3 3 5 3 3 5 3 3 5 3 3 5 3 3 5 3 3 5 3 3 5 3 3
5 3 3 5 3 3 5 3 3 5 3 3 5 3 3 5 3 3 5 3 3 5 3 3 5 3 3 5 3 3 5 3 3 5 3
3 5 3 3 5 3 3 5 3 3 5 3 3 5 3 3 5 3 3 5 3 3 5 3 3 5 3 3 5 3 3 5 3 3 5
3 3 5 3 3 5 3 3 5 3 3 5 3 3 5 3 3 5 3 3 5 3 3 5 3 3 5 3 3 5 3 3 5 3 3
5 3 3 5 3 3 5 3 3 5 3 3 5 3 3 5 3 3 5 3 3 5 3 3 5 3 3 5 3 3 5 3 3 5 3
3 5 3 3 5 148 57 107 154 60 111 155 60 112 154 60 111 150 58 109 145
57 105 139 54 100 130 51 94 120 46 86 103 40 75 3 3 5 3 3 5 3 3 5 3 3
5 3 3 5 3 3 5 3 3 5 3 3 5 3 3 5 3 3 5 3 3 5 3 3 5 3 3 5 3 3 5 3 3 5 3
3 5 3 3 5 3 3 5 3 3 5 3 3 5 3 3 5 3 3 5 3 3 5 3 3 5 3 3 5 3 3 5 3 3 5
3 3 5 3 3 5 3 3 5 3 3 5 3 3 5 3 3 5 3 3 5 3 3 5 3 3 5 3 3 5 3 3 5 3 3
5 3 3 5 3 3 5 3 3 5 3 3 5 3 3 5 3 3 5 3 3 5 3 3 5 3 3 5 3 3 5 3 3 5 3
3 5 3 3 5 3 3 5 3 3 5 3 3 5 3 3 5 3 3 5 3 3 5 3 3 5 3 3 5 3 3 5 3 3 5
3 3 5 3 3 5 3 3 5 3 3 5 3 3 5 3 3 5 3 3 5 3 3 5 3 3 5 3 3 5 3 3 5 3 3
5 3 3 5 3 3 5 3 3 5 3 3 5 3 3 5 3 3 5 3 3 5 3 3 5 3 3 5 3 3 5 3 3 5 3
3 5 3 3 5 3 3 5 3 3 5 3 3 5 3 3 5 3 3 5 3 3 5 3 3 4 3 3 4
3 3 5 3 3 5 3 3 5 3 3 5 3 3 5 3 3 5 3 3 5 3 3 5 3 3 5 3 3 5 3 3 5 3 3
5 3 3 5 3 3 5 3 3 5 3 3 5 3 3 5 3 3 5 3 3 5 3 3 5 3 3 5 3 3 5 3 3 5 3
3 5 3 3 5 3 3 5 3 3 5 3 3 5 3 3 5 3 3 5 3 3 5 3 3 5 3 3 5 3 3 5 3 3 5
3 3 5 3 3 5 3 3 5 3 3 5 3 3 5 3 3 5 3 3 5 3 3 5 3 3 5 3 3 5 3 3 5 3 3
5 3 3 5 3 3 5 3 3 5 3 3 5 3 3 5 3 3 5 3 3 5 3 3 5 3 3 5 3 3 5 3 3 5 3
3 5 3 3 5 3 3 5 3 3 5 3 3 5 3 3 5 3 3 5 3 3 5 3 3 5 3 3 5 3 3 5 3 3 5
3 3 5 3 3 5 3 3 5 3 3 5 3 3 5 3 3 5 3 3 5 3 3 5 3 3 5 3 3 5 3 3 5 3 3
5 3 3 5 3 3 5 3 3 5 3 3 5 3 3 5 3 3 5 3 3 5 3 3 5 3 3 5 3 3 5 165 64
119 174 68 126 178 69 129 179 70 129 179 69 129 177 69 128 173 67 125
169 66 122 164 64 119 158 62 114 152 59 109 144 56 104 134 52 97 123
48 89 110 43 79 91 35 66 3 3 5 3 3 5 3 3 5 3 3 5 3 3 5 3 3 5 3 3 5 3 3
5 3 3 5 3 3 5 3 3 5 3 3 5 3 3 5 3 3 5 3 3 5 3 3 5 3 3 5 3 3 5 3 3 5 3
3 5 3 3 5 3 3 5 3 3 5 3 3 5 3 3 5 3 3 5 3 3 5 3 3 5 3 3 5 3 3 5 3 3 5
3 3 5 3 3 5 3 3 5 3 3 5 3 3 5 3 3 5 3 3 5 3 3 5 3 3 5 3 3 5 3 3 5 3 3
5 3 3 5 3 3 5 3 3 5 3 3 5 3 3 5 3 3 5 3 3 5 3 3 5 3 3 5 3 3 5 3 3 5 3
3 5 3 3 5 3 3 5 3 3 5 3 3 5 3 3 5 3 3 5 3 3 5 3 3 5 3 3 5 3 3 5 3 3 5
3 3 5 3 3 5 3 3 5 3 3 5 3 3 5 3 3 5 3 3 5 3 3 5 3 3 5 3 3 5 3 3 5 3 3
5 3 3 5 3 3 5 3 3 5 3 3 5 3 3 5 3 3 5 3 3 5 3 3 5 3 3 5 3 3 5 3 3 5 3
3 5 3 3 5 3 3 5
3 3 5 3 3 5 3 3 5 3 3 5 3 3 5 3 3 5 3 3 5 3 3 5 3 3 5 3 3 5 3 3 5 3 3
5 3 3 5 3 3 5 3 3 5 3 3 5 3 3 5 3 3 5 3 3 5 3 3 5 3 3 5 3 3 5 3 3 5 3
3 5 3 3 5 3 3 5 3 3 5 3 3 5 3 3 5 3 3 5 3 3 5 3 3 5 3 3 5 3 3 5 3 3 5
3 3 5 3 3 5 3 3 5 3 3 5 3 3 6 3 3 6 3 3 6 3 3 6 3 3 6 3 3 6 3 3 6 3 3
6 3 3 6 3 3 6 3 3 6 3 3 6 3 3 6 3 3 6 3 3 6 3 3 6 3 3 6 3 3 6 3 3 6 3
3 6 3 3 6 3 3 6 3 3 6 3 3 6 3 3 6 3 3 6 3 3 6 3 3 6 3 3 6 3 3 6 3 3 6
3 3 6 3 3 6 3 3 6 3 3 6 3 3 6 3 3 6 3 3 6 3 3 6 3 3 6 3 3 6 3 3 6 3 3
6 3 3 6 3 3 6 3 3 6 3 3 6 3 3 6 3 3 6 3 3 6 3 3 6 175 68 127 186 72
134 191 74 138 193 75 140 194 75 140 193 75 139 191 74 138 188 73 136
185 72 134 181 70 130 176 68 127 170 66 123 163 64 118 156 61 113 148
58 107 139 54 100 128 50 93 116 45 84 102 40 73 82 32 59 3 3 6 3 3 6 3
3 6 3 3 6 3 3 6 3 3 6 3 3 6 3 3 6 3 3 5 3 3 5 3 3 5 3 3 5 3 3 5 3 3 5
3 3 5 3 3 5 3 3 5 3 3 5 3 3 5 3 3 5 3 3 5 3 3 5 3 3 5 3 3 5 3 3 5 3 3
5 3 3 5 3 3 5 3 3 5 3 3 5 3 3 5 3 3 5 3 3 5 3 3 5 3 3 5 3 3 5 3 3 5 3
3 5 3 3 5 3 3 5 3 3 5 3 3 5 3 3 5 3 3 5 3 3 5 3 3 5 3 3 5 3 3 5 3 3 5
3 3 5 3 3 5 3 3 5 3 3 5 3 3 5 3 3 5 3 3 5 3 3 5 3 3 5 3 3 5 3 3 5 3 3
5 3 3 5 3 3 5 3 3 5 3 3 5 3 3 5 3 3 5 3 3 5 3 3 5 3 3 5 3 3 5 3 3 5 3
3 5 3 3 5 3 3 5 3 3 5 3 3 5 3 3 5 3 3 5 3 3 5 3 3 5 3 3 5 3 3 5 3 3 5
3 3 5 3 3 5 3 3 5 3 3 5 3 3 5 3 3 5
3 3 6 3 3 6 3 3 6 3 3 6 3 3 6 3 3 6 3 3 6 3 3 6 3 3 6 3 3 6 3 3 6 3 3
6 4 4 6 4 4 6 4 4 6 4 4 6 4 4 6 4 4 6 4 4 6 4 4 6 4 4 6 4 4 6 4 4 6 4
4 6 4 4 6 4 4 6 4 4 6 4 4 6 4 4 6 4 4 6 4 4 6 4 4 6 4 4 6 4 4 6 4 4 6
4 4 6 4 4 6 4 4 6 4 4 6 4 4 6 4 4 6 4 4 6 4 4 6 4 4 6 4 4 6 4 4 6 4 4
6 4 4 6 4 4 6 4 4 6 4 4 6 4 4 6 4 4 6 4 4 6 4 4 6 4 4 6 4 4 6 4 4 6 4
4 6 4 4 6 4 4 6 4 4 6 4 4 6 4 4 6 4 4 6 4 4 6 4 4 6 4 4 6 4 4 6 4 4 6
4 4 6 4 4 6 4 4 6 4 4 6 4 4 6 4 4 6 4 4 6 4 4 6 4 4 6 4 4 6 4 4 6 4 4
6 4 4 6 4 4 6 4 4 6 4 4 6 4 4 6 4 4 6 173 67 125 190 74 137 198 77 143
202 78 146 204 79 147 204 79 147 203 79 147 202 78 146 199 78 144 196
76 142 193 75 139 188 73 136 183 71 132 178 69 128 171 67 124 164 64
119 157 61 113 148 58 107 139 54 100 129 50 93 117 46 85 103 40 75 87
34 62 60 23 44 4 4 6 4 4 6 4 4 6 4 4 6 4 4 6 4 4 6 4 4 6 4 4 6 4 4 6 4
4 6 4 4 6 4 4 6 4 4 6 4 4 6 4 4 6 4 4 6 4 4 6 4 4 6 4 4 6 4 4 6 4 4 6
4 4 6 4 4 6 4 4 6 4 4 6 4 4 6 4 4 6 4 4 6 4 4 6 4 4 6 4 4 6 3 3 6 3 3
6 3 3 6 3 3 6 3 3 6 3 3 6 3 3 6 3 3 6 3 3 6 3 3 6 3 3 6 3 3 6 3 3 5 3
3 5 3 3 5 3 3 5 3 3 5 3 3 5 3 3 5 3 3 5 3 3 5 3 3 5 3 3 5 3 3 5 3 3 5
3 3 5 3 3 5 3 3 5 3 3 5 3 3 5 3 3 5 3 3 5 3 3 5 3 3 5 3 3 5 3 3 5 3 3
5 3 3 5 3 3 5 3 3 5 3 3 5 3 3 5 3 3 5 3 3 5 3 3 5 3 3 5 3 3 5 3 3 5 3
3 5 3 3 5 3 3 5 3 3 5 3 3 5 3 3 5 3 3 5 3 3 5 3 3 5
4 4 6 4 4 6 4 4 6 4 4 6 4 4 6 4 4 6 4 4 6 4 4 6 4 4 6 4 4 6 4 4 6 4 4
6 4 4 6 4 4 6 4 4 6 4 4 6 4 4 6 4 4 6 4 4 6 4 4 6 4 4 6 4 4 6 4 4 6 4
4 6 4 4 6 4 4 6 4 4 6 4 4 6 4 4 6 4 4 6 4 4 6 4 4 6 4 4 6 4 4 6 4 4 6
4 4 6 4 4 6 4 4 6 4 4 6 4 4 6 4 4 6 4 4 6 4 4 6 4 4 6 4 4 6 4 4 6 4 4
6 4 4 6 4 4 6 4 4 6 4 4 6 4 4 6 4 4 6 4 4 6 4 4 6 4 4 6 4 4 6 4 4 6 4
4 6 4 4 6 4 4 6 4 4 6 4 4 6 4 4 6 4 4 6 4 4 6 4 4 6 4 4 6 4 4 6 4 4 6
4 4 6 4 4 6 4 4 6 4 4 6 4 4 6 4 4 6 4 4 6 4 4 6 4 4 6 4 4 6 4 4 6 4 4
6 4 4 6 4 4 6 4 4 6 4 4 6 4 4 6 185 72 134 198 77 143 205 80 148 209
81 151 211 82 152 212 82 153 211 82 153 210 82 152 208 81 150 205 80
148 202 79 146 198 77 143 194 75 140 189 73 136 183 71 132 177 69 128
170 66 123 163 63 118 155 60 112 146 57 106 137 53 99 127 49 91 115 45
83 101 39 73 85 33 62 63 25 46 4 4 6 4 4 6 4 4 6 4 4 6 4 4 6 4 4 6 4 4
6 4 4 6 4 4 6 4 4 6 4 4 6 4 4 6 4 4 6 4 4 6 4 4 6 4 4 6 4 4 6 4 4 6 4
4 6 4 4 6 4 4 6 4 4 6 4 4 6 4 4 6 4 4 6 4 4 6 4 4 6 4 4 6 4 4 6 4 4 6
4 4 6 4 4 6 4 4 6 4 4 6 4 4 6 4 4 6 4 4 6 4 4 6 4 4 6 4 4 6 4 4 6 4 4
6 4 4 6 4 4 6 4 4 6 4 4 6 4 4 6 4 4 6 4 4 6 4 4 6 4 4 6 4 4 6 4 4 6 4
4 6 4 4 6 4 4 6 4 4 6 3 3 6 3 3 6 3 3 6 3 3 6 3 3 6 3 3 6 3 3 6 3 3 6
3 3 6 3 3 6 3 3 5 3 3 5 3 3 5 3 3 5 3 3 5 3 3 5 3 3 5 3 3 5 3 3 5 3 3
5 3 3 5 3 3 5 3 3 5 3 3 5 3 3 5 3 3 5 3 3 5 3 3 5 3 3 5 3 3 5
4 4 6 4 4 6 4 4 6 4 4 6 4 4 6 4 4 6 4 4 6 4 4 6 4 4 6 4 4 6 4 4 6 4 4
6 4 4 6 4 4 6 4 4 6 4 4 6 4 4 6 4 4 6 4 4 6 4 4 6 4 4 6 4 4 6 4 4 6 4
4 6 4 4 6 4 4 6 4 4 6 4 4 6 4 4 6 4 4 6 4 4 6 4 4 6 4 4 6 4 4 6 4 4 6
4 4 6 4 4 6 4 4 6 4 4 6 4 4 6 4 4 6 4 4 6 4 4 6 4 4 6 4 4 6 4 4 6 4 4
6 4 4 6 4 4 6 4 4 6 4 4 6 4 4 6 4 4 6 4 4 6 4 4 6 4 4 6 4 4 6 4 4 6 4
4 6 4 4 6 4 4 6 4 4 6 4 4 6 4 4 6 4 4 6 4 4 6 4 4 6 4 4 6 4 4 6 4 4 6
4 4 6 4 4 6 4 4 6 4 4 6 4 4 6 4 4 6 4 4 6 4 4 6 4 4 6 4 4 6 4 4 6 4 4
6 4 4 6 4 4 6 4 4 6 4 4 6 191 74 138 203 79 147 210 82 152 214 83 155
217 84 156 217 85 157 217 85 157 216 84 156 215 84 155 212 83 153 210
81 151 206 80 149 202 79 146 198 77 143 193 75 139 187 73 135 181 70
131 175 68 126 167 65 121 160 62 115 152 59 110 143 56 103 133 52 96
122 48 88 110 43 80 97 38 70 81 31 58 60 23 43 4 4 6 4 4 6 4 4 6 4 4 6
4 4 6 4 4 6 4 4 6 4 4 6 4 4 6 4 4 6 4 4 6 4 4 6 4 4 6 4 4 6 4 4 6 4 4
6 4 4 6 4 4 6 4 4 6 4 4 6 4 4 6 4 4 6 4 4 6 4 4 6 4 4 6 4 4 6 4 4 6 4
4 6 4 4 6 4 4 6 4 4 6 4 4 6 4 4 6 4 4 6 4 4 6 4 4 6 4 4 6 4 4 6 4 4 6
4 4 6 4 4 6 4 4 6 4 4 6 4 4 6 4 4 6 4 4 6 4 4 6 4 4 6 4 4 6 4 4 6 4 4
6 4 4 6 4 4 6 4 4 6 4 4 6 4 4 6 4 4 6 4 4 6 4 4 6 4 4 6 4 4 6 4 4 6 4
4 6 4 4 6 4 4 6 4 4 6 4 4 6 4 4 6 4 4 6 4 4 6 4 4 6 4 4 6 4 4 6 4 4 6
4 4 6 4 4 6 4 4 6 3 3 6 3 3 6 3 3 6 3 3 6 3 3 6 3 3 6 3 3 6 3 3 6 3 3
6
4 4 6 4 4 6 4 4 6 4 4 6 4 4 6 4 4 6 4 4 6 4 4 6 4 4 6 4 4 6 4 4 6 4 4
6 4 4 6 4 4 6 4 4 6 4 4 6 4 4 6 4 4 6 4 4 6 4 4 6 4 4 6 4 4 6 4 4 6 4
4 7 4 4 7 4 4 7 4 4 7 4 4 7 4 4 7 4 4 7 4 4 7 4 4 7 4 4 7 4 4 7 4 4 7
4 4 7 4 4 7 4 4 7 4 4 7 4 4 7 4 4 7 4 4 7 4 4 7 4 4 7 4 4 7 4 4 7 4 4
7 4 4 7 4 4 7 4 4 7 4 4 7 4 4 7 4 4 7 4 4 7 4 4 7 4 4 7 4 4 7 4 4 7 4
4 7 4 4 7 4 4 7 4 4 7 4 4 7 4 4 7 4 4 7 4 4 7 4 4 7 4 4 7 4 4 7 4 4 7
4 4 7 4 4 7 4 4 7 4 4 7 4 4 7 4 4 7 4 4 7 4 4 7 4 4 7 4 4 7 4 4 7 4 4
7 4 4 7 4 4 7 4 4 7 193 75 139 206 80 149 213 83 154 218 85 157 220 86
159 222 86 160 222 86 160 221 86 160 220 86 159 218 85 158 216 84 156
213 83 153 209 81 151 205 80 148 200 78 145 195 76 141 190 74 137 184
72 133 178 69 128 171 66 123 163 64 118 155 60 112 147 57 106 138 54
99 128 50 92 117 45 84 104 41 75 90 35 65 74 29 53 52 20 38 4 4 7 4 4
7 4 4 7 4 4 7 4 4 7 4 4 7 4 4 7 4 4 7 4 4 6 4 4 6 4 4 6 4 4 6 4 4 6 4
4 6 4 4 6 4 4 6 4 4 6 4 4 6 4 4 6 4 4 6 4 4 6 4 4 6 4 4 6 4 4 6 4 4 6
4 4 6 4 4 6 4 4 6 4 4 6 4 4 6 4 4 6 4 4 6 4 4 6 4 4 6 4 4 6 4 4 6 4 4
6 4 4 6 4 4 6 4 4 6 4 4 6 4 4 6 4 4 6 4 4 6 4 4 6 4 4 6 4 4 6 4 4 6 4
4 6 4 4 6 4 4 6 4 4 6 4 4 6 4 4 6 4 4 6 4 4 6 4 4 6 4 4 6 4 4 6 4 4 6
4 4 6 4 4 6 4 4 6 4 4 6 4 4 6 4 4 6 4 4 6 4 4 6 4 4 6 4 4 6 4 4 6 4 4
6 4 4 6 4 4 6 4 4 6 4 4 6 4 4 6 4 4 6 4 4 6 4 4 6 4 4 6 4 4 6 4 4 6 4
4 6 4 4 6
4 4 7 4 4 7 4 4 7 4 4 7 4 4 7 4 4 7 4 4 7 4 4 7 4 4 7 4 4 7 4 4 7 4 4
7 4 4 7 4 4 7 4 4 7 4 4 7 4 4 7 4 4 7 4 4 7 4 4 7 4 4 7 4 4 7 4 4 7 4
4 7 4 4 7 4 4 7 4 4 7 4 4 7 4 4 7 4 4 7 4 4 7 4 4 7 4 4 7 4 4 7 4 4 7
4 4 7 4 4 7 4 4 7 4 4 7 4 4 7 4 4 7 4 4 7 4 4 7 4 4 7 4 4 7 4 4 7 4 4
7 4 4 7 4 4 7 4 4 7 4 4 7 4 4 7 4 4 7 4 4 7 4 4 7 4 4 7 4 4 7 4 4 7 4
4 7 4 4 7 4 4 7 4 4 7 4 4 7 4 4 7 4 4 7 4 4 7 4 4 7 4 4 7 4 4 7 4 4 7
4 4 7 4 4 7 4 4 7 4 4 7 4 4 7 4 4 7 4 4 7 4 4 7 4 4 7 4 4 7 4 4 7 4 4
7 4 4 7 4 4 7 192 74 138 206 80 149 214 83 155 219 85 158 223 87 161
224 87 162 225 88 163 225 87 162 224 87 162 223 87 161 220 86 159 218
85 157 214 83 155 211 82 152 207 80 149 202 79 146 197 77 142 192 75
138 186 72 134 180 70 130 173 67 125 166 64 120 158 61 114 150 58 108
141 55 102 131 51 95 121 47 87 109 43 79 97 38 70 82 32 59 65 25 47 42
16 30 4 4 7 4 4 7 4 4 7 4 4 7 4 4 7 4 4 7 4 4 7 4 4 7 4 4 7 4 4 7 4 4
7 4 4 7 4 4 7 4 4 7 4 4 7 4 4 7 4 4 7 4 4 7 4 4 7 4 4 7 4 4 7 4 4 7 4
4 7 4 4 7 4 4 7 4 4 7 4 4 7 4 4 7 4 4 7 4 4 7 4 4 7 4 4 7 4 4 6 4 4 6
4 4 6 4 4 6 4 4 6 4 4 6 4 4 6 4 4 6 4 4 6 4 4 6 4 4 6 4 4 6 4 4 6 4 4
6 4 4 6 4 4 6 4 4 6 4 4 6 4 4 6 4 4 6 4 4 6 4 4 6 4 4 6 4 4 6 4 4 6 4
4 6 4 4 6 4 4 6 4 4 6 4 4 6 4 4 6 4 4 6 4 4 6 4 4 6 4 4 6 4 4 6 4 4 6
4 4 6 4 4 6 4 4 6 4 4 6 4 4 6 4 4 6 4 4 6 4 4 6 4 4 6 4 4 6 4 4 6 4 4
6 4 4 6 4 4 6 4 4 6
4 4 7 4 4 7 4 4 7 4 4 7 4 4 7 4 4 7 4 4 7 4 4 7 4 4 7 4 4 7 4 4 7 4 4
7 4 4 7 4 4 7 4 4 7 4 4 7 4 4 7 4 4 7 4 4 7 4 4 7 4 4 7 4 4 7 4 4 7 4
4 7 4 4 7 4 4 7 4 4 7 4 4 7 4 4 7 4 4 7 4 4 7 4 4 7 4 4 7 4 4 7 4 4 7
4 4 7 4 4 7 4 4 7 4 4 7 4 4 7 4 4 7 4 4 7 4 4 7 4 4 7 5 5 7 5 5 7 5 5
7 5 5 7 5 5 7 5 5 7 5 5 7 5 5 7 5 5 7 5 5 7 5 5 7 5 5 7 5 5 7 5 5 7 5
5 7 5 5 7 5 5 7 5 5 7 5 5 7 5 5 7 5 5 7 5 5 7 5 5 7 5 5 7 5 5 7 5 5 7
5 5 7 5 5 7 5 5 7 5 5 7 5 5 7 5 5 7 5 5 7 5 5 7 5 5 7 5 5 7 5 5 7 5 5
7 5 5 7 186 72 135 204 79 147 214 83 154 220 85 159 223 87 161 226 88
163 227 88 164 227 88 164 227 88 164 226 88 163 224 87 162 222 86 160
219 85 158 216 84 156 212 82 153 208 81 150 203 79 147 198 77 143 193
75 139 187 73 135 181 70 131 174 68 126 167 65 121 160 62 115 152 59
109 143 56 103 134 52 97 124 48 89 113 44 82 101 39 73 88 34 63 73 28
53 54 21 39 28 11 20 4 4 7 4 4 7 4 4 7 4 4 7 4 4 7 4 4 7 4 4 7 4 4 7 4
4 7 4 4 7 4 4 7 4 4 7 4 4 7 4 4 7 4 4 7 4 4 7 4 4 7 4 4 7 4 4 7 4 4 7
4 4 7 4 4 7 4 4 7 4 4 7 4 4 7 4 4 7 4 4 7 4 4 7 4 4 7 4 4 7 4 4 7 4 4
7 4 4 7 4 4 7 4 4 7 4 4 7 4 4 7 4 4 7 4 4 7 4 4 7 4 4 7 4 4 7 4 4 7 4
4 7 4 4 7 4 4 7 4 4 7 4 4 7 4 4 7 4 4 7 4 4 7 4 4 6 4 4 6 4 4 6 4 4 6
4 4 6 4 4 6 4 4 6 4 4 6 4 4 6 4 4 6 4 4 6 4 4 6 4 4 6 4 4 6 4 4 6 4 4
6 4 4 6 4 4 6 4 4 6 4 4 6 4 4 6 4 4 6 4 4 6 4 4 6 4 4 6 4 4 6 4 4 6 4
4 6 4 4 6 4 4 6 4 4 6 4 4 6
4 4 7 4 4 7 4 4 7 4 4 7 4 4 7 4 4 7 4 4 7 4 4 7 4 4 7 5 5 7 5 5 7 5 5
7 5 5 7 5 5 7 5 5 7 5 5 7 5 5 7 5 5 7 5 5 7 5 5 7 5 5 7 5 5 7 5 5 7 5
5 7 5 5 7 5 5 7 5 5 7 5 5 7 5 5 7 5 5 7 5 5 7 5 5 7 5 5 7 5 5 7 5 5 7
5 5 7 5 5 7 5 5 7 5 5 7 5 5 7 5 5 7 5 5 7 5 5 7 5 5 7 5 5 7 5 5 7 5 5
7 5 5 7 5 5 8 5 5 8 5 5 8 5 5 8 5 5 8 5 5 8 5 5 8 5 5 8 5 5 8 5 5 8 5
5 8 5 5 8 5 5 8 5 5 8 5 5 8 5 5 8 5 5 8 5 5 8 5 5 8 5 5 8 5 5 8 5 5 8
5 5 8 5 5 8 5 5 8 5 5 8 5 5 8 5 5 8 5 5 8 5 5 8 5 5 8 5 5 8 5 5 8 5 5
8 174 68 126 200 78 144 211 82 152 218 85 158 223 87 161 226 88 163
228 89 165 229 89 165 229 89 165 228 89 165 227 88 164 225 87 162 222
86 160 219 85 158 216 84 156 212 83 153 208 81 150 203 79 147 199 77
143 193 75 140 187 73 135 181 71 131 175 68 126 168 65 121 160 62 116
153 59 110 144 56 104 135 53 98 126 49 91 115 45 83 104 40 75 92 36 66
78 30 56 61 24 44 41 16 30 23 9 17 5 5 7 5 5 7 5 5 7 5 5 7 5 5 7 5 5 7
5 5 7 5 5 7 5 5 7 4 4 7 4 4 7 4 4 7 4 4 7 4 4 7 4 4 7 4 4 7 4 4 7 4 4
7 4 4 7 4 4 7 4 4 7 4 4 7 4 4 7 4 4 7 4 4 7 4 4 7 4 4 7 4 4 7 4 4 7 4
4 7 4 4 7 4 4 7 4 4 7 4 4 7 4 4 7 4 4 7 4 4 7 4 4 7 4 4 7 4 4 7 4 4 7
4 4 7 4 4 7 4 4 7 4 4 7 4 4 7 4 4 7 4 4 7 4 4 7 4 4 7 4 4 7 4 4 7 4 4
7 4 4 7 4 4 7 4 4 7 4 4 7 4 4 7 4 4 7 4 4 7 4 4 7 4 4 7 4 4 7 4 4 7 4
4 7 4 4 7 4 4 6 4 4 6 4 4 6 4 4 6 4 4 6 4 4 6 4 4 6 4 4 6 4 4 6 4 4 6
4 4 6 4 4 6 4 4 6 4 4 6 4 4 6 4 4 6
5 5 7 5 5 7 5 5 7 5 5 7 5 5 7 5 5 7 5 5 7 5 5 7 5 5 7 5 5 7 5 5 7 5 5
8 5 5 8 5 5 8 5 5 8 5 5 8 5 5 8 5 5 8 5 5 8 5 5 8 5 5 8 5 5 8 5 5 8 5
5 8 5 5 8 5 5 8 5 5 8 5 5 8 5 5 8 5 5 8 5 5 8 5 5 8 5 5 8 5 5 8 5 5 8
5 5 8 5 5 8 5 5 8 5 5 8 5 5 8 5 5 8 5 5 8 5 5 8 5 5 8 5 5 8 5 5 8 5 5
8 5 5 8 5 5 8 5 5 8 5 5 8 5 5 8 5 5 8 5 5 8 5 5 8 5 5 8 5 5 8 5 5 8 5
5 8 5 5 8 5 5 8 5 5 8 5 5 8 5 5 8 5 5 8 5 5 8 5 5 8 5 5 8 5 5 8 5 5 8
5 5 8 5 5 8 5 5 8 5 5 8 5 5 8 5 5 8 5 5 8 5 5 8 5 5 8 5 5 8 5 5 8 5 5
8 192 75 139 207 80 149 215 84 156 221 86 160 225 88 163 228 89 164
229 89 165 229 89 166 229 89 165 228 89 165 227 88 164 225 87 162 222
86 160 219 85 158 216 84 156 212 82 153 208 81 150 203 79 147 198 77
143 193 75 139 187 73 135 181 70 131 175 68 126 168 65 121 161 62 116
153 59 110 145 56 105 136 53 98 127 49 92 117 45 84 106 41 76 94 37 68
81 31 58 66 26 48 48 19 35 25 10 18 5 5 8 5 5 8 5 5 8 5 5 8 5 5 7 5 5
7 5 5 7 5 5 7 5 5 7 5 5 7 5 5 7 5 5 7 5 5 7 5 5 7 5 5 7 5 5 7 5 5 7 5
5 7 5 5 7 5 5 7 5 5 7 5 5 7 5 5 7 5 5 7 5 5 7 5 5 7 5 5 7 5 5 7 5 5 7
4 4 7 4 4 7 4 4 7 4 4 7 4 4 7 4 4 7 4 4 7 4 4 7 4 4 7 4 4 7 4 4 7 4 4
7 4 4 7 4 4 7 4 4 7 4 4 7 4 4 7 4 4 7 4 4 7 4 4 7 4 4 7 4 4 7 4 4 7 4
4 7 4 4 7 4 4 7 4 4 7 4 4 7 4 4 7 4 4 7 4 4 7 4 4 7 4 4 7 4 4 7 4 4 7
4 4 7 4 4 7 4 4 7 4 4 7 4 4 7 4 4 7 4 4 7 4 4 7 4 4 7 4 4 7 4 4 7 4 4
7 4 4 7 4 4 7 4 4 7 4 4 7 4 4 7 4 4 6
5 5 8 5 5 8 5 5 8 5 5 8 5 5 8 5 5 8 5 5 8 5 5 8 5 5 8 5 5 8 5 5 8 5 5
8 5 5 8 5 5 8 5 5 8 5 5 8 5 5 8 5 5 8 5 5 8 5 5 8 5 5 8 5 5 8 5 5 8 5
5 8 5 5 8 5 5 8 5 5 8 5 5 8 5 5 8 5 5 8 5 5 8 5 5 8 5 5 8 5 5 8 5 5 8
5 5 8 5 5 8 5 5 8 5 5 8 5 5 8 5 5 8 5 5 8 5 5 8 5 5 8 5 5 8 5 5 8 5 5
8 5 5 8 5 5 8 5 5 8 5 5 8 5 5 8 5 5 8 5 5 8 5 5 8 5 5 8 5 5 8 5 5 8 5
5 8 5 5 8 5 5 8 5 5 8 5 5 8 5 5 8 5 5 8 5 5 8 5 5 8 5 5 8 5 5 8 5 5 8
5 5 8 5 5 8 5 5 8 5 5 8 5 5 8 5 5 8 5 5 8 5 5 8 5 5 8 5 5 8 5 5 8 178
69 128 200 78 144 211 82 152 218 85 157 223 87 161 226 88 163 228 89
165 229 89 166 229 89 166 229 89 165 228 89 165 226 88 163 224 87 162
221 86 160 218 85 158 215 84 155 211 82 153 207 81 150 202 79 146 198
77 143 192 75 139 187 73 135 181 70 130 174 68 126 167 65 121 160 62
116 153 59 110 145 56 104 136 53 98 127 49 92 117 46 85 107 42 77 95
37 69 83 32 60 69 27 50 53 21 38 33 13 24 23 9 17 5 5 8 5 5 8 5 5 8 5
5 8 5 5 8 5 5 8 5 5 8 5 5 8 5 5 8 5 5 8 5 5 8 5 5 8 5 5 8 5 5 8 5 5 8
5 5 8 5 5 8 5 5 8 5 5 8 5 5 8 5 5 8 5 5 8 5 5 8 5 5 7 5 5 7 5 5 7 5 5
7 5 5 7 5 5 7 5 5 7 5 5 7 5 5 7 5 5 7 5 5 7 5 5 7 5 5 7 5 5 7 5 5 7 5
5 7 5 5 7 5 5 7 5 5 7 5 5 7 5 5 7 4 4 7 4 4 7 4 4 7 4 4 7 4 4 7 4 4 7
4 4 7 4 4 7 4 4 7 4 4 7 4 4 7 4 4 7 4 4 7 4 4 7 4 4 7 4 4 7 4 4 7 4 4
7 4 4 7 4 4 7 4 4 7 4 4 7 4 4 7 4 4 7 4 4 7 4 4 7 4 4 7 4 4 7 4 4 7 4
4 7 4 4 7 4 4 7 4 4 7 4 4 7 4 4 7 4 4 7 4 4 7
5 5 8 5 5 8 5 5 8 5 5 8 5 5 8 5 5 8 5 5 8 5 5 8 5 5 8 5 5 8 5 5 8 5 5
8 5 5 8 5 5 8 5 5 8 5 5 8 5 5 8 5 5 8 5 5 8 5 5 8 5 5 8 5 5 8 5 5 8 5
5 8 5 5 8 5 5 8 5 5 8 5 5 8 5 5 8 5 5 8 5 5 8 5 5 8 5 5 8 5 5 8 5 5 8
5 5 8 5 5 8 5 5 8 5 5 8 5 5 8 5 5 8 5 5 8 5 5 8 5 5 8 5 5 8 5 5 8 5 5
8 5 5 8 5 5 8 5 5 8 5 5 8 5 5 8 5 5 8 5 5 8 5 5 8 5 5 8 5 5 8 5 5 8 5
5 8 5 5 8 5 5 8 5 5 8 5 5 8 5 5 8 5 5 8 5 5 8 5 5 8 5 5 8 5 5 8 5 5 8
5 5 8 5 5 8 5 5 8 5 5 8 5 5 8 5 5 8 5 5 8 5 5 8 5 5 8 5 5 8 5 5 8 189
73 136 204 79 147 213 83 154 219 85 158 223 87 161 226 88 163 228 89
165 229 89 165 229 89 165 228 89 165 227 88 164 225 88 163 223 87 161
221 86 160 218 85 157 214 83 154 210 82 152 206 80 149 201 78 145 196
76 142 191 74 138 185 72 134 180 70 130 173 67 125 167 65 120 159 62
115 152 59 110 144 56 104 136 53 98 127 49 92 117 46 85 107 42 77 96
37 69 84 33 61 71 27 51 55 22 40 38 15 27 23 9 17 5 5 8 5 5 8 5 5 8 5
5 8 5 5 8 5 5 8 5 5 8 5 5 8 5 5 8 5 5 8 5 5 8 5 5 8 5 5 8 5 5 8 5 5 8
5 5 8 5 5 8 5 5 8 5 5 8 5 5 8 5 5 8 5 5 8 5 5 8 5 5 8 5 5 8 5 5 8 5 5
8 5 5 8 5 5 8 5 5 8 5 5 8 5 5 8 5 5 8 5 5 8 5 5 8 5 5 8 5 5 8 5 5 8 5
5 7 5 5 7 5 5 7 5 5 7 5 5 7 5 5 7 5 5 7 5 5 7 5 5 7 5 5 7 5 5 7 5 5 7
5 5 7 5 5 7 5 5 7 5 5 7 5 5 7 5 5 7 5 5 7 5 5 7 4 4 7 4 4 7 4 4 7 4 4
7 4 4 7 4 4 7 4 4 7 4 4 7 4 4 7 4 4 7 4 4 7 4 4 7 4 4 7 4 4 7 4 4 7 4
4 7 4 4 7 4 4 7 4 4 7 4 4 7 4 4 7 4 4 7 4 4 7
5 5 8 5 5 8 5 5 8 5 5 8 5 5 8 5 5 8 5 5 8 5 5 8 5 5 8 5 5 8 5 5 8 5 5
8 5 5 8 5 5 8 5 5 8 5 5 8 5 5 8 5 5 8 5 5 8 5 5 8 5 5 8 5 5 8 5 5 8 5
5 8 5 5 8 5 5 8 5 5 8 5 5 8 5 5 9 5 5 9 5 5 9 5 5 9 5 5 9 5 5 9 5 5 9
5 5 9 5 5 9 5 5 9 5 5 9 5 5 9 5 5 9 5 5 9 5 5 9 5 5 9 26 26 26 26 26
26 26 26 26 26 26 26 26 26 26 5 5 9 5 5 9 5 5 9 5 5 9 5 5 9 5 5 9 5 5
9 5 5 9 5 5 9 5 5 9 5 5 9 5 5 9 29 44 147 30 45 149 30 45 151 5 8 26 5
8 26 5 5 9 5 5 9 5 5 9 5 5 9 5 5 9 5 5 9 5 5 9 5 5 9 5 5 9 5 5 9 5 5 9
5 5 9 5 5 9 5 5 9 168 65 121 194 75 140 206 80 149 214 83 155 219 85
158 223 87 161 226 88 163 227 88 164 228 88 164 227 88 164 227 88 164
225 88 163 224 88 162 227 91 165 230 96 169 223 91 163 214 84 155 208
81 150 204 79 147 200 78 144 195 76 141 189 74 137 184 71 133 178 69
129 172 67 124 165 64 119 158 61 114 151 59 109 143 56 103 135 52 97
126 49 91 116 45 84 106 41 77 96 37 69 84 33 61 71 28 51 57 22 41 40
16 29 23 9 17 23 9 17 5 5 8 5 5 8 5 5 8 5 5 8 5 5 8 5 5 8 5 5 8 5 5 8
5 5 8 5 5 8 5 5 8 5 5 8 5 5 8 5 5 8 5 5 8 5 5 8 5 5 8 5 5 8 5 5 8 5 5
8 5 5 8 5 5 8 5 5 8 5 5 8 5 5 8 5 5 8 5 5 8 5 5 8 5 5 8 5 5 8 5 5 8 5
5 8 5 5 8 5 5 8 5 5 8 5 5 8 5 5 8 5 5 8 5 5 8 5 5 8 5 5 8 5 5 8 5 5 8
5 5 8 5 5 8 5 5 8 5 5 8 5 5 8 5 5 8 5 5 8 5 5 7 5 5 7 5 5 7 5 5 7 5 5
7 5 5 7 5 5 7 5 5 7 5 5 7 5 5 7 5 5 7 5 5 7 5 5 7 5 5 7 5 5 7 5 5 7 5
5 7 5 5 7 5 5 7 4 4 7 4 4 7 4 4 7 4 4 7 4 4 7 4 4 7 4 4 7 4 4 7 4 4 7
4 4 7 4 4 7
5 5 8 5 5 8 5 5 9 5 5 9 5 5 9 5 5 9 5 5 9 5 5 9 5 5 9 5 5 9 5 5 9 5 5
9 5 5 9 5 5 9 5 5 9 5 5 9 5 5 9 5 5 9 5 5 9 5 5 9 5 5 9 5 5 9 5 5 9 5
5 9 5 5 9 5 5 9 5 5 9 5 5 9 5 5 9 5 5 9 5 5 9 6 6 9 6 6 9 6 6 9 6 6 9
6 6 9 6 6 9 6 6 9 6 6 9 6 6 9 6 6 9 6 6 9 6 6 9 6 6 9 26 26 26 26 26
26 26 26 26 26 26 26 26 26 26 26 26 26 6 6 9 6 6 9 6 6 9 6 6 9 6 6 9 6
6 9 6 6 9 6 6 9 6 6 9 6 6 9 29 43 144 29 44 147 30 45 149 30 45 151 5
8 26 5 8 26 5 8 26 6 6 9 6 6 9 6 6 9 6 6 9 6 6 9 6 6 9 6 6 9 6 6 9 6 6
9 6 6 9 6 6 9 6 6 9 6 6 9 178 69 128 196 76 142 207 80 149 214 83 154
219 85 158 222 86 160 224 87 162 225 88 163 226 88 163 226 88 163 225
87 162 224 87 162 228 93 167 255 125 198 255 151 223 250 119 191 217
88 158 207 81 149 202 79 146 197 77 143 193 75 139 187 73 135 182 71
131 176 68 127 170 66 123 163 63 118 156 61 113 149 58 108 141 55 102
133 52 96 124 48 90 115 45 83 105 41 76 95 37 69 84 32 60 71 28 51 57
22 41 41 16 30 23 9 17 23 9 17 5 5 8 5 5 8 5 5 8 5 5 8 5 5 8 5 5 8 5 5
8 5 5 8 5 5 8 5 5 8 5 5 8 5 5 8 5 5 8 5 5 8 5 5 8 5 5 8 5 5 8 5 5 8 5
5 8 5 5 8 5 5 8 5 5 8 5 5 8 5 5 8 5 5 8 5 5 8 5 5 8 5 5 8 5 5 8 5 5 8
5 5 8 5 5 8 5 5 8 5 5 8 5 5 8 5 5 8 5 5 8 5 5 8 5 5 8 5 5 8 5 5 8 5 5
8 5 5 8 5 5 8 5 5 8 5 5 8 5 5 8 5 5 8 5 5 8 5 5 8 5 5 8 5 5 8 5 5 8 5
5 8 5 5 8 5 5 8 5 5 8 5 5 8 5 5 8 5 5 8 5 5 8 5 5 8 5 5 7 5 5 7 5 5 7
5 5 7 5 5 7 5 5 7 5 5 7 5 5 7 5 5 7 5 5 7 5 5 7 5 5 7 5 5 7 5 5 7 5 5
7 5 5 7 5 5 7 5 5 7
5 5 9 5 5 9 5 5 9 5 5 9 6 6 9 6 6 9 6 6 9 6 6 9 6 6 9 6 6 9 6 6 9 6 6
9 6 6 9 6 6 9 6 6 9 6 6 9 6 6 9 6 6 9 6 6 9 6 6 9 6 6 9 6 6 9 6 6 9 6
6 9 6 6 9 6 6 9 6 6 9 6 6 9 6 6 9 6 6 9 6 6 9 6 6 9 6 6 9 6 6 9 6 6 9
6 6 9 6 6 9 6 6 9 6 6 9 6 6 9 6 6 9 6 6 9 6 6 9 26 26 26 26 26 26 26
26 26 26 26 26 26 26 26 26 26 26 23 5 15 23 5 15 23 5 15 6 6 9 6 6 9 6
6 9 6 6 9 6 6 9 6 6 9 6 6 9 28 42 139 29 43 144 29 44 146 30 44 148 30
45 150 5 8 26 5 8 26 5 8 26 6 6 9 6 6 9 6 6 9 6 6 9 6 6 9 6 6 9 6 6 9
6 6 9 6 6 9 6 6 9 6 6 9 6 6 9 6 6 9 182 71 131 197 77 142 206 80 149
213 83 154 217 85 157 220 86 159 222 86 161 223 87 161 224 87 162 223
87 161 222 87 161 222 87 161 238 104 177 255 171 243 255 208 255 255
141 211 217 90 159 204 80 148 199 78 144 195 76 141 190 74 137 185 72
134 179 70 130 174 68 125 167 65 121 161 63 116 154 60 111 147 57 106
139 54 101 131 51 95 123 48 89 114 44 82 104 40 75 93 36 68 82 32 59
70 27 51 57 22 41 42 16 30 24 9 17 23 9 17 5 5 9 5 5 9 5 5 9 5 5 9 5 5
9 5 5 9 5 5 9 5 5 9 5 5 9 5 5 9 5 5 9 5 5 9 5 5 9 5 5 9 5 5 8 5 5 8 5
5 8 5 5 8 5 5 8 5 5 8 5 5 8 5 5 8 5 5 8 5 5 8 5 5 8 5 5 8 5 5 8 5 5 8
5 5 8 5 5 8 5 5 8 5 5 8 5 5 8 5 5 8 5 5 8 5 5 8 5 5 8 5 5 8 5 5 8 5 5
8 5 5 8 5 5 8 5 5 8 5 5 8 5 5 8 5 5 8 5 5 8 5 5 8 5 5 8 5 5 8 5 5 8 5
5 8 5 5 8 5 5 8 5 5 8 5 5 8 5 5 8 5 5 8 5 5 8 5 5 8 5 5 8 5 5 8 5 5 8
5 5 8 5 5 8 5 5 8 5 5 8 5 5 8 5 5 8 5 5 8 5 5 8 5 5 8 5 5 8 5 5 8 5 5
7 5 5 7 5 5 7 5 5 7 5 5 7 5 5 7
6 6 9 6 6 9 6 6 9 6 6 9 6 6 9 6 6 9 6 6 9 6 6 9 6 6 9 6 6 9 6 6 9 6 6
9 6 6 9 6 6 9 6 6 9 6 6 9 6 6 9 6 6 9 6 6 9 6 6 9 6 6 9 6 6 9 6 6 9 6
6 9 6 6 9 6 6 9 6 6 9 6 6 9 6 6 9 6 6 9 6 6 9 6 6 9 6 6 9 6 6 9 6 6 9
6 6 9 6 6 9 6 6 9 6 6 9 6 6 9 6 6 9 6 6 9 6 6 9 26 26 26 26 26 26 26
26 26 26 26 26 23 5 15 23 5 15 23 5 15 114 25 76 23 5 15 23 5 15 23 5
15 6 6 9 6 6 9 6 6 9 6 6 9 6 6 9 28 41 138 28 43 142 29 43 145 29 44
146 30 44 148 5 8 26 5 8 26 5 8 26 6 6 9 6 6 9 6 6 9 6 6 9 6 6 9 6 6 9
6 6 9 6 6 9 6 6 9 6 6 9 6 6 9 6 6 9 152 59 110 183 71 132 196 76 142
205 80 148 211 82 152 215 84 155 218 85 157 220 85 159 221 86 159 221
86 160 221 86 159 220 85 159 219 86 159 232 100 172 255 145 216 255
159 229 240 113 182 209 84 152 201 78 145 197 76 142 192 75 139 187 73
135 182 71 132 177 69 128 171 66 123 165 64 119 158 62 114 151 59 109
144 56 104 137 53 99 129 50 93 120 47 87 111 43 80 102 40 74 92 36 66
81 31 58 69 27 50 56 22 40 41 16 29 24 9 17 23 9 17 23 9 17 6 6 9 6 6
9 6 6 9 6 6 9 6 6 9 6 6 9 6 6 9 6 6 9 5 5 9 5 5 9 5 5 9 5 5 9 5 5 9 5
5 9 5 5 9 5 5 9 5 5 9 5 5 9 5 5 9 5 5 9 5 5 9 5 5 9 5 5 9 5 5 9 5 5 9
5 5 9 5 5 8 5 5 8 5 5 8 5 5 8 5 5 8 5 5 8 5 5 8 5 5 8 5 5 8 5 5 8 5 5
8 5 5 8 5 5 8 5 5 8 5 5 8 5 5 8 5 5 8 5 5 8 5 5 8 5 5 8 5 5 8 5 5 8 5
5 8 5 5 8 5 5 8 5 5 8 5 5 8 5 5 8 5 5 8 5 5 8 5 5 8 5 5 8 5 5 8 5 5 8
5 5 8 5 5 8 5 5 8 5 5 8 5 5 8 5 5 8 5 5 8 5 5 8 5 5 8 5 5 8 5 5 8 5 5
8 5 5 8 5 5 8 5 5 8 5 5 8 5 5 8 5 5 8 5 5 8
6 6 9 6 6 9 6 6 9 6 6 9 6 6 9 6 6 9 6 6 9 6 6 9 6 6 9 6 6 9 6 6 9 6 6
9 6 6 9 6 6 9 6 6 9 6 6 9 6 6 10 6 6 10 6 6 10 6 6 10 6 6 10 6 6 10 6
6 10 6 6 10 6 6 10 6 6 10 6 6 10 6 6 10 6 6 10 6 6 10 6 6 10 6 6 10 6
6 10 6 6 10 6 6 10 6 6 10 6 6 10 6 6 10 6 6 10 6 6 10 6 6 10 6 6 10 6
6 10 6 6 10 26 26 26 26 26 26 23 5 15 23 5 15 112 25 74 114 25 76 115
26 77 23 5 15 23 5 15 23 5 15 23 5 15 6 6 10 6 6 10 6 6 10 6 6 10 27
40 135 28 42 139 28 43 142 29 43 144 29 44 145 5 8 26 5 8 26 5 8 26 6
6 10 6 6 10 6 6 10 6 6 10 6 6 10 6 6 10 6 6 10 6 6 10 6 6 10 6 6 10 6
6 10 6 6 10 158 62 114 182 71 132 195 76 141 203 79 147 209 81 151 212
83 153 215 84 155 217 84 157 218 85 157 218 85 157 217 85 157 216 84
156 215 84 156 217 87 158 225 97 167 224 97 166 211 86 154 202 79 146
198 77 143 193 75 140 189 73 136 184 72 133 179 70 129 174 67 125 168
65 121 162 63 117 155 60 112 149 58 107 141 55 102 134 52 97 126 49 91
118 46 85 109 42 79 99 39 72 89 35 64 78 30 57 67 26 48 54 21 39 39 15
28 23 9 17 23 9 17 23 9 17 6 6 9 6 6 9 6 6 9 6 6 9 6 6 9 6 6 9 6 6 9 6
6 9 6 6 9 6 6 9 6 6 9 6 6 9 6 6 9 6 6 9 6 6 9 6 6 9 6 6 9 6 6 9 6 6 9
6 6 9 6 6 9 5 5 9 5 5 9 5 5 9 5 5 9 5 5 9 5 5 9 5 5 9 5 5 9 5 5 9 5 5
9 5 5 9 5 5 9 5 5 9 5 5 9 5 5 9 5 5 9 5 5 8 5 5 8 5 5 8 5 5 8 5 5 8 5
5 8 5 5 8 5 5 8 5 5 8 5 5 8 5 5 8 5 5 8 5 5 8 5 5 8 5 5 8 5 5 8 5 5 8
5 5 8 5 5 8 5 5 8 5 5 8 5 5 8 5 5 8 5 5 8 5 5 8 5 5 8 5 5 8 5 5 8 5 5
8 5 5 8 5 5 8 5 5 8 5 5 8 5 5 8 5 5 8 5 5 8 5 5 8 5 5 8 5 5 8 5 5 8 5
5 8 5 5 8
6 6 10 6 6 10 6 6 10 6 6 10 6 6 10 6 6 10 6 6 10 6 6 10 6 6 10 6 6 10
6 6 10 6 6 10 6 6 10 6 6 10 6 6 10 6 6 10 6 6 10 6 6 10 6 6 10 6 6 10
6 6 10 6 6 10 6 6 10 6 6 10 6 6 10 6 6 10 6 6 10 6 6 10 6 6 10 6 6 10
6 6 10 6 6 10 6 6 10 6 6 10 6 6 10 6 6 10 6 6 10 6 6 10 6 6 10 6 6 10
6 6 10 6 6 10 6 6 10 6 6 10 26 26 26 26 26 26 23 5 15 23 5 15 112 25
74 114 25 76 115 26 77 23 5 15 23 5 15 23 5 15 23 5 15 23 5 15 6 6 10
6 6 10 6 6 10 26 39 130 27 41 136 28 42 139 28 42 141 28 43 142 5 8 26
5 8 26 5 8 26 6 6 10 6 6 10 6 6 10 6 6 10 6 6 10 6 6 10 6 6 10 6 6 10
6 6 10 6 6 10 6 6 10 6 6 10 160 62 115 181 70 131 192 75 139 200 78
144 205 80 148 209 81 151 212 82 153 213 83 154 214 83 155 214 83 155
214 83 154 213 83 154 211 82 153 210 82 152 208 82 151 205 81 149 202
79 146 198 77 143 194 75 140 190 74 137 185 72 134 181 70 130 175 68
127 170 66 123 164 64 119 158 62 114 152 59 110 145 56 105 138 54 100
131 51 94 123 48 89 114 45 83 106 41 76 96 37 70 86 34 62 76 29 55 64
25 46 51 20 37 37 14 27 23 9 17 23 9 17 23 9 17 6 6 9 6 6 9 6 6 9 6 6
9 6 6 9 6 6 9 6 6 9 6 6 9 6 6 9 6 6 9 6 6 9 6 6 9 6 6 9 6 6 9 6 6 9 6
6 9 6 6 9 6 6 9 6 6 9 6 6 9 6 6 9 6 6 9 6 6 9 6 6 9 6 6 9 6 6 9 6 6 9
6 6 9 6 6 9 6 6 9 6 6 9 6 6 9 5 5 9 5 5 9 5 5 9 5 5 9 5 5 9 5 5 9 5 5
9 5 5 9 5 5 9 5 5 9 5 5 9 5 5 9 5 5 9 5 5 9 5 5 9 5 5 8 5 5 8 5 5 8 5
5 8 5 5 8 5 5 8 5 5 8 5 5 8 5 5 8 5 5 8 5 5 8 5 5 8 5 5 8 5 5 8 5 5 8
5 5 8 5 5 8 5 5 8 5 5 8 5 5 8 5 5 8 5 5 8 5 5 8 5 5 8 5 5 8 5 5 8 5 5
8 5 5 8 5 5 8 5 5 8 5 5 8 5 5 8
6 6 10 6 6 10 6 6 10 6 6 10 6 6 10 6 6 10 6 6 10 6 6 10 6 6 10 6 6 10
6 6 10 6 6 10 6 6 10 6 6 10 6 6 10 6 6 10 6 6 10 6 6 10 6 6 10 6 6 10
6 6 10 6 6 10 6 6 10 6 6 10 6 6 10 6 6 10 6 6 10 6 6 10 6 6 10 6 6 10
6 6 10 6 6 10 6 6 10 6 6 10 6 6 10 6 6 10 6 6 10 6 6 10 6 6 10 6 6 10
6 6 10 6 6 10 6 6 10 6 6 10 6 6 10 23 5 15 23 5 15 108 24 72 111 25 74
113 25 75 114 25 76 23 5 15 23 5 15 23 5 15 23 5 15 23 5 15 6 6 10 6 6
10 6 6 10 6 6 10 26 39 130 27 40 134 27 41 136 27 41 137 5 8 26 5 8 26
6 6 10 6 6 10 6 6 10 6 6 10 6 6 10 6 6 10 6 6 10 6 6 10 6 6 10 6 6 10
6 6 10 6 6 10 6 6 10 158 62 114 178 69 128 189 73 136 196 76 142 202
78 146 205 80 148 208 81 150 210 81 151 210 82 152 210 82 152 210 82
152 209 81 151 207 81 150 205 80 148 203 79 147 200 78 145 197 77 142
194 75 140 190 74 137 186 72 134 181 71 131 177 69 128 172 67 124 166
65 120 161 62 116 155 60 112 148 58 107 142 55 102 135 52 97 127 49 92
119 46 86 111 43 80 102 40 74 93 36 67 83 32 60 72 28 52 61 24 44 48
19 35 34 13 25 23 9 17 23 9 17 23 9 17 6 6 10 6 6 10 6 6 10 6 6 10 6 6
10 6 6 9 6 6 9 6 6 9 6 6 9 6 6 9 6 6 9 6 6 9 6 6 9 6 6 9 6 6 9 6 6 9 6
6 9 6 6 9 6 6 9 6 6 9 6 6 9 6 6 9 6 6 9 6 6 9 6 6 9 6 6 9 6 6 9 6 6 9
6 6 9 6 6 9 6 6 9 6 6 9 6 6 9 6 6 9 6 6 9 6 6 9 6 6 9 6 6 9 6 6 9 6 6
9 6 6 9 6 6 9 5 5 9 5 5 9 5 5 9 5 5 9 5 5 9 5 5 9 5 5 9 5 5 9 5 5 9 5
5 9 5 5 9 5 5 9 5 5 9 5 5 9 5 5 9 5 5 8 5 5 8 5 5 8 5 5 8 5 5 8 5 5 8
5 5 8 5 5 8 5 5 8 5 5 8 5 5 8 5 5 8 5 5 8 5 5 8 5 5 8 5 5 8 5 5 8 5 5
8 5 5 8 5 5 8 5 5 8 5 5 8
6 6 10 6 6 10 6 6 10 6 6 10 6 6 10 6 6 10 6 6 10 6 6 10 6 6 10 6 6 10
6 6 10 6 6 10 6 6 10 6 6 10 6 6 10 6 6 10 6 6 10 6 6 10 6 6 10 6 6 10
6 6 10 6 6 10 6 6 10 6 6 10 6 6 10 7 7 10 7 7 10 7 7 10 7 7 10 7 7 10
7 7 10 7 7 10 7 7 10 7 7 10 7 7 10 7 7 10 7 7 10 7 7 10 7 7 10 7 7 10
7 7 10 7 7 10 7 7 10 7 7 10 7 7 10 23 5 15 23 5 15 107 24 71 109 24 73
111 25 74 112 25 75 23 5 15 23 5 15 23 5 15 23 5 15 23 5 15 23 5 15 7
7 10 7 7 10 7 7 10 7 7 10 7 7 10 5 8 26 5 8 26 5 8 26 7 7 10 7 7 10 7
7 10 7 7 10 7 7 10 7 7 10 7 7 10 7 7 10 7 7 10 7 7 10 7 7 10 6 6 10 6
6 10 6 6 10 155 60 112 174 68 126 185 72 134 192 75 139 197 77 143 201
78 145 204 79 147 205 80 148 206 80 149 206 80 149 206 80 148 205 80
148 203 79 147 201 78 145 199 77 144 196 76 142 193 75 139 190 74 137
186 72 134 182 71 131 177 69 128 173 67 125 168 65 121 162 63 117 157
61 113 151 59 109 144 56 104 138 54 99 131 51 94 123 48 89 115 45 83
107 42 77 98 38 71 89 35 64 79 31 57 69 27 50 57 22 41 45 17 32 31 12
22 23 9 17 23 9 17 23 9 17 6 6 10 6 6 10 6 6 10 6 6 10 6 6 10 6 6 10 6
6 10 6 6 10 6 6 10 6 6 10 6 6 10 6 6 10 6 6 10 6 6 10 6 6 10 6 6 10 6
6 9 6 6 9 6 6 9 6 6 9 6 6 9 6 6 9 6 6 9 6 6 9 6 6 9 6 6 9 6 6 9 6 6 9
6 6 9 6 6 9 6 6 9 6 6 9 6 6 9 6 6 9 6 6 9 6 6 9 6 6 9 6 6 9 6 6 9 6 6
9 6 6 9 6 6 9 6 6 9 6 6 9 6 6 9 6 6 9 6 6 9 6 6 9 6 6 9 6 6 9 6 6 9 5
5 9 5 5 9 5 5 9 5 5 9 5 5 9 5 5 9 5 5 9 5 5 9 5 5 9 5 5 9 5 5 9 5 5 9
5 5 9 5 5 9 5 5 9 5 5 8 5 5 8 5 5 8 5 5 8 5 5 8 5 5 8 5 5 8 5 5 8 5 5
8 5 5 8 5 5 8 5 5 8 5 5 8
6 6 10 7 7 10 7 7 10 7 7 10 7 7 10 7 7 10 7 7 10 7 7 10 7 7 10 7 7 11
7 7 11 7 7 11 7 7 11 7 7 11 7 7 11 7 7 11 7 7 11 7 7 11 7 7 11 7 7 11
7 7 11 7 7 11 7 7 11 7 7 11 7 7 11 7 7 11 7 7 11 7 7 11 7 7 11 7 7 11
7 7 11 7 7 11 7 7 11 7 7 11 7 7 11 7 7 11 7 7 11 7 7 11 7 7 11 7 7 11
7 7 11 7 7 11 7 7 11 7 7 11 7 7 11 23 5 15 23 5 15 105 23 70 107 24 71
109 24 72 110 24 73 23 5 15 23 5 15 23 5 15 23 5 15 23 5 15 23 5 15 7
7 11 7 7 11 7 7 11 7 7 11 7 7 11 7 7 11 7 7 11 7 7 11 7 7 11 7 7 11 7
7 11 7 7 11 7 7 11 7 7 11 7 7 11 7 7 11 7 7 11 7 7 11 7 7 11 7 7 11 7
7 11 7 7 11 150 58 109 169 66 122 180 70 130 187 73 135 193 75 139 196
76 142 199 77 144 200 78 145 201 78 145 201 78 145 201 78 145 200 78
144 198 77 143 196 76 142 194 76 140 191 74 138 188 73 136 185 72 134
181 70 131 177 69 128 173 67 125 168 65 121 163 63 118 158 61 114 152
59 110 146 57 106 140 54 101 133 52 96 126 49 91 119 46 86 111 43 80
103 40 74 94 37 68 85 33 61 75 29 54 65 25 47 53 21 38 41 16 29 27 10
19 23 9 17 23 9 17 23 9 17 6 6 10 6 6 10 6 6 10 6 6 10 6 6 10 6 6 10 6
6 10 6 6 10 6 6 10 6 6 10 6 6 10 6 6 10 6 6 10 6 6 10 6 6 10 6 6 10 6
6 10 6 6 10 6 6 10 6 6 10 6 6 10 6 6 10 6 6 10 6 6 10 6 6 10 6 6 9 6 6
9 6 6 9 6 6 9 6 6 9 6 6 9 6 6 9 6 6 9 6 6 9 6 6 9 6 6 9 6 6 9 6 6 9 6
6 9 6 6 9 6 6 9 6 6 9 6 6 9 6 6 9 6 6 9 6 6 9 6 6 9 6 6 9 6 6 9 6 6 9
6 6 9 6 6 9 6 6 9 6 6 9 6 6 9 6 6 9 6 6 9 6 6 9 6 6 9 5 5 9 5 5 9 5 5
9 5 5 9 5 5 9 5 5 9 5 5 9 5 5 9 5 5 9 5 5 9 5 5 9 5 5 9 5 5 9 5 5 9 5
5 9 5 5 8 5 5 8 5 5 8 5 5 8 5 5 8
7 7 11 7 7 11 7 7 11 7 7 11 7 7 11 7 7 11 7 7 11 7 7 11 7 7 11 7 7 11
7 7 11 7 7 11 7 7 11 7 7 11 7 7 11 7 7 11 7 7 11 7 7 11 7 7 11 7 7 11
7 7 11 7 7 11 7 7 11 7 7 11 7 7 11 7 7 11 7 7 11 7 7 11 7 7 11 7 7 11
7 7 11 7 7 11 7 7 11 7 7 11 7 7 11 7 7 11 7 7 11 7 7 11 7 7 11 7 7 11
7 7 11 7 7 11 7 7 11 7 7 11 7 7 11 23 5 15 23 5 15 102 23 68 104 23 69
106 24 71 107 24 71 23 5 15 23 5 15 23 5 15 23 5 15 23 5 15 7 7 11 7 7
11 7 7 11 7 7 11 7 7 11 7 7 11 7 7 11 7 7 11 7 7 11 7 7 11 7 7 11 7 7
11 7 7 11 7 7 11 7 7 11 7 7 11 7 7 11 7 7 11 7 7 11 7 7 11 7 7 11 7 7
11 7 7 11 144 56 104 163 64 118 175 68 126 182 71 131 187 73 135 191
74 138 194 75 140 195 76 141 196 76 142 196 76 142 196 76 141 195 76
141 193 75 140 191 74 138 189 74 137 187 73 135 183 71 133 180 70 130
176 69 127 172 67 124 168 65 121 163 64 118 158 62 114 153 60 111 147
57 106 141 55 102 135 53 98 129 50 93 122 47 88 114 44 83 107 41 77 98
38 71 90 35 65 80 31 58 71 27 51 60 23 43 49 19 35 36 14 26 23 9 17 23
9 17 23 9 17 23 9 17 6 6 10 6 6 10 6 6 10 6 6 10 6 6 10 6 6 10 6 6 10
6 6 10 6 6 10 6 6 10 6 6 10 6 6 10 6 6 10 6 6 10 6 6 10 6 6 10 6 6 10
6 6 10 6 6 10 6 6 10 6 6 10 6 6 10 6 6 10 6 6 10 6 6 10 6 6 10 6 6 10
6 6 10 6 6 10 6 6 10 6 6 10 6 6 10 6 6 10 6 6 10 6 6 9 6 6 9 6 6 9 6 6
9 6 6 9 6 6 9 6 6 9 6 6 9 6 6 9 6 6 9 6 6 9 6 6 9 6 6 9 6 6 9 6 6 9 6
6 9 6 6 9 6 6 9 6 6 9 6 6 9 6 6 9 6 6 9 6 6 9 6 6 9 6 6 9 6 6 9 6 6 9
6 6 9 6 6 9 6 6 9 6 6 9 6 6 9 6 6 9 5 5 9 5 5 9 5 5 9 5 5 9 5 5 9 5 5
9 5 5 9 5 5 9 5 5 9 5 5 9 5 5 9 5 5 9
7 7 11 7 7 11 7 7 11 7 7 11 7 7 11 7 7 11 7 7 11 7 7 11 7 7 11 7 7 11
7 7 11 7 7 11 7 7 11 7 7 11 7 7 11 7 7 11 7 7 11 7 7 11 7 7 11 7 7 11
7 7 11 7 7 11 7 7 11 7 7 11 7 7 11 7 7 11 7 7 11 7 7 11 7 7 11 7 7 11
7 7 11 7 7 11 7 7 11 7 7 11 7 7 11 7 7 11 7 7 11 7 7 11 7 7 11 7 7 11
7 7 11 7 7 11 7 7 11 7 7 11 7 7 11 7 7 11 23 5 15 23 5 15 101 22 67
102 23 68 104 23 69 23 5 15 23 5 15 23 5 15 23 5 15 23 5 15 7 7 11 7 7
11 7 7 11 7 7 11 7 7 11 7 7 11 7 7 11 7 7 11 7 7 11 7 7 11 7 7 11 7 7
11 7 7 11 7 7 11 7 7 11 7 7 11 7 7 11 7 7 11 7 7 11 7 7 11 7 7 11 7 7
11 7 7 11 136 53 98 157 61 113 168 65 122 176 68 127 181 71 131 185 72
134 188 73 136 190 74 137 191 74 138 191 74 138 190 74 137 189 74 137
188 73 136 186 72 134 184 72 133 181 70 131 178 69 129 175 68 126 171
67 124 167 65 121 163 63 118 158 62 114 153 60 111 148 58 107 142 55
103 136 53 99 130 51 94 124 48 89 117 45 84 109 43 79 102 40 73 93 36
67 85 33 61 76 29 55 66 26 47 55 21 40 44 17 32 31 12 23 23 9 17 23 9
17 23 9 17 23 9 17 6 6 10 6 6 10 6 6 10 6 6 10 6 6 10 6 6 10 6 6 10 6
6 10 6 6 10 6 6 10 6 6 10 6 6 10 6 6 10 6 6 10 6 6 10 6 6 10 6 6 10 6
6 10 6 6 10 6 6 10 6 6 10 6 6 10 6 6 10 6 6 10 6 6 10 6 6 10 6 6 10 6
6 10 6 6 10 6 6 10 6 6 10 6 6 10 6 6 10 6 6 10 6 6 10 6 6 10 6 6 10 6
6 10 6 6 10 6 6 10 6 6 10 6 6 10 6 6 9 6 6 9 6 6 9 6 6 9 6 6 9 6 6 9 6
6 9 6 6 9 6 6 9 6 6 9 6 6 9 6 6 9 6 6 9 6 6 9 6 6 9 6 6 9 6 6 9 6 6 9
6 6 9 6 6 9 6 6 9 6 6 9 6 6 9 6 6 9 6 6 9 6 6 9 6 6 9 6 6 9 6 6 9 6 6
9 6 6 9 6 6 9 6 6 9 5 5 9 5 5 9 5 5 9 5 5 9
7 7 11 7 7 11 7 7 11 7 7 11 7 7 11 7 7 11 7 7 11 7 7 11 7 7 11 7 7 11
7 7 11 7 7 11 7 7 11 7 7 11 7 7 11 7 7 11 7 7 11 7 7 11 7 7 11 7 7 11
7 7 11 7 7 11 7 7 11 7 7 11 7 7 11 7 7 11 7 7 11 7 7 11 7 7 11 7 7 11
7 7 11 7 7 11 7 7 11 7 7 11 7 7 11 7 7 11 7 7 11 7 7 11 7 7 12 7 7 12
7 7 12 7 7 12 7 7 12 7 7 12 7 7 12 7 7 12 23 5 15 23 5 15 23 5 15 98
22 65 99 22 66 23 5 15 23 5 15 23 5 15 23 5 15 7 7 11 7 7 11 7 7 11 7
7 11 7 7 11 7 7 11 7 7 11 7 7 11 7 7 11 7 7 11 7 7 11 7 7 11 7 7 11 7
7 11 7 7 11 7 7 11 7 7 11 7 7 11 7 7 11 7 7 11 7 7 11 7 7 11 7 7 11 7
7 11 125 49 90 149 58 108 161 63 116 169 66 122 175 68 126 179 70 129
182 71 131 184 71 133 185 72 133 185 72 133 184 72 133 184 71 133 182
71 132 180 70 130 178 69 129 176 68 127 173 67 125 169 66 122 166 64
120 162 63 117 157 61 114 153 59 110 148 57 107 143 55 103 137 53 99
131 51 95 125 49 90 118 46 85 111 43 80 104 40 75 96 37 70 88 34 64 79
31 57 70 27 51 60 23 44 50 19 36 38 15 28 26 10 18 23 9 17 23 9 17 23
9 17 23 9 17 7 7 11 7 7 11 7 7 11 7 7 11 7 7 11 7 7 10 7 7 10 7 7 10 7
7 10 6 6 10 6 6 10 6 6 10 6 6 10 6 6 10 6 6 10 6 6 10 6 6 10 6 6 10 6
6 10 6 6 10 6 6 10 6 6 10 6 6 10 6 6 10 6 6 10 6 6 10 6 6 10 6 6 10 6
6 10 6 6 10 6 6 10 6 6 10 6 6 10 6 6 10 6 6 10 6 6 10 6 6 10 6 6 10 6
6 10 6 6 10 6 6 10 6 6 10 6 6 10 6 6 10 6 6 10 6 6 10 6 6 10 6 6 10 6
6 10 6 6 10 6 6 9 6 6 9 6 6 9 6 6 9 6 6 9 6 6 9 6 6 9 6 6 9 6 6 9 6 6
9 6 6 9 6 6 9 6 6 9 6 6 9 6 6 9 6 6 9 6 6 9 6 6 9 6 6 9 6 6 9 6 6 9 6
6 9 6 6 9 6 6 9 6 6 9 6 6 9 6 6 9 6 6 9 6 6 9
7 7 11 7 7 11 7 7 11 7 7 11 7 7 11 7 7 12 7 7 12 7 7 12 7 7 12 7 7 12
7 7 12 7 7 12 7 7 12 7 7 12 7 7 12 7 7 12 7 7 12 7 7 12 7 7 12 7 7 12
7 7 12 7 7 12 7 7 12 7 7 12 7 7 12 7 7 12 7 7 12 7 7 12 7 7 12 7 7 12
7 7 12 7 7 12 7 7 12 7 7 12 7 7 12 7 7 12 7 7 12 7 7 12 7 7 12 7 7 12
7 7 12 7 7 12 7 7 12 7 7 12 7 7 12 7 7 12 7 7 12 7 7 12 23 5 15 23 5
15 23 5 15 23 5 15 23 5 15 23 5 15 7 7 12 7 7 12 7 7 12 7 7 12 7 7 12
7 7 12 7 7 12 7 7 12 7 7 12 7 7 12 7 7 12 7 7 12 7 7 12 7 7 12 7 7 12
7 7 12 7 7 12 7 7 12 7 7 12 7 7 12 7 7 12 7 7 12 7 7 12 7 7 12 7 7 12
109 42 79 140 54 101 153 60 111 162 63 117 168 65 121 172 67 124 175
68 126 177 69 128 178 69 129 179 69 129 178 69 129 177 69 128 176 69
127 174 68 126 172 67 124 170 66 123 167 65 120 163 64 118 160 62 115
156 61 113 152 59 110 147 57 106 142 55 103 137 53 99 131 51 95 125 49
91 119 46 86 113 44 81 106 41 76 98 38 71 91 35 65 82 32 60 74 29 53
64 25 47 54 21 39 44 17 32 32 13 23 23 9 17 23 9 17 23 9 17 23 9 17 23
9 17 7 7 11 7 7 11 7 7 11 7 7 11 7 7 11 7 7 11 7 7 11 7 7 11 7 7 11 7
7 11 7 7 11 7 7 11 7 7 11 7 7 10 7 7 10 7 7 10 7 7 10 7 7 10 6 6 10 6
6 10 6 6 10 6 6 10 6 6 10 6 6 10 6 6 10 6 6 10 6 6 10 6 6 10 6 6 10 6
6 10 6 6 10 6 6 10 6 6 10 6 6 10 6 6 10 6 6 10 6 6 10 6 6 10 6 6 10 6
6 10 6 6 10 6 6 10 6 6 10 6 6 10 6 6 10 6 6 10 6 6 10 6 6 10 6 6 10 6
6 10 6 6 10 6 6 10 6 6 10 6 6 10 6 6 10 6 6 10 6 6 10 6 6 9 6 6 9 6 6
9 6 6 9 6 6 9 6 6 9 6 6 9 6 6 9 6 6 9 6 6 9 6 6 9 6 6 9 6 6 9 6 6 9 6
6 9 6 6 9 6 6 9 6 6 9 6 6 9 6 6 9 6 6 9 6 6 9
7 7 12 7 7 12 7 7 12 7 7 12 7 7 12 7 7 12 7 7 12 7 7 12 7 7 12 7 7 12
7 7 12 7 7 12 7 7 12 7 7 12 7 7 12 7 7 12 7 7 12 7 7 12 7 7 12 7 7 12
7 7 12 7 7 12 7 7 12 7 7 12 7 7 12 7 7 12 7 7 12 7 7 12 7 7 12 7 7 12
7 7 12 7 7 12 7 7 12 7 7 12 7 7 12 7 7 12 7 7 12 7 7 12 7 7 12 7 7 12
7 7 12 7 7 12 7 7 12 7 7 12 7 7 12 7 7 12 7 7 12 7 7 12 7 7 12 7 7 12
7 7 12 7 7 12 7 7 12 7 7 12 7 7 12 7 7 12 7 7 12 7 7 12 7 7 12 7 7 12
7 7 12 7 7 12 7 7 12 7 7 12 7 7 12 7 7 12 7 7 12 7 7 12 7 7 12 7 7 12
7 7 12 7 7 12 7 7 12 7 7 12 7 7 12 7 7 12 7 7 12 7 7 12 7 7 12 7 7 12
129 50 93 144 56 104 154 60 111 160 62 116 165 64 119 168 65 121 170
66 123 171 67 124 172 67 124 172 67 124 171 66 123 170 66 123 168 65
121 166 65 120 163 64 118 161 62 116 157 61 114 154 60 111 150 58 108
146 57 105 141 55 102 136 53 98 131 51 95 125 49 91 119 46 86 113 44
82 107 41 77 100 39 72 92 36 67 85 33 61 76 30 55 68 26 49 58 23 42 48
19 35 37 15 27 26 10 18 23 9 17 23 9 17 23 9 17 23 9 17 1 1 2 1 1 2 1
1 2 1 1 2 1 1 2 1 1 2 1 1 2 1 1 2 1 1 2 1 1 2 1 1 2 1 1 2 1 1 2 7 7 11
7 7 11 7 7 11 7 7 11 7 7 11 7 7 11 7 7 11 7 7 11 7 7 11 7 7 10 7 7 10
7 7 10 7 7 10 6 6 10 6 6 10 6 6 10 6 6 10 6 6 10 6 6 10 6 6 10 6 6 10
6 6 10 6 6 10 6 6 10 6 6 10 6 6 10 6 6 10 6 6 10 6 6 10 6 6 10 6 6 10
6 6 10 6 6 10 6 6 10 6 6 10 6 6 10 6 6 10 6 6 10 6 6 10 6 6 10 6 6 10
6 6 10 6 6 10 6 6 10 6 6 10 6 6 10 6 6 10 6 6 10 6 6 10 6 6 10 6 6 10
6 6 10 6 6 9 6 6 9 6 6 9 6 6 9 6 6 9 6 6 9 6 6 9 6 6 9 6 6 9 6 6 9 6 6
9 6 6 9 6 6 9 6 6 9 6 6 9
7 7 12 7 7 12 7 7 12 7 7 12 7 7 12 8 8 12 8 8 12 8 8 12 8 8 12 8 8 12
8 8 12 8 8 12 8 8 12 8 8 12 8 8 12 8 8 12 8 8 12 8 8 12 8 8 12 8 8 12
8 8 12 8 8 12 8 8 12 8 8 12 8 8 12 8 8 12 8 8 12 8 8 12 8 8 12 8 8 12
8 8 12 8 8 12 8 8 12 8 8 12 8 8 12 8 8 12 8 8 12 8 8 12 8 8 12 8 8 12
8 8 12 8 8 12 8 8 12 8 8 12 8 8 12 8 8 12 8 8 12 8 8 12 8 8 12 8 8 12
8 8 12 8 8 12 8 8 12 8 8 12 8 8 12 8 8 12 8 8 12 8 8 12 8 8 12 8 8 12
8 8 12 8 8 12 8 8 12 8 8 12 8 8 12 8 8 12 8 8 12 8 8 12 8 8 12 8 8 12
8 8 12 8 8 12 8 8 12 8 8 12 8 8 12 7 7 12 7 7 12 7 7 12 7 7 12 7 7 12
116 45 84 134 52 97 145 56 104 152 59 110 157 61 113 160 62 116 163 63
117 164 64 118 165 64 119 165 64 119 164 64 118 163 63 118 161 63 116
159 62 115 157 61 113 154 60 111 151 59 109 147 57 106 143 56 104 139
54 100 135 52 97 130 50 94 124 48 90 119 46 86 113 44 82 107 42 77 100
39 72 93 36 67 86 33 62 78 30 56 70 27 50 61 24 44 52 20 37 41 16 30
30 12 22 23 9 17 23 9 17 23 9 17 23 9 17 23 9 17 1 1 2 1 1 2 1 1 2 1 1
2 1 1 2 1 1 2 1 1 2 1 1 2 1 1 2 1 1 2 1 1 2 1 1 2 1 1 2 1 1 2 1 1 2 1
1 2 1 1 2 7 7 11 7 7 11 7 7 11 7 7 11 7 7 11 7 7 11 7 7 11 7 7 11 7 7
11 7 7 11 7 7 11 7 7 11 7 7 10 7 7 10 7 7 10 7 7 10 6 6 10 6 6 10 6 6
10 6 6 10 6 6 10 6 6 10 6 6 10 6 6 10 6 6 10 6 6 10 6 6 10 6 6 10 6 6
10 6 6 10 6 6 10 6 6 10 6 6 10 6 6 10 6 6 10 6 6 10 6 6 10 6 6 10 6 6
10 6 6 10 6 6 10 6 6 10 6 6 10 6 6 10 6 6 10 6 6 10 6 6 10 6 6 10 6 6
10 6 6 10 6 6 10 6 6 10 6 6 10 6 6 10 6 6 9 6 6 9 6 6 9 6 6 9 6 6 9 6
6 9 6 6 9 6 6 9 6 6 9
8 8 12 8 8 12 8 8 12 8 8 12 8 8 12 8 8 12 8 8 12 8 8 12 8 8 12 8 8 12
8 8 12 8 8 12 8 8 12 8 8 12 8 8 12 8 8 12 8 8 12 8 8 12 8 8 12 8 8 12
8 8 12 8 8 12 8 8 12 8 8 12 8 8 12 8 8 12 8 8 12 8 8 12 8 8 12 8 8 12
8 8 12 8 8 12 8 8 12 8 8 12 8 8 12 8 8 12 8 8 12 8 8 12 8 8 12 8 8 12
8 8 12 8 8 12 8 8 12 8 8 12 8 8 12 8 8 12 8 8 12 8 8 12 8 8 12 8 8 12
8 8 12 8 8 12 8 8 12 8 8 12 8 8 12 8 8 12 8 8 12 8 8 12 8 8 12 8 8 12
8 8 12 8 8 12 8 8 12 8 8 12 8 8 12 8 8 12 8 8 12 8 8 12 8 8 12 8 8 12
8 8 12 8 8 12 8 8 12 8 8 12 8 8 12 8 8 12 8 8 12 8 8 12 8 8 12 8 8 12
97 38 70 122 48 88 135 52 97 142 55 103 148 58 107 152 59 110 154 60
112 156 61 113 157 61 113 157 61 113 157 61 113 156 60 112 154 60 111
152 59 110 150 58 108 147 57 106 144 56 104 140 55 101 136 53 99 132
51 96 128 50 92 123 48 89 118 46 85 112 44 81 106 41 77 100 39 72 94
36 68 87 34 63 79 31 57 71 28 51 63 24 45 54 21 39 44 17 32 34 13 25
23 9 17 23 9 17 23 9 17 23 9 17 23 9 17 23 9 17 1 1 2 1 1 2 1 1 2 1 1
2 1 1 2 1 1 2 1 1 2 1 1 2 1 1 2 1 1 2 1 1 2 1 1 2 1 1 2 1 1 2 1 1 2 1
1 2 1 1 2 1 1 2 1 1 2 1 1 2 7 7 11 7 7 11 7 7 11 7 7 11 7 7 11 7 7 11
7 7 11 7 7 11 7 7 11 7 7 11 7 7 11 7 7 11 7 7 11 7 7 11 7 7 11 7 7 11
7 7 10 7 7 10 7 7 10 7 7 10 6 6 10 6 6 10 6 6 10 6 6 10 6 6 10 6 6 10
6 6 10 6 6 10 6 6 10 6 6 10 6 6 10 6 6 10 6 6 10 6 6 10 6 6 10 6 6 10
6 6 10 6 6 10 6 6 10 6 6 10 6 6 10 6 6 10 6 6 10 6 6 10 6 6 10 6 6 10
6 6 10 6 6 10 6 6 10 6 6 10 6 6 10 6 6 10 6 6 10 6 6 10 6 6 10 6 6 10
6 6 10 6 6 10 6 6 9 6 6 9
8 8 12 8 8 12 8 8 12 8 8 12 8 8 12 8 8 13 8 8 13 8 8 13 8 8 13 8 8 13
8 8 13 8 8 13 8 8 13 8 8 13 8 8 13 8 8 13 8 8 13 8 8 13 8 8 13 8 8 13
8 8 13 8 8 13 8 8 13 8 8 13 8 8 13 8 8 13 8 8 13 8 8 13 8 8 13 8 8 13
8 8 13 8 8 13 8 8 13 8 8 13 8 8 13 8 8 13 8 8 13 8 8 13 8 8 13 8 8 13
8 8 13 8 8 13 8 8 13 8 8 13 8 8 13 8 8 13 8 8 13 8 8 13 8 8 13 8 8 13
8 8 13 8 8 13 8 8 13 8 8 13 8 8 13 8 8 13 8 8 13 8 8 13 8 8 13 8 8 13
8 8 13 8 8 13 8 8 13 8 8 13 8 8 13 8 8 13 8 8 13 8 8 13 8 8 12 8 8 12
8 8 12 8 8 12 8 8 12 8 8 12 8 8 12 8 8 12 8 8 12 8 8 12 8 8 12 8 8 12
8 8 12 108 42 78 123 48 89 132 51 95 138 54 100 143 56 103 146 57 105
148 57 107 149 58 107 149 58 108 149 58 107 148 57 107 146 57 106 145
56 104 142 55 103 140 54 101 137 53 99 133 52 96 129 50 93 125 49 90
121 47 87 116 45 84 111 43 80 105 41 76 99 39 72 93 36 67 86 34 62 79
31 57 72 28 52 64 25 46 55 22 40 46 18 34 37 14 26 26 10 19 23 9 17 23
9 17 23 9 17 23 9 17 23 9 17 1 1 2 1 1 2 1 1 2 1 1 2 1 1 2 1 1 2 1 1 2
1 1 2 1 1 2 1 1 2 1 1 2 1 1 2 1 1 2 1 1 2 1 1 2 1 1 2 1 1 2 1 1 2 1 1
2 1 1 2 1 1 2 1 1 2 7 7 11 7 7 11 7 7 11 7 7 11 7 7 11 7 7 11 7 7 11 7
7 11 7 7 11 7 7 11 7 7 11 7 7 11 7 7 11 7 7 11 7 7 11 7 7 11 7 7 11 7
7 11 7 7 11 7 7 11 7 7 11 7 7 10 7 7 10 7 7 10 7 7 10 6 6 10 6 6 10 6
6 10 6 6 10 6 6 10 6 6 10 6 6 10 6 6 10 6 6 10 6 6 10 6 6 10 6 6 10 6
6 10 6 6 10 6 6 10 6 6 10 6 6 10 6 6 10 6 6 10 6 6 10 6 6 10 6 6 10 6
6 10 6 6 10 6 6 10 6 6 10 6 6 10 6 6 10 6 6 10 6 6 10 6 6 10 6 6 10 6
6 10 6 6 10
8 8 13 8 8 13 8 8 13 8 8 13 8 8 13 8 8 13 8 8 13 8 8 13 8 8 13 8 8 13
8 8 13 8 8 13 8 8 13 8 8 13 8 8 13 8 8 13 8 8 13 8 8 13 8 8 13 8 8 13
8 8 13 8 8 13 8 8 13 8 8 13 8 8 13 8 8 13 8 8 13 8 8 13 8 8 13 8 8 13
8 8 13 8 8 13 8 8 13 8 8 13 8 8 13 8 8 13 8 8 13 8 8 13 8 8 13 8 8 13
8 8 13 8 8 13 8 8 13 8 8 13 8 8 13 8 8 13 8 8 13 8 8 13 8 8 13 8 8 13
8 8 13 8 8 13 8 8 13 8 8 13 8 8 13 8 8 13 8 8 13 8 8 13 8 8 13 8 8 13
8 8 13 8 8 13 8 8 13 8 8 13 8 8 13 8 8 13 8 8 13 8 8 13 8 8 13 8 8 13
8 8 13 8 8 13 8 8 13 8 8 13 8 8 13 8 8 13 8 8 13 8 8 13 8 8 13 8 8 13
8 8 13 88 34 64 110 43 79 121 47 87 128 50 92 133 52 96 136 53 99 139
54 100 140 54 101 141 55 101 140 55 101 140 54 101 138 54 100 137 53
99 134 52 97 132 51 95 129 50 93 125 49 91 122 47 88 118 46 85 113 44
82 108 42 78 103 40 74 98 38 70 92 36 66 85 33 62 79 31 57 72 28 52 64
25 46 56 22 41 48 18 34 38 15 28 28 11 20 23 9 17 23 9 17 23 9 17 23 9
17 23 9 17 23 9 17 1 1 2 1 1 2 1 1 2 1 1 2 1 1 2 1 1 2 1 1 2 1 1 2 1 1
2 1 1 2 1 1 2 1 1 2 1 1 2 1 1 2 1 1 2 1 1 2 1 1 2 1 1 2 1 1 2 1 1 2 1
1 2 1 1 2 1 1 2 7 7 11 7 7 11 7 7 11 7 7 11 7 7 11 7 7 11 7 7 11 7 7
11 7 7 11 7 7 11 7 7 11 7 7 11 7 7 11 7 7 11 7 7 11 7 7 11 7 7 11 7 7
11 7 7 11 7 7 11 7 7 11 7 7 11 7 7 11 7 7 11 7 7 11 7 7 11 7 7 10 7 7
10 7 7 10 7 7 10 6 6 10 6 6 10 6 6 10 6 6 10 6 6 10 6 6 10 6 6 10 6 6
10 6 6 10 6 6 10 6 6 10 6 6 10 6 6 10 6 6 10 6 6 10 6 6 10 6 6 10 6 6
10 6 6 10 6 6 10 6 6 10 6 6 10 6 6 10 6 6 10 6 6 10 6 6 10 6 6 10 6 6
10
8 8 13 8 8 13 8 8 13 8 8 13 8 8 13 8 8 13 8 8 13 8 8 13 8 8 13 8 8 13
8 8 13 8 8 13 8 8 13 8 8 13 8 8 13 8 8 13 8 8 13 8 8 13 8 8 13 8 8 13
8 8 13 8 8 13 8 8 13 8 8 13 8 8 13 8 8 13 8 8 13 8 8 13 8 8 13 8 8 13
8 8 13 8 8 13 8 8 13 8 8 13 8 8 13 8 8 13 8 8 13 8 8 13 8 8 13 8 8 13
8 8 13 8 8 13 8 8 13 8 8 13 8 8 13 8 8 13 8 8 13 8 8 13 8 8 13 8 8 13
8 8 13 8 8 13 8 8 13 8 8 13 8 8 13 8 8 13 8 8 13 8 8 13 8 8 13 8 8 13
8 8 13 8 8 13 8 8 13 8 8 13 8 8 13 8 8 13 8 8 13 8 8 13 8 8 13 8 8 13
8 8 13 8 8 13 8 8 13 8 8 13 8 8 13 8 8 13 8 8 13 8 8 13 8 8 13 8 8 13
8 8 13 8 8 13 93 36 67 107 42 78 116 45 84 122 47 88 126 49 91 129 50
93 131 51 94 131 51 95 131 51 95 131 51 95 130 50 94 128 50 93 126 49
91 124 48 89 121 47 87 117 46 85 114 44 82 109 43 79 105 41 76 100 39
72 95 37 69 90 35 65 84 33 60 77 30 56 71 27 51 63 25 46 56 22 40 48
19 34 39 15 28 30 11 21 23 9 17 23 9 17 23 9 17 23 9 17 23 9 17 23 9
17 1 1 2 1 1 2 1 1 2 1 1 2 1 1 2 1 1 2 1 1 2 1 1 2 1 1 2 1 1 2 1 1 2 1
1 2 1 1 2 1 1 2 1 1 2 1 1 2 1 1 2 1 1 2 1 1 2 1 1 2 1 1 2 1 1 2 1 1 2
1 1 2 7 7 11 7 7 11 7 7 11 7 7 11 7 7 11 7 7 11 7 7 11 7 7 11 7 7 11 7
7 11 7 7 11 7 7 11 7 7 11 7 7 11 7 7 11 7 7 11 7 7 11 7 7 11 7 7 11 7
7 11 7 7 11 7 7 11 7 7 11 7 7 11 7 7 11 7 7 11 7 7 11 7 7 11 7 7 11 7
7 11 7 7 11 7 7 11 7 7 10 7 7 10 7 7 10 7 7 10 6 6 10 6 6 10 6 6 10 6
6 10 6 6 10 6 6 10 6 6 10 6 6 10 6 6 10 6 6 10 6 6 10 6 6 10 6 6 10 6
6 10 6 6 10 6 6 10 6 6 10 6 6 10 6 6 10 6 6 10 6 6 10 6 6 10
8 8 13 8 8 13 8 8 13 8 8 13 8 8 13 8 8 13 8 8 13 8 8 13 8 8 13 8 8 13
8 8 13 8 8 13 8 8 13 8 8 13 8 8 13 8 8 13 8 8 13 8 8 13 8 8 13 8 8 13
8 8 13 8 8 13 8 8 13 8 8 13 8 8 13 8 8 13 8 8 13 8 8 13 8 8 13 8 8 13
8 8 13 8 8 13 8 8 13 8 8 13 8 8 13 8 8 13 8 8 13 8 8 13 8 8 13 8 8 13
8 8 13 8 8 13 8 8 13 8 8 13 8 8 13 8 8 13 8 8 13 8 8 13 8 8 13 8 8 13
8 8 13 8 8 13 8 8 13 8 8 13 8 8 13 8 8 13 8 8 13 8 8 13 8 8 13 8 8 13
8 8 13 1 1 2 1 1 2 1 1 2 1 1 2 1 1 2 1 1 2 8 8 13 8 8 13 8 8 13 8 8 13
8 8 13 8 8 13 8 8 13 8 8 13 8 8 13 8 8 13 8 8 13 8 8 13 8 8 13 8 8 13
8 8 13 67 26 48 91 36 66 103 40 74 110 43 80 115 45 83 118 46 85 120
47 87 122 47 88 122 47 88 122 47 88 121 47 87 119 46 86 117 46 85 115
45 83 112 44 81 109 42 78 105 41 76 101 39 73 97 38 70 92 36 66 87 34
63 81 32 59 75 29 54 69 27 50 62 24 45 55 21 40 47 18 34 39 15 28 30
12 21 23 9 17 23 9 17 23 9 17 23 9 17 23 9 17 23 9 17 23 9 17 1 1 2 1
1 2 1 1 2 1 1 2 1 1 2 1 1 2 1 1 2 1 1 2 1 1 2 1 1 2 1 1 2 1 1 2 1 1 2
1 1 2 1 1 2 1 1 2 1 1 2 1 1 2 1 1 2 1 1 2 1 1 2 1 1 2 1 1 2 1 1 2 7 7
11 7 7 11 7 7 11 7 7 11 7 7 11 7 7 11 7 7 11 7 7 11 7 7 11 7 7 11 7 7
11 7 7 11 7 7 11 7 7 11 7 7 11 7 7 11 7 7 11 7 7 11 7 7 11 7 7 11 7 7
11 7 7 11 7 7 11 7 7 11 7 7 11 7 7 11 7 7 11 7 7 11 7 7 11 7 7 11 7 7
11 7 7 11 7 7 11 7 7 11 7 7 11 7 7 11 7 7 11 7 7 10 7 7 10 7 7 10 7 7
10 6 6 10 6 6 10 6 6 10 6 6 10 6 6 10 6 6 10 6 6 10 6 6 10 6 6 10 6 6
10 6 6 10 6 6 10 6 6 10 6 6 10 6 6 10 6 6 10 6 6 10
8 8 13 8 8 13 8 8 13 8 8 13 8 8 13 8 8 13 8 8 13 8 8 13 8 8 13 8 8 13
8 8 13 8 8 13 8 8 13 8 8 14 8 8 14 8 8 14 8 8 14 8 8 14 8 8 14 8 8 14
8 8 14 8 8 14 8 8 14 8 8 14 8 8 14 8 8 14 8 8 14 8 8 14 8 8 14 8 8 14
8 8 14 8 8 14 8 8 14 8 8 14 8 8 14 8 8 14 8 8 14 8 8 14 8 8 14 8 8 14
8 8 14 8 8 14 8 8 14 8 8 14 8 8 14 8 8 14 8 8 14 8 8 13 8 8 13 8 8 13
8 8 13 8 8 13 8 8 13 8 8 13 8 8 13 8 8 13 8 8 13 8 8 13 8 8 13 1 1 2 1
1 2 1 1 2 1 1 2 1 1 2 1 1 2 1 1 2 8 8 13 8 8 13 8 8 13 8 8 13 8 8 13 8
8 13 8 8 13 8 8 13 8 8 13 8 8 13 8 8 13 8 8 13 8 8 13 8 8 13 8 8 13 8
8 13 8 8 13 70 27 50 87 34 63 96 37 70 102 40 74 107 41 77 109 42 79
111 43 80 112 43 81 111 43 81 111 43 80 110 43 79 108 42 78 105 41 76
103 40 74 99 39 72 96 37 69 92 36 66 88 34 63 83 32 60 78 30 56 72 28
52 66 26 48 60 23 43 53 21 38 45 18 33 37 15 27 29 11 21 23 9 17 23 9
17 23 9 17 23 9 17 23 9 17 23 9 17 23 9 17 1 1 2 1 1 2 1 1 2 1 1 2 1 1
2 1 1 2 1 1 2 1 1 2 1 1 2 1 1 2 1 1 2 1 1 2 1 1 2 1 1 2 1 1 2 1 1 2 1
1 2 1 1 2 1 1 2 1 1 2 1 1 2 1 1 2 1 1 2 1 1 2 7 7 12 7 7 12 7 7 12 7 7
12 7 7 12 7 7 11 7 7 11 7 7 11 7 7 11 7 7 11 7 7 11 7 7 11 7 7 11 7 7
11 7 7 11 7 7 11 7 7 11 7 7 11 7 7 11 7 7 11 7 7 11 7 7 11 7 7 11 7 7
11 7 7 11 7 7 11 7 7 11 7 7 11 7 7 11 7 7 11 7 7 11 7 7 11 7 7 11 7 7
11 7 7 11 7 7 11 7 7 11 7 7 11 7 7 11 7 7 11 7 7 11 7 7 11 7 7 11 7 7
10 7 7 10 7 7 10 7 7 10 6 6 10 6 6 10 6 6 10 6 6 10 6 6 10 6 6 10 6 6
10 6 6 10 6 6 10 6 6 10 6 6 10 6 6 10
9 9 14 9 9 14 9 9 14 9 9 14 9 9 14 9 9 14 9 9 14 9 9 14 9 9 14 9 9 14
9 9 14 9 9 14 9 9 14 9 9 14 9 9 14 9 9 14 9 9 14 9 9 14 9 9 14 9 9 14
9 9 14 9 9 14 9 9 14 9 9 14 9 9 14 9 9 14 9 9 14 9 9 14 9 9 14 9 9 14
9 9 14 9 9 14 9 9 14 9 9 14 9 9 14 9 9 14 9 9 14 9 9 14 9 9 14 9 9 14
9 9 14 9 9 14 9 9 14 9 9 14 9 9 14 9 9 14 9 9 14 9 9 14 9 9 14 9 9 14
9 9 14 9 9 14 9 9 14 9 9 14 9 9 14 9 9 14 9 9 14 8 8 14 8 8 14 8 8 14
1 1 2 1 1 2 8 8 14 8 8 14 8 8 14 8 8 13 8 8 13 8 8 13 8 8 13 8 8 13 8
8 13 8 8 13 8 8 13 8 8 13 8 8 13 8 8 13 8 8 13 8 8 13 8 8 13 8 8 13 8
8 13 8 8 13 1 1 2 1 1 2 66 26 48 80 31 58 88 34 64 94 36 68 97 38 70
99 39 72 100 39 72 101 39 73 100 39 72 99 39 72 98 38 70 95 37 69 93
36 67 90 35 65 86 34 62 82 32 59 78 30 56 73 28 53 68 26 49 62 24 45
56 22 41 50 19 36 43 17 31 35 14 25 27 11 20 23 9 17 23 9 17 23 9 17
23 9 17 23 9 17 23 9 17 23 9 17 1 1 2 1 1 2 1 1 2 1 1 2 1 1 2 1 1 2 1
1 2 1 1 2 1 1 2 1 1 2 1 1 2 1 1 2 1 1 2 1 1 2 1 1 2 1 1 2 1 1 2 1 1 2
1 1 2 1 1 2 1 1 2 1 1 2 1 1 2 1 1 2 7 7 12 7 7 12 7 7 12 7 7 12 7 7 12
7 7 12 7 7 12 7 7 12 7 7 12 7 7 12 7 7 12 7 7 11 7 7 11 7 7 11 7 7 11
7 7 11 7 7 11 7 7 11 7 7 11 7 7 11 7 7 11 7 7 11 7 7 11 7 7 11 7 7 11
7 7 11 7 7 11 7 7 11 7 7 11 7 7 11 7 7 11 7 7 11 7 7 11 7 7 11 7 7 11
7 7 11 7 7 11 7 7 11 7 7 11 7 7 11 7 7 11 7 7 11 7 7 11 7 7 11 7 7 11
7 7 11 7 7 11 7 7 11 7 7 11 7 7 11 7 7 10 7 7 10 7 7 10 7 7 10 6 6 10
6 6 10 6 6 10 6 6 10 6 6 10 6 6 10
9 9 14 9 9 14 9 9 14 9 9 14 9 9 14 9 9 14 9 9 14 9 9 14 9 9 14 9 9 14
9 9 14 9 9 14 9 9 14 9 9 14 9 9 14 9 9 14 9 9 14 9 9 14 9 9 14 9 9 14
9 9 14 9 9 14 9 9 14 9 9 14 9 9 14 9 9 14 9 9 14 9 9 14 9 9 14 9 9 14
9 9 14 9 9 14 9 9 14 9 9 14 9 9 14 9 9 14 9 9 14 9 9 14 9 9 14 9 9 14
9 9 14 9 9 14 9 9 14 9 9 14 9 9 14 9 9 14 9 9 14 9 9 14 9 9 14 9 9 14
9 9 14 9 9 14 9 9 14 9 9 14 9 9 14 9 9 14 9 9 14 9 9 14 9 9 14 9 9 14
9 9 14 9 9 14 9 9 14 9 9 14 1 1 2 1 1 2 1 1 2 1 1 2 1 1 2 1 1 2 1 1 2
1 1 2 1 1 2 8 8 14 8 8 14 8 8 14 8 8 13 8 8 13 8 8 13 1 1 2 1 1 2 1 1
2 1 1 2 1 1 2 1 1 2 59 23 42 71 28 51 79 31 57 83 32 60 86 34 62 88 34
64 89 35 64 89 35 64 88 34 64 87 34 63 85 33 61 82 32 59 79 31 57 76
29 55 72 28 52 68 26 49 63 24 45 58 22 42 52 20 38 46 18 33 39 15 28
32 12 23 24 9 18 23 9 17 23 9 17 23 9 17 23 9 17 23 9 17 23 9 17 23 9
17 1 1 2 1 1 2 1 1 2 1 1 2 1 1 2 1 1 2 1 1 2 1 1 2 1 1 2 1 1 2 1 1 2 1
1 2 1 1 2 1 1 2 1 1 2 1 1 2 1 1 2 1 1 2 1 1 2 1 1 2 1 1 2 1 1 2 1 1 2
1 1 2 7 7 12 7 7 12 7 7 12 7 7 12 7 7 12 7 7 12 7 7 12 7 7 12 7 7 12 7
7 12 7 7 12 7 7 12 7 7 12 7 7 12 7 7 12 7 7 12 7 7 12 7 7 11 7 7 11 7
7 11 7 7 11 7 7 11 7 7 11 7 7 11 7 7 11 7 7 11 7 7 11 7 7 11 7 7 11 7
7 11 7 7 11 7 7 11 7 7 11 7 7 11 7 7 11 7 7 11 7 7 11 7 7 11 7 7 11 7
7 11 7 7 11 7 7 11 7 7 11 7 7 11 7 7 11 7 7 11 7 7 11 7 7 11 7 7 11 7
7 11 7 7 11 7 7 11 7 7 11 7 7 11 7 7 11 7 7 11 7 7 10 7 7 10 7 7 10 7
7 10 6 6 10
9 9 14 9 9 14 9 9 14 9 9 14 9 9 14 9 9 14 9 9 14 9 9 14 9 9 14 9 9 14
9 9 14 9 9 14 9 9 14 9 9 14 9 9 14 9 9 14 9 9 14 9 9 14 9 9 14 9 9 14
9 9 14 9 9 14 9 9 14 9 9 14 9 9 14 9 9 14 9 9 14 9 9 14 9 9 14 9 9 14
9 9 14 9 9 14 9 9 14 9 9 14 9 9 14 9 9 14 9 9 14 9 9 14 9 9 14 9 9 14
9 9 14 9 9 14 9 9 14 9 9 14 9 9 14 9 9 14 9 9 14 9 9 14 9 9 14 9 9 14
9 9 14 9 9 14 9 9 14 9 9 14 9 9 14 9 9 14 9 9 14 9 9 14 9 9 14 9 9 14
9 9 14 1 1 2 1 1 2 1 1 2 1 1 2 1 1 2 1 1 2 1 1 2 1 1 2 1 1 2 1 1 2 1 1
2 1 1 2 9 9 14 9 9 14 9 9 14 9 9 14 1 1 2 1 1 2 1 1 2 1 1 2 1 1 2 1 1
2 1 1 2 1 1 2 1 1 2 48 19 35 60 23 44 67 26 49 72 28 52 74 29 54 76 29
55 76 30 55 76 29 55 75 29 54 73 28 53 71 27 51 68 26 49 64 25 47 61
24 44 56 22 41 52 20 37 46 18 33 41 16 29 34 13 25 28 11 20 23 9 17 23
9 17 23 9 17 23 9 17 23 9 17 23 9 17 23 9 17 23 9 17 1 1 2 1 1 2 1 1 2
1 1 2 1 1 2 1 1 2 1 1 2 1 1 2 1 1 2 1 1 2 1 1 2 1 1 2 1 1 2 1 1 2 1 1
2 1 1 2 1 1 2 1 1 2 1 1 2 1 1 2 1 1 2 1 1 2 1 1 2 1 1 2 8 8 12 8 8 12
8 8 12 8 8 12 8 8 12 7 7 12 7 7 12 7 7 12 7 7 12 7 7 12 7 7 12 7 7 12
7 7 12 7 7 12 7 7 12 7 7 12 7 7 12 7 7 12 7 7 12 7 7 12 7 7 12 7 7 12
7 7 12 7 7 11 7 7 11 7 7 11 7 7 11 7 7 11 7 7 11 7 7 11 7 7 11 7 7 11
7 7 11 7 7 11 7 7 11 7 7 11 7 7 11 7 7 11 7 7 11 7 7 11 7 7 11 7 7 11
7 7 11 7 7 11 7 7 11 7 7 11 7 7 11 7 7 11 7 7 11 7 7 11 7 7 11 7 7 11
7 7 11 7 7 11 7 7 11 7 7 11 7 7 11 7 7 11 7 7 11 7 7 11 7 7 11 7 7 10
9 9 14 9 9 14 9 9 14 9 9 14 9 9 14 9 9 14 9 9 14 9 9 14 9 9 14 9 9 14
9 9 14 9 9 14 9 9 14 9 9 14 9 9 14 9 9 14 9 9 14 9 9 14 9 9 14 9 9 14
9 9 14 9 9 14 9 9 14 9 9 14 9 9 14 9 9 14 9 9 14 9 9 14 9 9 14 9 9 14
9 9 14 9 9 14 9 9 14 9 9 14 9 9 14 9 9 14 9 9 14 9 9 14 9 9 14 9 9 14
9 9 14 9 9 14 9 9 14 9 9 14 9 9 14 9 9 14 9 9 14 9 9 14 9 9 14 9 9 14
9 9 14 9 9 14 9 9 14 9 9 14 9 9 14 9 9 14 9 9 14 9 9 14 9 9 14 9 9 14
1 1 2 1 1 2 1 1 2 1 1 2 1 1 2 1 1 2 1 1 2 1 1 2 1 1 2 1 1 2 1 1 2 9 9
14 9 9 14 9 9 14 9 9 14 9 9 14 9 9 14 9 9 14 1 1 2 1 1 2 1 1 2 1 1 2 1
1 2 9 9 14 9 9 14 9 9 14 9 9 14 34 13 25 47 18 34 54 21 39 58 23 42 61
24 44 62 24 45 62 24 45 61 24 44 60 23 43 58 23 42 55 21 40 52 20 38
48 19 35 44 17 32 39 15 28 34 13 25 28 11 20 23 9 17 23 9 17 23 9 17
23 9 17 23 9 17 23 9 17 23 9 17 23 9 17 23 9 17 1 1 2 1 1 2 1 1 2 1 1
2 1 1 2 1 1 2 1 1 2 1 1 2 1 1 2 1 1 2 1 1 2 1 1 2 1 1 2 1 1 2 1 1 2 1
1 2 1 1 2 1 1 2 1 1 2 1 1 2 1 1 2 1 1 2 1 1 2 8 8 12 8 8 12 8 8 12 8 8
12 8 8 12 8 8 12 8 8 12 8 8 12 8 8 12 8 8 12 8 8 12 8 8 12 7 7 12 7 7
12 7 7 12 7 7 12 7 7 12 7 7 12 7 7 12 7 7 12 7 7 12 7 7 12 7 7 12 7 7
12 7 7 12 7 7 12 7 7 12 7 7 12 7 7 12 7 7 12 7 7 11 7 7 11 7 7 11 7 7
11 7 7 11 7 7 11 7 7 11 7 7 11 7 7 11 7 7 11 7 7 11 7 7 11 7 7 11 7 7
11 7 7 11 7 7 11 7 7 11 7 7 11 7 7 11 7 7 11 7 7 11 7 7 11 7 7 11 7 7
11 7 7 11 7 7 11 7 7 11 7 7 11 7 7 11 7 7 11 7 7 11 7 7 11 7 7 11 7 7
11
9 9 14 9 9 14 9 9 14 9 9 14 9 9 14 9 9 14 9 9 14 9 9 15 9 9 15 9 9 15
9 9 15 9 9 15 9 9 15 9 9 15 9 9 15 9 9 15 9 9 15 9 9 15 9 9 15 9 9 15
9 9 15 9 9 15 9 9 15 9 9 15 9 9 15 9 9 15 9 9 15 9 9 15 9 9 15 9 9 15
9 9 15 9 9 15 9 9 15 9 9 15 9 9 15 9 9 15 9 9 15 9 9 15 9 9 14 9 9 14
9 9 14 9 9 14 9 9 14 9 9 14 9 9 14 9 9 14 9 9 14 9 9 14 9 9 14 9 9 14
9 9 14 9 9 14 9 9 14 9 9 14 9 9 14 9 9 14 9 9 14 9 9 14 9 9 14 9 9 14
1 1 2 1 1 2 1 1 2 1 1 2 1 1 2 1 1 2 1 1 2 1 1 2 1 1 2 9 9 14 9 9 14 9
9 14 9 9 14 9 9 14 9 9 14 9 9 14 9 9 14 9 9 14 9 9 14 9 9 14 9 9 14 9
9 14 9 9 14 9 9 14 9 9 14 9 9 14 9 9 14 9 9 14 23 9 17 31 12 22 39 15
28 43 17 31 45 18 33 46 18 33 46 18 33 45 18 33 44 17 32 41 16 30 38
15 28 35 13 25 30 12 22 26 10 18 23 9 17 23 9 17 23 9 17 23 9 17 23 9
17 23 9 17 23 9 17 23 9 17 23 9 17 23 9 17 1 1 2 1 1 2 1 1 2 1 1 2 1 1
2 1 1 2 1 1 2 1 1 2 1 1 2 1 1 2 1 1 2 1 1 2 1 1 2 1 1 2 1 1 2 1 1 2 1
1 2 1 1 2 1 1 2 1 1 2 1 1 2 1 1 2 8 8 13 8 8 12 8 8 12 8 8 12 8 8 12 8
8 12 8 8 12 8 8 12 8 8 12 8 8 12 8 8 12 8 8 12 8 8 12 8 8 12 8 8 12 8
8 12 8 8 12 8 8 12 7 7 12 7 7 12 7 7 12 7 7 12 7 7 12 7 7 12 7 7 12 7
7 12 7 7 12 7 7 12 7 7 12 7 7 12 7 7 12 7 7 12 7 7 12 7 7 12 7 7 12 7
7 12 7 7 11 7 7 11 7 7 11 7 7 11 7 7 11 7 7 11 7 7 11 7 7 11 7 7 11 7
7 11 7 7 11 7 7 11 7 7 11 7 7 11 7 7 11 7 7 11 7 7 11 7 7 11 7 7 11 7
7 11 7 7 11 7 7 11 7 7 11 7 7 11 7 7 11 7 7 11 7 7 11 7 7 11 7 7 11 7
7 11
9 9 15 9 9 15 9 9 15 9 9 15 9 9 15 9 9 15 9 9 15 9 9 15 9 9 15 9 9 15
9 9 15 9 9 15 9 9 15 9 9 15 9 9 15 9 9 15 9 9 15 9 9 15 9 9 15 9 9 15
9 9 15 9 9 15 9 9 15 9 9 15 9 9 15 9 9 15 9 9 15 9 9 15 9 9 15 9 9 15
9 9 15 9 9 15 9 9 15 9 9 15 9 9 15 9 9 15 9 9 15 9 9 15 9 9 15 9 9 15
9 9 15 9 9 15 9 9 15 9 9 15 9 9 15 9 9 15 9 9 15 9 9 15 9 9 15 9 9 15
9 9 15 9 9 15 9 9 15 9 9 15 9 9 14 9 9 14 9 9 14 9 9 14 9 9 14 9 9 14
9 9 14 9 9 14 9 9 14 9 9 14 9 9 14 9 9 14 9 9 14 9 9 14 9 9 14 9 9 14
9 9 14 9 9 14 9 9 14 9 9 14 9 9 14 9 9 14 9 9 14 9 9 14 9 9 14 9 9 14
9 9 14 9 9 14 9 9 14 9 9 14 9 9 14 9 9 14 9 9 14 9 9 14 9 9 14 1 1 2
23 9 17 23 9 17 25 10 18 27 11 20 29 11 21 28 11 20 27 11 20 25 10 18
23 9 17 23 9 17 23 9 17 23 9 17 23 9 17 23 9 17 23 9 17 23 9 17 23 9
17 23 9 17 23 9 17 23 9 17 1 1 2 1 1 2 1 1 2 1 1 2 1 1 2 1 1 2 1 1 2 1
1 2 1 1 2 1 1 2 1 1 2 1 1 2 1 1 2 1 1 2 1 1 2 1 1 2 1 1 2 1 1 2 1 1 2
1 1 2 1 1 2 8 8 13 8 8 13 8 8 13 8 8 13 8 8 13 8 8 13 8 8 13 8 8 13 8
8 12 8 8 12 8 8 12 8 8 12 8 8 12 8 8 12 8 8 12 8 8 12 8 8 12 8 8 12 8
8 12 8 8 12 8 8 12 8 8 12 8 8 12 8 8 12 8 8 12 8 8 12 7 7 12 7 7 12 7
7 12 7 7 12 7 7 12 7 7 12 7 7 12 7 7 12 7 7 12 7 7 12 7 7 12 7 7 12 7
7 12 7 7 12 7 7 12 7 7 12 7 7 12 7 7 12 7 7 11 7 7 11 7 7 11 7 7 11 7
7 11 7 7 11 7 7 11 7 7 11 7 7 11 7 7 11 7 7 11 7 7 11 7 7 11 7 7 11 7
7 11 7 7 11 7 7 11 7 7 11 7 7 11 7 7 11 7 7 11 7 7 11 7 7 11 7 7 11 7
7 11
9 9 15 9 9 15 9 9 15 9 9 15 9 9 15 9 9 15 9 9 15 9 9 15 9 9 15 9 9 15
9 9 15 9 9 15 9 9 15 9 9 15 9 9 15 9 9 15 9 9 15 9 9 15 9 9 15 9 9 15
9 9 15 9 9 15 9 9 15 9 9 15 9 9 15 9 9 15 9 9 15 9 9 15 9 9 15 9 9 15
9 9 15 9 9 15 9 9 15 9 9 15 9 9 15 9 9 15 9 9 15 9 9 15 9 9 15 9 9 15
9 9 15 9 9 15 9 9 15 9 9 15 9 9 15 9 9 15 9 9 15 9 9 15 9 9 15 9 9 15
9 9 15 9 9 15 9 9 15 9 9 15 9 9 15 9 9 15 9 9 15 9 9 15 9 9 15 9 9 15
9 9 15 9 9 15 9 9 15 9 9 15 9 9 14 9 9 14 9 9 14 9 9 14 9 9 14 9 9 14
9 9 14 9 9 14 9 9 14 9 9 14 9 9 14 9 9 14 9 9 14 9 9 14 9 9 14 9 9 14
9 9 14 9 9 14 9 9 14 9 9 14 9 9 14 9 9 14 9 9 14 9 9 14 9 9 14 9 9 14
1 1 2 1 1 2 23 9 17 23 9 17 23 9 17 23 9 17 23 9 17 23 9 17 23 9 17 23
9 17 23 9 17 23 9 17 23 9 17 23 9 17 23 9 17 23 9 17 23 9 17 23 9 17 1
1 2 1 1 2 1 1 2 1 1 2 1 1 2 1 1 2 1 1 2 1 1 2 1 1 2 1 1 2 1 1 2 1 1 2
1 1 2 1 1 2 1 1 2 1 1 2 1 1 2 1 1 2 1 1 2 1 1 2 8 8 13 8 8 13 8 8 13 8
8 13 8 8 13 8 8 13 8 8 13 8 8 13 8 8 13 8 8 13 8 8 13 8 8 13 8 8 13 8
8 13 8 8 13 8 8 12 8 8 12 8 8 12 8 8 12 8 8 12 8 8 12 8 8 12 8 8 12 8
8 12 8 8 12 8 8 12 8 8 12 8 8 12 8 8 12 8 8 12 8 8 12 8 8 12 8 8 12 7
7 12 7 7 12 7 7 12 7 7 12 7 7 12 7 7 12 7 7 12 7 7 12 7 7 12 7 7 12 7
7 12 7 7 12 7 7 12 7 7 12 7 7 12 7 7 12 7 7 12 7 7 12 7 7 11 7 7 11 7
7 11 7 7 11 7 7 11 7 7 11 7 7 11 7 7 11 7 7 11 7 7 11 7 7 11 7 7 11 7
7 11 7 7 11 7 7 11 7 7 11 7 7 11 7 7 11 7 7 11 7 7 11 7 7 11
9 9 15 9 9 15 9 9 15 9 9 15 9 9 15 9 9 15 9 9 15 9 9 15 9 9 15 9 9 15
9 9 15 9 9 15 9 9 15 9 9 15 9 9 15 9 9 15 9 9 15 9 9 15 9 9 15 9 9 15
9 9 15 9 9 15 9 9 15 9 9 15 9 9 15 9 9 15 9 9 15 9 9 15 9 9 15 9 9 15
9 9 15 9 9 15 9 9 15 9 9 15 9 9 15 9 9 15 9 9 15 9 9 15 9 9 15 9 9 15
9 9 15 9 9 15 9 9 15 9 9 15 9 9 15 9 9 15 9 9 15 9 9 15 9 9 15 9 9 15
9 9 15 9 9 15 9 9 15 9 9 15 9 9 15 9 9 15 9 9 15 9 9 15 9 9 15 9 9 15
9 9 15 9 9 15 9 9 15 9 9 15 9 9 15 9 9 15 9 9 15 9 9 15 9 9 15 9 9 15
9 9 15 9 9 15 9 9 14 9 9 14 9 9 14 9 9 14 9 9 14 9 9 14 9 9 14 9 9 14
9 9 14 9 9 14 9 9 14 9 9 14 9 9 14 9 9 14 9 9 14 9 9 14 9 9 14 9 9 14
9 9 14 1 1 2 1 1 2 1 1 2 1 1 2 23 9 17 23 9 17 23 9 17 23 9 17 23 9 17
23 9 17 23 9 17 23 9 17 23 9 17 23 9 17 1 1 2 1 1 2 1 1 2 1 1 2 1 1 2
1 1 2 1 1 2 1 1 2 1 1 2 1 1 2 1 1 2 1 1 2 1 1 2 1 1 2 1 1 2 1 1 2 1 1
2 1 1 2 1 1 2 8 8 13 8 8 13 8 8 13 8 8 13 8 8 13 8 8 13 8 8 13 8 8 13
8 8 13 8 8 13 8 8 13 8 8 13 8 8 13 8 8 13 8 8 13 8 8 13 8 8 13 8 8 13
8 8 13 8 8 13 8 8 13 8 8 13 8 8 13 8 8 12 8 8 12 8 8 12 8 8 12 8 8 12
8 8 12 8 8 12 8 8 12 8 8 12 8 8 12 8 8 12 8 8 12 8 8 12 8 8 12 8 8 12
8 8 12 8 8 12 8 8 12 7 7 12 7 7 12 7 7 12 7 7 12 7 7 12 7 7 12 7 7 12
7 7 12 7 7 12 7 7 12 7 7 12 7 7 12 7 7 12 7 7 12 7 7 12 7 7 12 7 7 12
7 7 12 7 7 11 7 7 11 7 7 11 7 7 11 7 7 11 7 7 11 7 7 11 7 7 11 7 7 11
7 7 11 7 7 11 7 7 11 7 7 11 7 7 11 7 7 11 7 7 11 7 7 11
10 10 15 10 10 15 10 10 15 10 10 15 10 10 15 10 10 15 10 10 15 10 10
15 10 10 15 10 10 15 10 10 15 10 10 15 10 10 15 10 10 15 10 10 15 10
10 15 10 10 15 10 10 15 10 10 15 10 10 15 10 10 15 10 10 15 10 10 15
10 10 15 10 10 15 10 10 15 10 10 15 10 10 15 10 10 15 10 10 15 10 10
15 10 10 15 10 10 15 9 9 15 9 9 15 9 9 15 9 9 15 9 9 15 9 9 15 9 9 15
9 9 15 9 9 15 9 9 15 9 9 15 9 9 15 9 9 15 9 9 15 9 9 15 9 9 15 9 9 15
9 9 15 9 9 15 9 9 15 9 9 15 9 9 15 9 9 15 9 9 15 9 9 15 9 9 15 9 9 15
9 9 15 9 9 15 9 9 15 9 9 15 9 9 15 9 9 15 9 9 15 9 9 15 9 9 15 9 9 15
9 9 15 9 9 15 9 9 15 9 9 15 9 9 15 9 9 15 9 9 15 9 9 15 9 9 14 9 9 14
9 9 14 9 9 14 9 9 14 9 9 14 9 9 14 9 9 14 9 9 14 9 9 14 9 9 14 9 9 14
9 9 14 9 9 14 9 9 14 1 1 2 1 1 2 1 1 2 1 1 2 1 1 2 1 1 2 1 1 2 1 1 2 1
1 2 1 1 2 1 1 2 1 1 2 1 1 2 1 1 2 1 1 2 1 1 2 1 1 2 1 1 2 1 1 2 1 1 2
1 1 2 1 1 2 1 1 2 1 1 2 1 1 2 1 1 2 1 1 2 8 8 13 8 8 13 8 8 13 8 8 13
8 8 13 8 8 13 8 8 13 8 8 13 8 8 13 8 8 13 8 8 13 8 8 13 8 8 13 8 8 13
8 8 13 8 8 13 8 8 13 8 8 13 8 8 13 8 8 13 8 8 13 8 8 13 8 8 13 8 8 13
8 8 13 8 8 13 8 8 13 8 8 13 8 8 13 8 8 13 8 8 13 8 8 12 8 8 12 8 8 12
8 8 12 8 8 12 8 8 12 8 8 12 8 8 12 8 8 12 8 8 12 8 8 12 8 8 12 8 8 12
8 8 12 8 8 12 8 8 12 8 8 12 8 8 12 7 7 12 7 7 12 7 7 12 7 7 12 7 7 12
7 7 12 7 7 12 7 7 12 7 7 12 7 7 12 7 7 12 7 7 12 7 7 12 7 7 12 7 7 12
7 7 12 7 7 12 7 7 12 7 7 11 7 7 11 7 7 11 7 7 11 7 7 11 7 7 11 7 7 11
7 7 11 7 7 11 7 7 11 7 7 11 7 7 11 7 7 11
10 10 15 10 10 15 10 10 15 10 10 15 10 10 15 10 10 15 10 10 15 10 10
15 10 10 15 10 10 15 10 10 15 10 10 15 10 10 15 10 10 15 10 10 15 10
10 15 10 10 15 10 10 15 10 10 15 10 10 15 10 10 15 10 10 15 10 10 15
10 10 15 10 10 15 10 10 15 10 10 15 10 10 15 10 10 15 10 10 15 10 10
15 10 10 15 10 10 15 10 10 15 10 10 15 10 10 15 10 10 15 10 10 15 10
10 15 10 10 15 10 10 15 10 10 15 10 10 15 10 10 15 10 10 15 10 10 15
10 10 15 10 10 15 9 9 15 9 9 15 9 9 15 9 9 15 9 9 15 9 9 15 9 9 15 9 9
15 9 9 15 9 9 15 9 9 15 9 9 15 9 9 15 9 9 15 9 9 15 9 9 15 9 9 15 9 9
15 9 9 15 9 9 15 9 9 15 9 9 15 9 9 15 9 9 15 9 9 15 9 9 15 9 9 15 9 9
15 9 9 15 9 9 15 9 9 15 9 9 15 9 9 15 9 9 15 9 9 15 9 9 15 9 9 14 9 9
14 9 9 14 9 9 14 9 9 14 9 9 14 9 9 14 9 9 14 9 9 14 9 9 14 9 9 14 9 9
14 9 9 14 9 9 14 1 1 2 1 1 2 1 1 2 1 1 2 1 1 2 1 1 2 1 1 2 1 1 2 1 1 2
1 1 2 1 1 2 1 1 2 1 1 2 1 1 2 1 1 2 9 9 14 9 9 14 9 9 14 9 9 14 8 8 14
8 8 14 8 8 14 8 8 14 8 8 13 8 8 13 8 8 13 8 8 13 8 8 13 8 8 13 8 8 13
8 8 13 8 8 13 8 8 13 8 8 13 8 8 13 8 8 13 8 8 13 8 8 13 8 8 13 8 8 13
8 8 13 8 8 13 8 8 13 8 8 13 8 8 13 8 8 13 8 8 13 8 8 13 8 8 13 8 8 13
8 8 13 8 8 13 8 8 13 8 8 13 8 8 13 8 8 13 8 8 13 8 8 12 8 8 12 8 8 12
8 8 12 8 8 12 8 8 12 8 8 12 8 8 12 8 8 12 8 8 12 8 8 12 8 8 12 8 8 12
8 8 12 8 8 12 8 8 12 8 8 12 8 8 12 7 7 12 7 7 12 7 7 12 7 7 12 7 7 12
7 7 12 7 7 12 7 7 12 7 7 12 7 7 12 7 7 12 7 7 12 7 7 12 7 7 12 7 7 12
7 7 12 7 7 12 7 7 12 7 7 11 7 7 11 7 7 11 7 7 11 7 7 11 7 7 11 7 7 11
7 7 11 7 7 11
10 10 16 10 10 16 10 10 16 10 10 16 10 10 16 10 10 16 10 10 16 10 10
16 10 10 16 10 10 16 10 10 16 10 10 16 10 10 16 10 10 16 10 10 16 10
10 16 10 10 16 10 10 16 10 10 16 10 10 16 10 10 16 10 10 16 10 10 16
10 10 16 10 10 16 10 10 16 10 10 16 10 10 16 10 10 16 10 10 16 10 10
16 10 10 16 10 10 16 10 10 16 10 10 15 10 10 15 10 10 15 10 10 15 10
10 15 10 10 15 10 10 15 10 10 15 10 10 15 10 10 15 10 10 15 10 10 15
10 10 15 10 10 15 10 10 15 10 10 15 10 10 15 10 10 15 10 10 15 10 10
15 10 10 15 10 10 15 10 10 15 9 9 15 9 9 15 9 9 15 9 9 15 9 9 15 9 9
15 9 9 15 9 9 15 9 9 15 9 9 15 9 9 15 9 9 15 9 9 15 9 9 15 9 9 15 9 9
15 9 9 15 9 9 15 9 9 15 9 9 15 9 9 15 9 9 15 9 9 15 9 9 15 9 9 15 9 9
15 9 9 15 9 9 15 9 9 15 9 9 15 9 9 15 9 9 15 9 9 14 9 9 14 9 9 14 9 9
14 9 9 14 9 9 14 9 9 14 9 9 14 9 9 14 9 9 14 9 9 14 9 9 14 9 9 14 9 9
14 9 9 14 9 9 14 9 9 14 9 9 14 9 9 14 9 9 14 9 9 14 9 9 14 9 9 14 9 9
14 9 9 14 9 9 14 9 9 14 9 9 14 9 9 14 9 9 14 9 9 14 9 9 14 8 8 14 8 8
14 8 8 14 8 8 14 8 8 13 8 8 13 8 8 13 8 8 13 8 8 13 8 8 13 8 8 13 8 8
13 8 8 13 8 8 13 8 8 13 8 8 13 8 8 13 8 8 13 8 8 13 8 8 13 8 8 13 8 8
13 8 8 13 8 8 13 8 8 13 8 8 13 8 8 13 8 8 13 8 8 13 8 8 13 8 8 13 8 8
13 8 8 13 8 8 13 8 8 13 8 8 13 8 8 13 8 8 13 8 8 12 8 8 12 8 8 12 8 8
12 8 8 12 8 8 12 8 8 12 8 8 12 8 8 12 8 8 12 8 8 12 8 8 12 8 8 12 8 8
12 8 8 12 8 8 12 8 8 12 7 7 12 7 7 12 7 7 12 7 7 12 7 7 12 7 7 12 7 7
12 7 7 12 7 7 12 7 7 12 7 7 12 7 7 12 7 7 12 7 7 12 7 7 12 7 7 12 7 7
12 7 7 12 7 7 12 7 7 11 7 7 11 7 7 11 7 7 11 7 7 11
10 10 16 10 10 16 10 10 16 10 10 16 10 10 16 10 10 16 10 10 16 10 10
16 10 10 16 10 10 16 10 10 16 10 10 16 10 10 16 10 10 16 10 10 16 10
10 16 10 10 16 10 10 16 10 10 16 10 10 16 10 10 16 10 10 16 10 10 16
10 10 16 10 10 16 10 10 16 10 10 16 10 10 16 10 10 16 10 10 16 10 10
16 10 10 16 10 10 16 10 10 16 10 10 16 10 10 16 10 10 16 10 10 16 10
10 16 10 10 16 10 10 16 10 10 16 10 10 16 10 10 16 10 10 16 10 10 16
10 10 15 10 10 15 10 10 15 10 10 15 10 10 15 10 10 15 10 10 15 10 10
15 10 10 15 10 10 15 10 10 15 10 10 15 10 10 15 10 10 15 10 10 15 10
10 15 10 10 15 10 10 15 9 9 15 9 9 15 9 9 15 9 9 15 9 9 15 9 9 15 9 9
15 9 9 15 9 9 15 9 9 15 9 9 15 9 9 15 9 9 15 9 9 15 9 9 15 9 9 15 9 9
15 9 9 15 9 9 15 9 9 15 9 9 15 9 9 15 9 9 15 9 9 15 9 9 15 9 9 15 9 9
15 9 9 15 9 9 15 9 9 14 9 9 14 9 9 14 9 9 14 9 9 14 9 9 14 9 9 14 9 9
14 9 9 14 9 9 14 9 9 14 9 9 14 9 9 14 9 9 14 9 9 14 9 9 14 9 9 14 9 9
14 9 9 14 9 9 14 9 9 14 9 9 14 9 9 14 9 9 14 9 9 14 9 9 14 9 9 14 9 9
14 9 9 14 9 9 14 9 9 14 9 9 14 8 8 14 8 8 14 8 8 14 8 8 13 8 8 13 8 8
13 8 8 13 8 8 13 8 8 13 8 8 13 8 8 13 8 8 13 8 8 13 8 8 13 8 8 13 8 8
13 8 8 13 8 8 13 8 8 13 8 8 13 8 8 13 8 8 13 8 8 13 8 8 13 8 8 13 8 8
13 8 8 13 8 8 13 8 8 13 8 8 13 8 8 13 8 8 13 8 8 13 8 8 13 8 8 13 8 8
13 8 8 13 8 8 12 8 8 12 8 8 12 8 8 12 8 8 12 8 8 12 8 8 12 8 8 12 8 8
12 8 8 12 8 8 12 8 8 12 8 8 12 8 8 12 8 8 12 8 8 12 8 8 12 8 8 12 7 7
12 7 7 12 7 7 12 7 7 12 7 7 12 7 7 12 7 7 12 7 7 12 7 7 12 7 7 12 7 7
12 7 7 12 7 7 12 7 7 12 7 7 12 7 7 12 7 7 12 7 7 12 7 7 11 7 7 11
10 10 16 10 10 16 10 10 16 10 10 16 10 10 16 10 10 16 10 10 16 10 10
16 10 10 16 10 10 16 10 10 16 10 10 16 10 10 16 10 10 16 10 10 16 10
10 16 10 10 16 10 10 16 10 10 16 10 10 16 10 10 16 10 10 16 10 10 16
10 10 16 10 10 16 10 10 16 10 10 16 10 10 16 10 10 16 10 10 16 10 10
16 10 10 16 10 10 16 10 10 16 10 10 16 10 10 16 10 10 16 10 10 16 10
10 16 10 10 16 10 10 16 10 10 16 10 10 16 10 10 16 10 10 16 10 10 16
10 10 16 10 10 16 10 10 16 10 10 16 10 10 16 10 10 16 10 10 16 10 10
16 10 10 15 10 10 15 10 10 15 10 10 15 10 10 15 10 10 15 10 10 15 10
10 15 10 10 15 10 10 15 10 10 15 10 10 15 10 10 15 10 10 15 10 10 15 9
9 15 9 9 15 9 9 15 9 9 15 9 9 15 9 9 15 9 9 15 9 9 15 9 9 15 9 9 15 9
9 15 9 9 15 9 9 15 9 9 15 9 9 15 9 9 15 9 9 15 9 9 15 9 9 15 9 9 15 9
9 15 9 9 15 9 9 15 9 9 15 9 9 15 9 9 15 9 9 15 9 9 15 9 9 14 9 9 14 9
9 14 9 9 14 9 9 14 9 9 14 9 9 14 9 9 14 9 9 14 9 9 14 9 9 14 9 9 14 9
9 14 9 9 14 9 9 14 9 9 14 9 9 14 9 9 14 9 9 14 9 9 14 9 9 14 9 9 14 9
9 14 9 9 14 9 9 14 9 9 14 9 9 14 9 9 14 9 9 14 9 9 14 9 9 14 9 9 14 8
8 14 8 8 14 8 8 14 8 8 13 8 8 13 8 8 13 8 8 13 8 8 13 8 8 13 8 8 13 8
8 13 8 8 13 8 8 13 8 8 13 8 8 13 8 8 13 8 8 13 8 8 13 8 8 13 8 8 13 8
8 13 8 8 13 8 8 13 8 8 13 8 8 13 8 8 13 8 8 13 8 8 13 8 8 13 8 8 13 8
8 13 8 8 13 8 8 13 8 8 13 8 8 13 8 8 13 8 8 13 8 8 12 8 8 12 8 8 12 8
8 12 8 8 12 8 8 12 8 8 12 8 8 12 8 8 12 8 8 12 8 8 12 8 8 12 8 8 12 8
8 12 8 8 12 8 8 12 8 8 12 7 7 12 7 7 12 7 7 12 7 7 12 7 7 12 7 7 12 7
7 12 7 7 12 7 7 12 7 7 12 7 7 12 7 7 12 7 7 12 7 7 12 7 7 12 7 7 12 7
7 12
10 10 16 10 10 16 10 10 16 10 10 16 10 10 16 10 10 16 10 10 16 10 10
16 10 10 16 10 10 16 10 10 16 10 10 16 10 10 16 10 10 16 10 10 16 10
10 16 10 10 16 10 10 16 10 10 16 10 10 16 10 10 16 10 10 16 10 10 16
10 10 16 10 10 16 10 10 16 10 10 16 10 10 16 10 10 16 10 10 16 10 10
16 10 10 16 10 10 16 10 10 16 10 10 16 10 10 16 10 10 16 10 10 16 10
10 16 10 10 16 10 10 16 10 10 16 10 10 16 10 10 16 10 10 16 10 10 16
10 10 16 10 10 16 10 10 16 10 10 16 10 10 16 10 10 16 10 10 16 10 10
16 10 10 16 10 10 16 10 10 16 10 10 16 10 10 16 10 10 16 10 10 16 10
10 15 10 10 15 10 10 15 10 10 15 10 10 15 10 10 15 10 10 15 10 10 15
10 10 15 10 10 15 10 10 15 10 10 15 10 10 15 9 9 15 9 9 15 9 9 15 9 9
15 9 9 15 9 9 15 9 9 15 9 9 15 9 9 15 9 9 15 9 9 15 9 9 15 9 9 15 9 9
15 9 9 15 9 9 15 9 9 15 9 9 15 9 9 15 9 9 15 9 9 15 9 9 15 9 9 15 9 9
15 9 9 15 9 9 15 9 9 15 9 9 14 9 9 14 9 9 14 9 9 14 9 9 14 9 9 14 9 9
14 9 9 14 9 9 14 9 9 14 9 9 14 9 9 14 9 9 14 9 9 14 9 9 14 9 9 14 9 9
14 9 9 14 9 9 14 9 9 14 9 9 14 9 9 14 9 9 14 9 9 14 9 9 14 9 9 14 9 9
14 9 9 14 9 9 14 9 9 14 9 9 14 8 8 14 8 8 14 8 8 14 8 8 13 8 8 13 8 8
13 8 8 13 8 8 13 8 8 13 8 8 13 8 8 13 8 8 13 8 8 13 8 8 13 8 8 13 8 8
13 8 8 13 8 8 13 8 8 13 8 8 13 8 8 13 8 8 13 8 8 13 8 8 13 8 8 13 8 8
13 8 8 13 8 8 13 8 8 13 8 8 13 8 8 13 8 8 13 8 8 13 8 8 13 8 8 13 8 8
13 8 8 13 8 8 12 8 8 12 8 8 12 8 8 12 8 8 12 8 8 12 8 8 12 8 8 12 8 8
12 8 8 12 8 8 12 8 8 12 8 8 12 8 8 12 8 8 12 8 8 12 8 8 12 8 8 12 7 7
12 7 7 12 7 7 12 7 7 12 7 7 12 7 7 12 7 7 12 7 7 12 7 7 12 7 7 12 7 7
12 7 7 12 7 7 12
10 10 16 10 10 16 10 10 16 10 10 16 10 10 16 10 10 16 10 10 16 10 10
16 10 10 16 10 10 16 10 10 16 10 10 16 10 10 16 10 10 16 10 10 16 10
10 16 10 10 16 10 10 16 10 10 16 10 10 16 10 10 16 10 10 16 10 10 16
10 10 16 10 10 16 10 10 16 10 10 16 10 10 16 10 10 16 10 10 16 10 10
16 10 10 16 10 10 16 10 10 16 10 10 16 10 10 16 10 10 16 10 10 16 10
10 16 10 10 16 10 10 16 10 10 16 10 10 16 10 10 16 10 10 16 10 10 16
10 10 16 10 10 16 10 10 16 10 10 16 10 10 16 10 10 16 10 10 16 10 10
16 10 10 16 10 10 16 10 10 16 10 10 16 10 10 16 10 10 16 10 10 16 10
10 16 10 10 16 10 10 16 10 10 16 10 10 16 10 10 15 10 10 15 10 10 15
10 10 15 10 10 15 10 10 15 10 10 15 10 10 15 10 10 15 10 10 15 10 10
15 10 10 15 10 10 15 9 9 15 9 9 15 9 9 15 9 9 15 9 9 15 9 9 15 9 9 15
9 9 15 9 9 15 9 9 15 9 9 15 9 9 15 9 9 15 9 9 15 9 9 15 9 9 15 9 9 15
9 9 15 9 9 15 9 9 15 9 9 15 9 9 15 9 9 15 9 9 15 9 9 15 9 9 15 9 9 14
9 9 14 9 9 14 9 9 14 9 9 14 9 9 14 9 9 14 9 9 14 9 9 14 9 9 14 9 9 14
9 9 14 9 9 14 9 9 14 9 9 14 9 9 14 9 9 14 9 9 14 9 9 14 9 9 14 9 9 14
9 9 14 9 9 14 9 9 14 9 9 14 9 9 14 9 9 14 9 9 14 9 9 14 9 9 14 8 8 14
8 8 14 8 8 14 8 8 14 8 8 13 8 8 13 8 8 13 8 8 13 8 8 13 8 8 13 8 8 13
8 8 13 8 8 13 8 8 13 8 8 13 8 8 13 8 8 13 8 8 13 8 8 13 8 8 13 8 8 13
8 8 13 8 8 13 8 8 13 8 8 13 8 8 13 8 8 13 8 8 13 8 8 13 8 8 13 8 8 13
8 8 13 8 8 13 8 8 13 8 8 13 8 8 13 8 8 13 8 8 12 8 8 12 8 8 12 8 8 12
8 8 12 8 8 12 8 8 12 8 8 12 8 8 12 8 8 12 8 8 12 8 8 12 8 8 12 8 8 12
8 8 12 8 8 12 8 8 12 8 8 12 7 7 12 7 7 12 7 7 12 7 7 12 7 7 12 7 7 12
7 7 12 7 7 12 7 7 12 7 7 12
10 10 16 10 10 16 10 10 16 10 10 16 10 10 16 10 10 16 10 10 16 10 10
16 10 10 16 10 10 16 10 10 16 10 10 16 10 10 16 10 10 16 10 10 16 10
10 16 10 10 16 10 10 16 10 10 16 10 10 16 10 10 16 10 10 16 10 10 16
10 10 16 10 10 16 10 10 16 10 10 16 10 10 16 10 10 16 10 10 16 10 10
16 10 10 16 10 10 16 10 10 16 10 10 16 10 10 16 10 10 16 10 10 16 10
10 16 10 10 16 10 10 16 10 10 16 10 10 16 10 10 16 10 10 16 10 10 16
10 10 16 10 10 16 10 10 16 10 10 16 10 10 16 10 10 16 10 10 16 10 10
16 10 10 16 10 10 16 10 10 16 10 10 16 10 10 16 10 10 16 10 10 16 10
10 16 10 10 16 10 10 16 10 10 16 10 10 16 10 10 16 10 10 16 10 10 16
10 10 16 10 10 16 10 10 15 10 10 15 10 10 15 10 10 15 10 10 15 10 10
15 10 10 15 10 10 15 10 10 15 10 10 15 10 10 15 10 10 15 9 9 15 9 9 15
9 9 15 9 9 15 9 9 15 9 9 15 9 9 15 9 9 15 9 9 15 9 9 15 9 9 15 9 9 15
9 9 15 9 9 15 9 9 15 9 9 15 9 9 15 9 9 15 9 9 15 9 9 15 9 9 15 9 9 15
9 9 15 9 9 15 9 9 15 9 9 14 9 9 14 9 9 14 9 9 14 9 9 14 9 9 14 9 9 14
9 9 14 9 9 14 9 9 14 9 9 14 9 9 14 9 9 14 9 9 14 9 9 14 9 9 14 9 9 14
9 9 14 9 9 14 9 9 14 9 9 14 9 9 14 9 9 14 9 9 14 9 9 14 9 9 14 9 9 14
9 9 14 9 9 14 9 9 14 8 8 14 8 8 14 8 8 14 8 8 14 8 8 13 8 8 13 8 8 13
8 8 13 8 8 13 8 8 13 8 8 13 8 8 13 8 8 13 8 8 13 8 8 13 8 8 13 8 8 13
8 8 13 8 8 13 8 8 13 8 8 13 8 8 13 8 8 13 8 8 13 8 8 13 8 8 13 8 8 13
8 8 13 8 8 13 8 8 13 8 8 13 8 8 13 8 8 13 8 8 13 8 8 13 8 8 13 8 8 13
8 8 13 8 8 12 8 8 12 8 8 12 8 8 12 8 8 12 8 8 12 8 8 12 8 8 12 8 8 12
8 8 12 8 8 12 8 8 12 8 8 12 8 8 12 8 8 12 8 8 12 8 8 12 8 8 12 7 7 12
7 7 12 7 7 12 7 7 12 7 7 12 7 7 12
10 10 16 10 10 16 10 10 16 10 10 16 10 10 16 10 10 16 10 10 16 10 10
16 10 10 16 10 10 16 10 10 16 10 10 16 10 10 16 10 10 16 10 10 16 10
10 16 10 10 16 10 10 16 10 10 16 10 10 16 10 10 16 10 10 16 10 10 16
10 10 16 10 10 16 10 10 16 10 10 16 10 10 16 10 10 16 10 10 16 10 10
16 10 10 16 10 10 16 10 10 16 10 10 16 10 10 16 10 10 16 10 10 16 10
10 16 10 10 16 10 10 16 10 10 16 10 10 16 10 10 16 10 10 16 10 10 16
10 10 16 10 10 16 10 10 16 10 10 16 10 10 16 10 10 16 10 10 16 10 10
16 10 10 16 10 10 16 10 10 16 10 10 16 10 10 16 10 10 16 10 10 16 10
10 16 10 10 16 10 10 16 10 10 16 10 10 16 10 10 16 10 10 16 10 10 16
10 10 16 10 10 16 10 10 16 10 10 16 10 10 16 10 10 16 10 10 15 10 10
15 10 10 15 10 10 15 10 10 15 10 10 15 10 10 15 10 10 15 10 10 15 10
10 15 10 10 15 10 10 15 9 9 15 9 9 15 9 9 15 9 9 15 9 9 15 9 9 15 9 9
15 9 9 15 9 9 15 9 9 15 9 9 15 9 9 15 9 9 15 9 9 15 9 9 15 9 9 15 9 9
15 9 9 15 9 9 15 9 9 15 9 9 15 9 9 15 9 9 15 9 9 15 9 9 14 9 9 14 9 9
14 9 9 14 9 9 14 9 9 14 9 9 14 9 9 14 9 9 14 9 9 14 9 9 14 9 9 14 9 9
14 9 9 14 9 9 14 9 9 14 9 9 14 9 9 14 9 9 14 9 9 14 9 9 14 9 9 14 9 9
14 9 9 14 9 9 14 9 9 14 9 9 14 9 9 14 9 9 14 9 9 14 8 8 14 8 8 14 8 8
14 8 8 14 8 8 13 8 8 13 8 8 13 8 8 13 8 8 13 8 8 13 8 8 13 8 8 13 8 8
13 8 8 13 8 8 13 8 8 13 8 8 13 8 8 13 8 8 13 8 8 13 8 8 13 8 8 13 8 8
13 8 8 13 8 8 13 8 8 13 8 8 13 8 8 13 8 8 13 8 8 13 8 8 13 8 8 13 8 8
13 8 8 13 8 8 13 8 8 13 8 8 13 8 8 13 8 8 12 8 8 12 8 8 12 8 8 12 8 8
12 8 8 12 8 8 12 8 8 12 8 8 12 8 8 12 8 8 12 8 8 12 8 8 12 8 8 12 8 8
12 8 8 12 8 8 12 8 8 12 7 7 12 7 7 12 7 7 12
10 10 17 10 10 17 10 10 17 10 10 17 10 10 17 10 10 17 10 10 17 10 10
17 10 10 17 10 10 17 10 10 17 10 10 17 10 10 17 10 10 17 10 10 17 10
10 17 10 10 17 10 10 17 10 10 17 10 10 17 10 10 17 10 10 17 10 10 17
10 10 17 10 10 17 10 10 17 10 10 16 10 10 16 10 10 16 10 10 16 10 10
16 10 10 16 10 10 16 10 10 16 10 10 16 10 10 16 10 10 16 10 10 16 10
10 16 10 10 16 10 10 16 10 10 16 10 10 16 10 10 16 10 10 16 10 10 16
10 10 16 10 10 16 10 10 16 10 10 16 10 10 16 10 10 16 10 10 16 10 10
16 10 10 16 10 10 16 10 10 16 10 10 16 10 10 16 10 10 16 10 10 16 10
10 16 10 10 16 10 10 16 10 10 16 10 10 16 10 10 16 10 10 16 10 10 16
10 10 16 10 10 16 10 10 16 10 10 16 10 10 16 10 10 16 10 10 16 10 10
16 10 10 16 10 10 16 10 10 15 10 10 15 10 10 15 10 10 15 10 10 15 10
10 15 10 10 15 10 10 15 10 10 15 10 10 15 10 10 15 9 9 15 9 9 15 9 9
15 9 9 15 9 9 15 9 9 15 9 9 15 9 9 15 9 9 15 9 9 15 9 9 15 9 9 15 9 9
15 9 9 15 9 9 15 9 9 15 9 9 15 9 9 15 9 9 15 9 9 15 9 9 15 9 9 15 9 9
15 9 9 15 9 9 15 9 9 14 9 9 14 9 9 14 9 9 14 9 9 14 9 9 14 9 9 14 9 9
14 9 9 14 9 9 14 9 9 14 9 9 14 9 9 14 9 9 14 9 9 14 9 9 14 9 9 14 9 9
14 9 9 14 9 9 14 9 9 14 9 9 14 9 9 14 9 9 14 9 9 14 9 9 14 9 9 14 9 9
14 9 9 14 8 8 14 8 8 14 8 8 14 8 8 14 8 8 13 8 8 13 8 8 13 8 8 13 8 8
13 8 8 13 8 8 13 8 8 13 8 8 13 8 8 13 8 8 13 8 8 13 8 8 13 8 8 13 8 8
13 8 8 13 8 8 13 8 8 13 8 8 13 8 8 13 8 8 13 8 8 13 8 8 13 8 8 13 8 8
13 8 8 13 8 8 13 8 8 13 8 8 13 8 8 13 8 8 13 8 8 13 8 8 13 8 8 13 8 8
12 8 8 12 8 8 12 8 8 12 8 8 12 8 8 12 8 8 12 8 8 12 8 8 12 8 8 12 8 8
12 8 8 12 8 8 12 8 8 12 8 8 12 8 8 12 8 8 12 8 8 12
10 10 17 10 10 17 10 10 17 10 10 17 10 10 17 10 10 17 10 10 17 10 10
17 10 10 17 10 10 17 10 10 17 10 10 17 10 10 17 10 10 17 10 10 17 10
10 17 10 10 17 10 10 17 10 10 17 10 10 17 10 10 17 10 10 17 10 10 17
10 10 17 10 10 17 10 10 17 10 10 17 10 10 17 10 10 17 10 10 17 10 10
17 10 10 17 10 10 17 10 10 17 10 10 17 10 10 16 10 10 16 10 10 16 10
10 16 10 10 16 10 10 16 10 10 16 10 10 16 10 10 16 10 10 16 10 10 16
10 10 16 10 10 16 10 10 16 10 10 16 10 10 16 10 10 16 10 10 16 10 10
16 10 10 16 10 10 16 10 10 16 10 10 16 10 10 16 10 10 16 10 10 16 10
10 16 10 10 16 10 10 16 10 10 16 10 10 16 10 10 16 10 10 16 10 10 16
10 10 16 10 10 16 10 10 16 10 10 16 10 10 16 10 10 16 10 10 16 10 10
16 10 10 16 10 10 16 10 10 16 10 10 16 10 10 16 10 10 16 10 10 15 10
10 15 10 10 15 10 10 15 10 10 15 10 10 15 10 10 15 10 10 15 10 10 15
10 10 15 10 10 15 9 9 15 9 9 15 9 9 15 9 9 15 9 9 15 9 9 15 9 9 15 9 9
15 9 9 15 9 9 15 9 9 15 9 9 15 9 9 15 9 9 15 9 9 15 9 9 15 9 9 15 9 9
15 9 9 15 9 9 15 9 9 15 9 9 15 9 9 15 9 9 15 9 9 14 9 9 14 9 9 14 9 9
14 9 9 14 9 9 14 9 9 14 9 9 14 9 9 14 9 9 14 9 9 14 9 9 14 9 9 14 9 9
14 9 9 14 9 9 14 9 9 14 9 9 14 9 9 14 9 9 14 9 9 14 9 9 14 9 9 14 9 9
14 9 9 14 9 9 14 9 9 14 9 9 14 9 9 14 8 8 14 8 8 14 8 8 14 8 8 14 8 8
13 8 8 13 8 8 13 8 8 13 8 8 13 8 8 13 8 8 13 8 8 13 8 8 13 8 8 13 8 8
13 8 8 13 8 8 13 8 8 13 8 8 13 8 8 13 8 8 13 8 8 13 8 8 13 8 8 13 8 8
13 8 8 13 8 8 13 8 8 13 8 8 13 8 8 13 8 8 13 8 8 13 8 8 13 8 8 13 8 8
13 8 8 13 8 8 13 8 8 13 8 8 12 8 8 12 8 8 12 8 8 12 8 8 12 8 8 12 8 8
12 8 8 12 8 8 12 8 8 12 8 8 12 8 8 12 8 8 12 8 8 12 8 8 12
11 11 17 11 11 17 11 11 17 11 11 17 11 11 17 11 11 17 11 11 17 11 11
17 11 11 17 11 11 17 11 11 17 11 11 17 11 11 17 11 11 17 11 11 17 11
11 17 11 11 17 11 11 17 10 10 17 10 10 17 10 10 17 10 10 17 10 10 17
10 10 17 10 10 17 10 10 17 10 10 17 10 10 17 10 10 17 10 10 17 10 10
17 10 10 17 10 10 17 10 10 17 10 10 17 10 10 17 10 10 17 10 10 17 10
10 17 10 10 17 10 10 17 10 10 17 10 10 16 10 10 16 10 10 16 10 10 16
10 10 16 10 10 16 10 10 16 10 10 16 10 10 16 10 10 16 10 10 16 10 10
16 10 10 16 10 10 16 10 10 16 10 10 16 10 10 16 10 10 16 10 10 16 10
10 16 10 10 16 10 10 16 10 10 16 10 10 16 10 10 16 10 10 16 10 10 16
10 10 16 10 10 16 10 10 16 10 10 16 10 10 16 10 10 16 10 10 16 10 10
16 10 10 16 10 10 16 10 10 16 10 10 16 10 10 16 10 10 16 10 10 16 10
10 16 10 10 16 10 10 15 10 10 15 10 10 15 10 10 15 10 10 15 10 10 15
10 10 15 10 10 15 10 10 15 10 10 15 10 10 15 9 9 15 9 9 15 9 9 15 9 9
15 9 9 15 9 9 15 9 9 15 9 9 15 9 9 15 9 9 15 9 9 15 9 9 15 9 9 15 9 9
15 9 9 15 9 9 15 9 9 15 9 9 15 9 9 15 9 9 15 9 9 15 9 9 15 9 9 15 9 9
14 9 9 14 9 9 14 9 9 14 9 9 14 9 9 14 9 9 14 9 9 14 9 9 14 9 9 14 9 9
14 9 9 14 9 9 14 9 9 14 9 9 14 9 9 14 9 9 14 9 9 14 9 9 14 9 9 14 9 9
14 9 9 14 9 9 14 9 9 14 9 9 14 9 9 14 9 9 14 9 9 14 9 9 14 9 9 14 8 8
14 8 8 14 8 8 14 8 8 13 8 8 13 8 8 13 8 8 13 8 8 13 8 8 13 8 8 13 8 8
13 8 8 13 8 8 13 8 8 13 8 8 13 8 8 13 8 8 13 8 8 13 8 8 13 8 8 13 8 8
13 8 8 13 8 8 13 8 8 13 8 8 13 8 8 13 8 8 13 8 8 13 8 8 13 8 8 13 8 8
13 8 8 13 8 8 13 8 8 13 8 8 13 8 8 13 8 8 13 8 8 13 8 8 12 8 8 12 8 8
12 8 8 12 8 8 12 8 8 12 8 8 12 8 8 12 8 8 12 8 8 12 8 8 12 8 8 12
11 11 17 11 11 17 11 11 17 11 11 17 11 11 17 11 11 17 11 11 17 11 11
17 11 11 17 11 11 17 11 11 17 11 11 17 11 11 17 11 11 17 11 11 17 11
11 17 11 11 17 11 11 17 11 11 17 11 11 17 11 11 17 11 11 17 11 11 17
11 11 17 11 11 17 11 11 17 11 11 17 11 11 17 11 11 17 10 10 17 10 10
17 10 10 17 10 10 17 10 10 17 10 10 17 10 10 17 10 10 17 10 10 17 10
10 17 10 10 17 10 10 17 10 10 17 10 10 17 10 10 17 10 10 17 10 10 17
10 10 17 10 10 17 10 10 16 10 10 16 10 10 16 10 10 16 10 10 16 10 10
16 10 10 16 10 10 16 10 10 16 10 10 16 10 10 16 10 10 16 10 10 16 10
10 16 10 10 16 10 10 16 10 10 16 10 10 16 10 10 16 10 10 16 10 10 16
10 10 16 10 10 16 10 10 16 10 10 16 10 10 16 10 10 16 10 10 16 10 10
16 10 10 16 10 10 16 10 10 16 10 10 16 10 10 16 10 10 16 10 10 16 10
10 16 10 10 16 10 10 16 10 10 16 10 10 16 10 10 15 10 10 15 10 10 15
10 10 15 10 10 15 10 10 15 10 10 15 10 10 15 10 10 15 10 10 15 10 10
15 9 9 15 9 9 15 9 9 15 9 9 15 9 9 15 9 9 15 9 9 15 9 9 15 9 9 15 9 9
15 9 9 15 9 9 15 9 9 15 9 9 15 9 9 15 9 9 15 9 9 15 9 9 15 9 9 15 9 9
15 9 9 15 9 9 15 9 9 15 9 9 14 9 9 14 9 9 14 9 9 14 9 9 14 9 9 14 9 9
14 9 9 14 9 9 14 9 9 14 9 9 14 9 9 14 9 9 14 9 9 14 9 9 14 9 9 14 9 9
14 9 9 14 9 9 14 9 9 14 9 9 14 9 9 14 9 9 14 9 9 14 9 9 14 9 9 14 9 9
14 9 9 14 9 9 14 9 9 14 8 8 14 8 8 14 8 8 14 8 8 13 8 8 13 8 8 13 8 8
13 8 8 13 8 8 13 8 8 13 8 8 13 8 8 13 8 8 13 8 8 13 8 8 13 8 8 13 8 8
13 8 8 13 8 8 13 8 8 13 8 8 13 8 8 13 8 8 13 8 8 13 8 8 13 8 8 13 8 8
13 8 8 13 8 8 13 8 8 13 8 8 13 8 8 13 8 8 13 8 8 13 8 8 13 8 8 13 8 8
13 8 8 13 8 8 12 8 8 12 8 8 12 8 8 12 8 8 12 8 8 12 8 8 12 8 8 12 8 8
12
11 11 17 11 11 17 11 11 17 11 11 17 11 11 17 11 11 17 11 11 17 11 11
17 11 11 17 11 11 17 11 11 17 11 11 17 11 11 17 11 11 17 11 11 17 11
11 17 11 11 17 11 11 17 11 11 17 11 11 17 11 11 17 11 11 17 11 11 17
11 11 17 11 11 17 11 11 17 11 11 17 11 11 17 11 11 17 11 11 17 11 11
17 11 11 17 11 11 17 11 11 17 11 11 17 11 11 17 10 10 17 10 10 17 10
10 17 10 10 17 10 10 17 10 10 17 10 10 17 10 10 17 10 10 17 10 10 17
10 10 17 10 10 17 10 10 17 10 10 17 10 10 17 10 10 17 10 10 16 10 10
16 10 10 16 10 10 16 10 10 16 10 10 16 10 10 16 10 10 16 10 10 16 10
10 16 10 10 16 10 10 16 10 10 16 10 10 16 10 10 16 10 10 16 10 10 16
10 10 16 10 10 16 10 10 16 10 10 16 10 10 16 10 10 16 10 10 16 10 10
16 10 10 16 10 10 16 10 10 16 10 10 16 10 10 16 10 10 16 10 10 16 10
10 16 10 10 16 10 10 16 10 10 16 10 10 16 10 10 16 10 10 16 10 10 16
10 10 15 10 10 15 10 10 15 10 10 15 10 10 15 10 10 15 10 10 15 10 10
15 10 10 15 10 10 15 9 9 15 9 9 15 9 9 15 9 9 15 9 9 15 9 9 15 9 9 15
9 9 15 9 9 15 9 9 15 9 9 15 9 9 15 9 9 15 9 9 15 9 9 15 9 9 15 9 9 15
9 9 15 9 9 15 9 9 15 9 9 15 9 9 15 9 9 15 9 9 15 9 9 14 9 9 14 9 9 14
9 9 14 9 9 14 9 9 14 9 9 14 9 9 14 9 9 14 9 9 14 9 9 14 9 9 14 9 9 14
9 9 14 9 9 14 9 9 14 9 9 14 9 9 14 9 9 14 9 9 14 9 9 14 9 9 14 9 9 14
9 9 14 9 9 14 9 9 14 9 9 14 9 9 14 9 9 14 8 8 14 8 8 14 8 8 14 8 8 14
8 8 13 8 8 13 8 8 13 8 8 13 8 8 13 8 8 13 8 8 13 8 8 13 8 8 13 8 8 13
8 8 13 8 8 13 8 8 13 8 8 13 8 8 13 8 8 13 8 8 13 8 8 13 8 8 13 8 8 13
8 8 13 8 8 13 8 8 13 8 8 13 8 8 13 8 8 13 8 8 13 8 8 13 8 8 13 8 8 13
8 8 13 8 8 13 8 8 13 8 8 13 8 8 13 8 8 12 8 8 12 8 8 12 8 8 12 8 8 12
8 8 12
11 11 17 11 11 17 11 11 17 11 11 17 11 11 17 11 11 17 11 11 17 11 11
17 11 11 17 11 11 17 11 11 17 11 11 17 11 11 17 11 11 17 11 11 17 11
11 17 11 11 17 11 11 17 11 11 17 11 11 17 11 11 17 11 11 17 11 11 17
11 11 17 11 11 17 11 11 17 11 11 17 11 11 17 11 11 17 11 11 17 11 11
17 11 11 17 11 11 17 11 11 17 11 11 17 11 11 17 11 11 17 11 11 17 11
11 17 11 11 17 11 11 17 10 10 17 10 10 17 10 10 17 10 10 17 10 10 17
10 10 17 10 10 17 10 10 17 10 10 17 10 10 17 10 10 17 10 10 17 10 10
17 10 10 17 10 10 17 10 10 16 10 10 16 10 10 16 10 10 16 10 10 16 10
10 16 10 10 16 10 10 16 10 10 16 10 10 16 10 10 16 10 10 16 10 10 16
10 10 16 10 10 16 10 10 16 10 10 16 10 10 16 10 10 16 10 10 16 10 10
16 10 10 16 10 10 16 10 10 16 10 10 16 10 10 16 10 10 16 10 10 16 10
10 16 10 10 16 10 10 16 10 10 16 10 10 16 10 10 16 10 10 16 10 10 16
10 10 16 10 10 16 10 10 16 10 10 15 10 10 15 10 10 15 10 10 15 10 10
15 10 10 15 10 10 15 10 10 15 10 10 15 10 10 15 9 9 15 9 9 15 9 9 15 9
9 15 9 9 15 9 9 15 9 9 15 9 9 15 9 9 15 9 9 15 9 9 15 9 9 15 9 9 15 9
9 15 9 9 15 9 9 15 9 9 15 9 9 15 9 9 15 9 9 15 9 9 15 9 9 15 9 9 15 9
9 14 9 9 14 9 9 14 9 9 14 9 9 14 9 9 14 9 9 14 9 9 14 9 9 14 9 9 14 9
9 14 9 9 14 9 9 14 9 9 14 9 9 14 9 9 14 9 9 14 9 9 14 9 9 14 9 9 14 9
9 14 9 9 14 9 9 14 9 9 14 9 9 14 9 9 14 9 9 14 9 9 14 9 9 14 9 9 14 8
8 14 8 8 14 8 8 14 8 8 13 8 8 13 8 8 13 8 8 13 8 8 13 8 8 13 8 8 13 8
8 13 8 8 13 8 8 13 8 8 13 8 8 13 8 8 13 8 8 13 8 8 13 8 8 13 8 8 13 8
8 13 8 8 13 8 8 13 8 8 13 8 8 13 8 8 13 8 8 13 8 8 13 8 8 13 8 8 13 8
8 13 8 8 13 8 8 13 8 8 13 8 8 13 8 8 13 8 8 13 8 8 13 8 8 13 8 8 12 8
8 12 8 8 12
11 11 17 11 11 17 11 11 17 11 11 17 11 11 17 11 11 17 11 11 17 11 11
17 11 11 17 11 11 17 11 11 17 11 11 17 11 11 17 11 11 17 11 11 17 11
11 17 11 11 17 11 11 17 11 11 17 11 11 17 11 11 17 11 11 17 11 11 17
11 11 17 11 11 17 11 11 17 11 11 17 11 11 17 11 11 17 11 11 17 11 11
17 11 11 17 11 11 17 11 11 17 11 11 17 11 11 17 11 11 17 11 11 17 11
11 17 11 11 17 11 11 17 11 11 17 11 11 17 11 11 17 11 11 17 11 11 17
10 10 17 10 10 17 10 10 17 10 10 17 10 10 17 10 10 17 10 10 17 10 10
17 10 10 17 10 10 17 10 10 17 10 10 17 10 10 17 10 10 17 10 10 16 10
10 16 10 10 16 10 10 16 10 10 16 10 10 16 10 10 16 10 10 16 10 10 16
10 10 16 10 10 16 10 10 16 10 10 16 10 10 16 10 10 16 10 10 16 10 10
16 10 10 16 10 10 16 10 10 16 10 10 16 10 10 16 10 10 16 10 10 16 10
10 16 10 10 16 10 10 16 10 10 16 10 10 16 10 10 16 10 10 16 10 10 16
10 10 16 10 10 16 10 10 16 10 10 16 10 10 16 10 10 15 10 10 15 10 10
15 10 10 15 10 10 15 10 10 15 10 10 15 10 10 15 10 10 15 10 10 15 9 9
15 9 9 15 9 9 15 9 9 15 9 9 15 9 9 15 9 9 15 9 9 15 9 9 15 9 9 15 9 9
15 9 9 15 9 9 15 9 9 15 9 9 15 9 9 15 9 9 15 9 9 15 9 9 15 9 9 15 9 9
15 9 9 15 9 9 15 9 9 15 9 9 14 9 9 14 9 9 14 9 9 14 9 9 14 9 9 14 9 9
14 9 9 14 9 9 14 9 9 14 9 9 14 9 9 14 9 9 14 9 9 14 9 9 14 9 9 14 9 9
14 9 9 14 9 9 14 9 9 14 9 9 14 9 9 14 9 9 14 9 9 14 9 9 14 9 9 14 9 9
14 9 9 14 9 9 14 8 8 14 8 8 14 8 8 14 8 8 14 8 8 13 8 8 13 8 8 13 8 8
13 8 8 13 8 8 13 8 8 13 8 8 13 8 8 13 8 8 13 8 8 13 8 8 13 8 8 13 8 8
13 8 8 13 8 8 13 8 8 13 8 8 13 8 8 13 8 8 13 8 8 13 8 8 13 8 8 13 8 8
13 8 8 13 8 8 13 8 8 13 8 8 13 8 8 13 8 8 13 8 8 13 8 8 13 8 8 13 8 8
13 8 8 13 8 8 12
11 11 17 11 11 17 11 11 17 11 11 17 11 11 17 11 11 17 11 11 17 11 11
17 11 11 17 11 11 17 11 11 17 11 11 17 11 11 17 11 11 17 11 11 17 11
11 17 11 11 17 11 11 17 11 11 17 11 11 17 11 11 17 11 11 17 11 11 17
11 11 17 11 11 17 11 11 17 11 11 17 11 11 17 11 11 17 11 11 17 11 11
17 11 11 17 11 11 17 11 11 17 11 11 17 11 11 17 11 11 17 11 11 17 11
11 17 11 11 17 11 11 17 11 11 17 11 11 17 11 11 17 11 11 17 11 11 17
11 11 17 11 11 17 11 11 17 11 11 17 10 10 17 10 10 17 10 10 17 10 10
17 10 10 17 10 10 17 10 10 17 10 10 17 10 10 17 10 10 17 10 10 17 10
10 17 10 10 17 10 10 16 10 10 16 10 10 16 10 10 16 10 10 16 10 10 16
10 10 16 10 10 16 10 10 16 10 10 16 10 10 16 10 10 16 10 10 16 10 10
16 10 10 16 10 10 16 10 10 16 10 10 16 10 10 16 10 10 16 10 10 16 10
10 16 10 10 16 10 10 16 10 10 16 10 10 16 10 10 16 10 10 16 10 10 16
10 10 16 10 10 16 10 10 16 10 10 16 10 10 16 10 10 16 10 10 16 10 10
16 10 10 15 10 10 15 10 10 15 10 10 15 10 10 15 10 10 15 10 10 15 10
10 15 10 10 15 10 10 15 9 9 15 9 9 15 9 9 15 9 9 15 9 9 15 9 9 15 9 9
15 9 9 15 9 9 15 9 9 15 9 9 15 9 9 15 9 9 15 9 9 15 9 9 15 9 9 15 9 9
15 9 9 15 9 9 15 9 9 15 9 9 15 9 9 15 9 9 15 9 9 14 9 9 14 9 9 14 9 9
14 9 9 14 9 9 14 9 9 14 9 9 14 9 9 14 9 9 14 9 9 14 9 9 14 9 9 14 9 9
14 9 9 14 9 9 14 9 9 14 9 9 14 9 9 14 9 9 14 9 9 14 9 9 14 9 9 14 9 9
14 9 9 14 9 9 14 9 9 14 9 9 14 9 9 14 9 9 14 8 8 14 8 8 14 8 8 14 8 8
13 8 8 13 8 8 13 8 8 13 8 8 13 8 8 13 8 8 13 8 8 13 8 8 13 8 8 13 8 8
13 8 8 13 8 8 13 8 8 13 8 8 13 8 8 13 8 8 13 8 8 13 8 8 13 8 8 13 8 8
13 8 8 13 8 8 13 8 8 13 8 8 13 8 8 13 8 8 13 8 8 13 8 8 13 8 8 13 8 8
13 8 8 13 8 8 13 8 8 13
11 11 18 11 11 18 11 11 18 11 11 18 11 11 18 11 11 18 11 11 18 11 11
17 11 11 17 11 11 17 11 11 17 11 11 17 11 11 17 11 11 17 11 11 17 11
11 17 11 11 17 11 11 17 11 11 17 11 11 17 11 11 17 11 11 17 11 11 17
11 11 17 11 11 17 11 11 17 11 11 17 11 11 17 11 11 17 11 11 17 11 11
17 11 11 17 11 11 17 11 11 17 11 11 17 11 11 17 11 11 17 11 11 17 11
11 17 11 11 17 11 11 17 11 11 17 11 11 17 11 11 17 11 11 17 11 11 17
11 11 17 11 11 17 11 11 17 11 11 17 11 11 17 11 11 17 11 11 17 10 10
17 10 10 17 10 10 17 10 10 17 10 10 17 10 10 17 10 10 17 10 10 17 10
10 17 10 10 17 10 10 17 10 10 17 10 10 17 10 10 16 10 10 16 10 10 16
10 10 16 10 10 16 10 10 16 10 10 16 10 10 16 10 10 16 10 10 16 10 10
16 10 10 16 10 10 16 10 10 16 10 10 16 10 10 16 10 10 16 10 10 16 10
10 16 10 10 16 10 10 16 10 10 16 10 10 16 10 10 16 10 10 16 10 10 16
10 10 16 10 10 16 10 10 16 10 10 16 10 10 16 10 10 16 10 10 16 10 10
16 10 10 16 10 10 16 10 10 15 10 10 15 10 10 15 10 10 15 10 10 15 10
10 15 10 10 15 10 10 15 10 10 15 10 10 15 9 9 15 9 9 15 9 9 15 9 9 15
9 9 15 9 9 15 9 9 15 9 9 15 9 9 15 9 9 15 9 9 15 9 9 15 9 9 15 9 9 15
9 9 15 9 9 15 9 9 15 9 9 15 9 9 15 9 9 15 9 9 15 9 9 15 9 9 15 9 9 14
9 9 14 9 9 14 9 9 14 9 9 14 9 9 14 9 9 14 9 9 14 9 9 14 9 9 14 9 9 14
9 9 14 9 9 14 9 9 14 9 9 14 9 9 14 9 9 14 9 9 14 9 9 14 9 9 14 9 9 14
9 9 14 9 9 14 9 9 14 9 9 14 9 9 14 9 9 14 9 9 14 9 9 14 9 9 14 8 8 14
8 8 14 8 8 14 8 8 14 8 8 13 8 8 13 8 8 13 8 8 13 8 8 13 8 8 13 8 8 13
8 8 13 8 8 13 8 8 13 8 8 13 8 8 13 8 8 13 8 8 13 8 8 13 8 8 13 8 8 13
8 8 13 8 8 13 8 8 13 8 8 13 8 8 13 8 8 13 8 8 13 8 8 13 8 8 13 8 8 13
8 8 13 8 8 13 8 8 13 8 8 13
11 11 18 11 11 18 11 11 18 11 11 18 11 11 18 11 11 18 11 11 18 11 11
18 11 11 18 11 11 18 11 11 18 11 11 18 11 11 18 11 11 18 11 11 18 11
11 18 11 11 18 11 11 17 11 11 17 11 11 17 11 11 17 11 11 17 11 11 17
11 11 17 11 11 17 11 11 17 11 11 17 11 11 17 11 11 17 11 11 17 11 11
17 11 11 17 11 11 17 11 11 17 11 11 17 11 11 17 11 11 17 11 11 17 11
11 17 11 11 17 11 11 17 11 11 17 11 11 17 11 11 17 11 11 17 11 11 17
11 11 17 11 11 17 11 11 17 11 11 17 11 11 17 11 11 17 11 11 17 11 11
17 11 11 17 11 11 17 11 11 17 10 10 17 10 10 17 10 10 17 10 10 17 10
10 17 10 10 17 10 10 17 10 10 17 10 10 17 10 10 17 10 10 17 10 10 17
10 10 16 10 10 16 10 10 16 10 10 16 10 10 16 10 10 16 10 10 16 10 10
16 10 10 16 10 10 16 10 10 16 10 10 16 10 10 16 10 10 16 10 10 16 10
10 16 10 10 16 10 10 16 10 10 16 10 10 16 10 10 16 10 10 16 10 10 16
10 10 16 10 10 16 10 10 16 10 10 16 10 10 16 10 10 16 10 10 16 10 10
16 10 10 16 10 10 16 10 10 16 10 10 16 10 10 15 10 10 15 10 10 15 10
10 15 10 10 15 10 10 15 10 10 15 10 10 15 10 10 15 10 10 15 9 9 15 9 9
15 9 9 15 9 9 15 9 9 15 9 9 15 9 9 15 9 9 15 9 9 15 9 9 15 9 9 15 9 9
15 9 9 15 9 9 15 9 9 15 9 9 15 9 9 15 9 9 15 9 9 15 9 9 15 9 9 15 9 9
15 9 9 15 9 9 15 9 9 14 9 9 14 9 9 14 9 9 14 9 9 14 9 9 14 9 9 14 9 9
14 9 9 14 9 9 14 9 9 14 9 9 14 9 9 14 9 9 14 9 9 14 9 9 14 9 9 14 9 9
14 9 9 14 9 9 14 9 9 14 9 9 14 9 9 14 9 9 14 9 9 14 9 9 14 9 9 14 9 9
14 9 9 14 9 9 14 8 8 14 8 8 14 8 8 14 8 8 13 8 8 13 8 8 13 8 8 13 8 8
13 8 8 13 8 8 13 8 8 13 8 8 13 8 8 13 8 8 13 8 8 13 8 8 13 8 8 13 8 8
13 8 8 13 8 8 13 8 8 13 8 8 13 8 8 13 8 8 13 8 8 13 8 8 13 8 8 13 8 8
13 8 8 13 8 8 13 8 8 13 8 8 13
11 11 18 11 11 18 11 11 18 11 11 18 11 11 18 11 11 18 11 11 18 11 11
18 11 11 18 11 11 18 11 11 18 11 11 18 11 11 18 11 11 18 11 11 18 11
11 18 11 11 18 11 11 18 11 11 18 11 11 18 11 11 18 11 11 18 11 11 18
11 11 17 11 11 17 11 11 17 11 11 17 11 11 17 11 11 17 11 11 17 11 11
17 11 11 17 11 11 17 11 11 17 11 11 17 11 11 17 11 11 17 11 11 17 11
11 17 11 11 17 11 11 17 11 11 17 11 11 17 11 11 17 11 11 17 11 11 17
11 11 17 11 11 17 11 11 17 11 11 17 11 11 17 11 11 17 11 11 17 11 11
17 11 11 17 11 11 17 11 11 17 11 11 17 11 11 17 10 10 17 10 10 17 10
10 17 10 10 17 10 10 17 10 10 17 10 10 17 10 10 17 10 10 17 10 10 17
10 10 17 10 10 17 10 10 16 10 10 16 10 10 16 10 10 16 10 10 16 10 10
16 10 10 16 10 10 16 10 10 16 10 10 16 10 10 16 10 10 16 10 10 16 10
10 16 10 10 16 10 10 16 10 10 16 10 10 16 10 10 16 10 10 16 10 10 16
10 10 16 10 10 16 10 10 16 10 10 16 10 10 16 10 10 16 10 10 16 10 10
16 10 10 16 10 10 16 10 10 16 10 10 16 10 10 16 10 10 16 10 10 16 10
10 15 10 10 15 10 10 15 10 10 15 10 10 15 10 10 15 10 10 15 10 10 15
10 10 15 10 10 15 9 9 15 9 9 15 9 9 15 9 9 15 9 9 15 9 9 15 9 9 15 9 9
15 9 9 15 9 9 15 9 9 15 9 9 15 9 9 15 9 9 15 9 9 15 9 9 15 9 9 15 9 9
15 9 9 15 9 9 15 9 9 15 9 9 15 9 9 15 9 9 14 9 9 14 9 9 14 9 9 14 9 9
14 9 9 14 9 9 14 9 9 14 9 9 14 9 9 14 9 9 14 9 9 14 9 9 14 9 9 14 9 9
14 9 9 14 9 9 14 9 9 14 9 9 14 9 9 14 9 9 14 9 9 14 9 9 14 9 9 14 9 9
14 9 9 14 9 9 14 9 9 14 9 9 14 9 9 14 8 8 14 8 8 14 8 8 14 8 8 14 8 8
13 8 8 13 8 8 13 8 8 13 8 8 13 8 8 13 8 8 13 8 8 13 8 8 13 8 8 13 8 8
13 8 8 13 8 8 13 8 8 13 8 8 13 8 8 13 8 8 13 8 8 13 8 8 13 8 8 13 8 8
13 8 8 13 8 8 13 8 8 13 8 8 13 8 8 13
11 11 18 11 11 18 11 11 18 11 11 18 11 11 18 11 11 18 11 11 18 11 11
18 11 11 18 11 11 18 11 11 18 11 11 18 11 11 18 11 11 18 11 11 18 11
11 18 11 11 18 11 11 18 11 11 18 11 11 18 11 11 18 11 11 18 11 11 18
11 11 18 11 11 18 11 11 18 11 11 18 11 11 18 11 11 17 11 11 17 11 11
17 11 11 17 11 11 17 11 11 17 11 11 17 11 11 17 11 11 17 11 11 17 11
11 17 11 11 17 11 11 17 11 11 17 11 11 17 11 11 17 11 11 17 11 11 17
11 11 17 11 11 17 11 11 17 11 11 17 11 11 17 11 11 17 11 11 17 11 11
17 11 11 17 11 11 17 11 11 17 11 11 17 11 11 17 11 11 17 11 11 17 11
11 17 10 10 17 10 10 17 10 10 17 10 10 17 10 10 17 10 10 17 10 10 17
10 10 17 10 10 17 10 10 17 10 10 17 10 10 17 10 10 16 10 10 16 10 10
16 10 10 16 10 10 16 10 10 16 10 10 16 10 10 16 10 10 16 10 10 16 10
10 16 10 10 16 10 10 16 10 10 16 10 10 16 10 10 16 10 10 16 10 10 16
10 10 16 10 10 16 10 10 16 10 10 16 10 10 16 10 10 16 10 10 16 10 10
16 10 10 16 10 10 16 10 10 16 10 10 16 10 10 16 10 10 16 10 10 16 10
10 16 10 10 16 10 10 15 10 10 15 10 10 15 10 10 15 10 10 15 10 10 15
10 10 15 10 10 15 10 10 15 10 10 15 9 9 15 9 9 15 9 9 15 9 9 15 9 9 15
9 9 15 9 9 15 9 9 15 9 9 15 9 9 15 9 9 15 9 9 15 9 9 15 9 9 15 9 9 15
9 9 15 9 9 15 9 9 15 9 9 15 9 9 15 9 9 15 9 9 15 9 9 15 9 9 14 9 9 14
9 9 14 9 9 14 9 9 14 9 9 14 9 9 14 9 9 14 9 9 14 9 9 14 9 9 14 9 9 14
9 9 14 9 9 14 9 9 14 9 9 14 9 9 14 9 9 14 9 9 14 9 9 14 9 9 14 9 9 14
9 9 14 9 9 14 9 9 14 9 9 14 9 9 14 9 9 14 9 9 14 9 9 14 8 8 14 8 8 14
8 8 14 8 8 14 8 8 13 8 8 13 8 8 13 8 8 13 8 8 13 8 8 13 8 8 13 8 8 13
8 8 13 8 8 13 8 8 13 8 8 13 8 8 13 8 8 13 8 8 13 8 8 13 8 8 13 8 8 13
8 8 13 8 8 13 8 8 13 8 8 13 8 8 13 8 8 13
11 11 18 11 11 18 11 11 18 11 11 18 11 11 18 11 11 18 11 11 18 11 11
18 11 11 18 11 11 18 11 11 18 11 11 18 11 11 18 11 11 18 11 11 18 11
11 18 11 11 18 11 11 18 11 11 18 11 11 18 11 11 18 11 11 18 11 11 18
11 11 18 11 11 18 11 11 18 11 11 18 11 11 18 11 11 18 11 11 18 11 11
18 11 11 18 11 11 17 11 11 17 11 11 17 11 11 17 11 11 17 11 11 17 11
11 17 11 11 17 11 11 17 11 11 17 11 11 17 11 11 17 11 11 17 11 11 17
11 11 17 11 11 17 11 11 17 11 11 17 11 11 17 11 11 17 11 11 17 11 11
17 11 11 17 11 11 17 11 11 17 11 11 17 11 11 17 11 11 17 11 11 17 11
11 17 11 11 17 11 11 17 11 11 17 10 10 17 10 10 17 10 10 17 10 10 17
10 10 17 10 10 17 10 10 17 10 10 17 10 10 17 10 10 17 10 10 17 10 10
16 10 10 16 10 10 16 10 10 16 10 10 16 10 10 16 10 10 16 10 10 16 10
10 16 10 10 16 10 10 16 10 10 16 10 10 16 10 10 16 10 10 16 10 10 16
10 10 16 10 10 16 10 10 16 10 10 16 10 10 16 10 10 16 10 10 16 10 10
16 10 10 16 10 10 16 10 10 16 10 10 16 10 10 16 10 10 16 10 10 16 10
10 16 10 10 16 10 10 16 10 10 16 10 10 15 10 10 15 10 10 15 10 10 15
10 10 15 10 10 15 10 10 15 10 10 15 10 10 15 10 10 15 9 9 15 9 9 15 9
9 15 9 9 15 9 9 15 9 9 15 9 9 15 9 9 15 9 9 15 9 9 15 9 9 15 9 9 15 9
9 15 9 9 15 9 9 15 9 9 15 9 9 15 9 9 15 9 9 15 9 9 15 9 9 15 9 9 15 9
9 15 9 9 14 9 9 14 9 9 14 9 9 14 9 9 14 9 9 14 9 9 14 9 9 14 9 9 14 9
9 14 9 9 14 9 9 14 9 9 14 9 9 14 9 9 14 9 9 14 9 9 14 9 9 14 9 9 14 9
9 14 9 9 14 9 9 14 9 9 14 9 9 14 9 9 14 9 9 14 9 9 14 9 9 14 9 9 14 9
9 14 9 9 14 8 8 14 8 8 14 8 8 14 8 8 13 8 8 13 8 8 13 8 8 13 8 8 13 8
8 13 8 8 13 8 8 13 8 8 13 8 8 13 8 8 13 8 8 13 8 8 13 8 8 13 8 8 13 8
8 13 8 8 13 8 8 13 8 8 13 8 8 13 8 8 13 8 8 13
11 11 18 11 11 18 11 11 18 11 11 18 11 11 18 11 11 18 11 11 18 11 11
18 11 11 18 11 11 18 11 11 18 11 11 18 11 11 18 11 11 18 11 11 18 11
11 18 11 11 18 11 11 18 11 11 18 11 11 18 11 11 18 11 11 18 11 11 18
11 11 18 11 11 18 11 11 18 11 11 18 11 11 18 11 11 18 11 11 18 11 11
18 11 11 18 11 11 18 11 11 18 11 11 18 11 11 18 11 11 17 11 11 17 11
11 17 11 11 17 11 11 17 11 11 17 11 11 17 11 11 17 11 11 17 11 11 17
11 11 17 11 11 17 11 11 17 11 11 17 11 11 17 11 11 17 11 11 17 11 11
17 11 11 17 11 11 17 11 11 17 11 11 17 11 11 17 11 11 17 11 11 17 11
11 17 11 11 17 11 11 17 11 11 17 11 11 17 11 11 17 10 10 17 10 10 17
10 10 17 10 10 17 10 10 17 10 10 17 10 10 17 10 10 17 10 10 17 10 10
17 10 10 17 10 10 16 10 10 16 10 10 16 10 10 16 10 10 16 10 10 16 10
10 16 10 10 16 10 10 16 10 10 16 10 10 16 10 10 16 10 10 16 10 10 16
10 10 16 10 10 16 10 10 16 10 10 16 10 10 16 10 10 16 10 10 16 10 10
16 10 10 16 10 10 16 10 10 16 10 10 16 10 10 16 10 10 16 10 10 16 10
10 16 10 10 16 10 10 16 10 10 16 10 10 16 10 10 16 10 10 15 10 10 15
10 10 15 10 10 15 10 10 15 10 10 15 10 10 15 10 10 15 10 10 15 10 10
15 9 9 15 9 9 15 9 9 15 9 9 15 9 9 15 9 9 15 9 9 15 9 9 15 9 9 15 9 9
15 9 9 15 9 9 15 9 9 15 9 9 15 9 9 15 9 9 15 9 9 15 9 9 15 9 9 15 9 9
15 9 9 15 9 9 15 9 9 15 9 9 14 9 9 14 9 9 14 9 9 14 9 9 14 9 9 14 9 9
14 9 9 14 9 9 14 9 9 14 9 9 14 9 9 14 9 9 14 9 9 14 9 9 14 9 9 14 9 9
14 9 9 14 9 9 14 9 9 14 9 9 14 9 9 14 9 9 14 9 9 14 9 9 14 9 9 14 9 9
14 9 9 14 9 9 14 9 9 14 9 9 14 8 8 14 8 8 14 8 8 14 8 8 13 8 8 13 8 8
13 8 8 13 8 8 13 8 8 13 8 8 13 8 8 13 8 8 13 8 8 13 8 8 13 8 8 13 8 8
13 8 8 13 8 8 13 8 8 13 8 8 13 8 8 13 8 8 13 8 8 13
11 11 18 11 11 18 11 11 18 11 11 18 11 11 18 11 11 18 11 11 18 11 11
18 11 11 18 11 11 18 11 11 18 11 11 18 11 11 18 11 11 18 11 11 18 11
11 18 11 11 18 11 11 18 11 11 18 11 11 18 11 11 18 11 11 18 11 11 18
11 11 18 11 11 18 11 11 18 11 11 18 11 11 18 11 11 18 11 11 18 11 11
18 11 11 18 11 11 18 11 11 18 11 11 18 11 11 18 11 11 18 11 11 18 11
11 18 11 11 17 11 11 17 11 11 17 11 11 17 11 11 17 11 11 17 11 11 17
11 11 17 11 11 17 11 11 17 11 11 17 11 11 17 11 11 17 11 11 17 11 11
17 11 11 17 11 11 17 11 11 17 11 11 17 11 11 17 11 11 17 11 11 17 11
11 17 11 11 17 11 11 17 11 11 17 11 11 17 11 11 17 11 11 17 11 11 17
10 10 17 10 10 17 10 10 17 10 10 17 10 10 17 10 10 17 10 10 17 10 10
17 10 10 17 10 10 17 10 10 17 10 10 16 10 10 16 10 10 16 10 10 16 10
10 16 10 10 16 10 10 16 10 10 16 10 10 16 10 10 16 10 10 16 10 10 16
10 10 16 10 10 16 10 10 16 10 10 16 10 10 16 10 10 16 10 10 16 10 10
16 10 10 16 10 10 16 10 10 16 10 10 16 10 10 16 10 10 16 10 10 16 10
10 16 10 10 16 10 10 16 10 10 16 10 10 16 10 10 16 10 10 16 10 10 16
10 10 15 10 10 15 10 10 15 10 10 15 10 10 15 10 10 15 10 10 15 10 10
15 10 10 15 10 10 15 9 9 15 9 9 15 9 9 15 9 9 15 9 9 15 9 9 15 9 9 15
9 9 15 9 9 15 9 9 15 9 9 15 9 9 15 9 9 15 9 9 15 9 9 15 9 9 15 9 9 15
9 9 15 9 9 15 9 9 15 9 9 15 9 9 15 9 9 15 9 9 14 9 9 14 9 9 14 9 9 14
9 9 14 9 9 14 9 9 14 9 9 14 9 9 14 9 9 14 9 9 14 9 9 14 9 9 14 9 9 14
9 9 14 9 9 14 9 9 14 9 9 14 9 9 14 9 9 14 9 9 14 9 9 14 9 9 14 9 9 14
9 9 14 9 9 14 9 9 14 9 9 14 9 9 14 9 9 14 9 9 14 8 8 14 8 8 14 8 8 14
8 8 14 8 8 13 8 8 13 8 8 13 8 8 13 8 8 13 8 8 13 8 8 13 8 8 13 8 8 13
8 8 13 8 8 13 8 8 13 8 8 13 8 8 13 8 8 13 8 8 13 8 8 13
11 11 18 11 11 18 11 11 18 11 11 18 11 11 18 11 11 18 11 11 18 11 11
18 11 11 18 11 11 18 11 11 18 11 11 18 11 11 18 11 11 18 11 11 18 11
11 18 11 11 18 11 11 18 11 11 18 11 11 18 11 11 18 11 11 18 11 11 18
11 11 18 11 11 18 11 11 18 11 11 18 11 11 18 11 11 18 11 11 18 11 11
18 11 11 18 11 11 18 11 11 18 11 11 18 11 11 18 11 11 18 11 11 18 11
11 18 11 11 18 11 11 18 11 11 18 11 11 17 11 11 17 11 11 17 11 11 17
11 11 17 11 11 17 11 11 17 11 11 17 11 11 17 11 11 17 11 11 17 11 11
17 11 11 17 11 11 17 11 11 17 11 11 17 11 11 17 11 11 17 11 11 17 11
11 17 11 11 17 11 11 17 11 11 17 11 11 17 11 11 17 11 11 17 11 11 17
11 11 17 11 11 17 10 10 17 10 10 17 10 10 17 10 10 17 10 10 17 10 10
17 10 10 17 10 10 17 10 10 17 10 10 17 10 10 17 10 10 16 10 10 16 10
10 16 10 10 16 10 10 16 10 10 16 10 10 16 10 10 16 10 10 16 10 10 16
10 10 16 10 10 16 10 10 16 10 10 16 10 10 16 10 10 16 10 10 16 10 10
16 10 10 16 10 10 16 10 10 16 10 10 16 10 10 16 10 10 16 10 10 16 10
10 16 10 10 16 10 10 16 10 10 16 10 10 16 10 10 16 10 10 16 10 10 16
10 10 16 10 10 15 10 10 15 10 10 15 10 10 15 10 10 15 10 10 15 10 10
15 10 10 15 10 10 15 10 10 15 9 9 15 9 9 15 9 9 15 9 9 15 9 9 15 9 9
15 9 9 15 9 9 15 9 9 15 9 9 15 9 9 15 9 9 15 9 9 15 9 9 15 9 9 15 9 9
15 9 9 15 9 9 15 9 9 15 9 9 15 9 9 15 9 9 15 9 9 15 9 9 15 9 9 14 9 9
14 9 9 14 9 9 14 9 9 14 9 9 14 9 9 14 9 9 14 9 9 14 9 9 14 9 9 14 9 9
14 9 9 14 9 9 14 9 9 14 9 9 14 9 9 14 9 9 14 9 9 14 9 9 14 9 9 14 9 9
14 9 9 14 9 9 14 9 9 14 9 9 14 9 9 14 9 9 14 9 9 14 9 9 14 9 9 14 8 8
14 8 8 14 8 8 14 8 8 14 8 8 13 8 8 13 8 8 13 8 8 13 8 8 13 8 8 13 8 8
13 8 8 13 8 8 13 8 8 13 8 8 13 8 8 13 8 8 13 8 8 13 8 8 13
11 11 18 11 11 18 11 11 18 11 11 18 11 11 18 11 11 18 11 11 18 11 11
18 11 11 18 11 11 18 11 11 18 11 11 18 11 11 18 11 11 18 11 11 18 11
11 18 11 11 18 11 11 18 11 11 18 11 11 18 11 11 18 11 11 18 11 11 18
11 11 18 11 11 18 11 11 18 11 11 18 11 11 18 11 11 18 11 11 18 11 11
18 11 11 18 11 11 18 11 11 18 11 11 18 11 11 18 11 11 18 11 11 18 11
11 18 11 11 18 11 11 18 11 11 18 11 11 18 11 11 18 11 11 18 11 11 17
11 11 17 11 11 17 11 11 17 11 11 17 11 11 17 11 11 17 11 11 17 11 11
17 11 11 17 11 11 17 11 11 17 11 11 17 11 11 17 11 11 17 11 11 17 11
11 17 11 11 17 11 11 17 11 11 17 11 11 17 11 11 17 11 11 17 11 11 17
11 11 17 11 11 17 11 11 17 11 11 17 10 10 17 10 10 17 10 10 17 10 10
17 10 10 17 10 10 17 10 10 17 10 10 17 10 10 17 10 10 17 10 10 17 10
10 16 10 10 16 10 10 16 10 10 16 10 10 16 10 10 16 10 10 16 10 10 16
10 10 16 10 10 16 10 10 16 10 10 16 10 10 16 10 10 16 10 10 16 10 10
16 10 10 16 10 10 16 10 10 16 10 10 16 10 10 16 10 10 16 10 10 16 10
10 16 10 10 16 10 10 16 10 10 16 10 10 16 10 10 16 10 10 16 10 10 16
10 10 16 10 10 16 10 10 16 10 10 15 10 10 15 10 10 15 10 10 15 10 10
15 10 10 15 10 10 15 10 10 15 10 10 15 10 10 15 9 9 15 9 9 15 9 9 15 9
9 15 9 9 15 9 9 15 9 9 15 9 9 15 9 9 15 9 9 15 9 9 15 9 9 15 9 9 15 9
9 15 9 9 15 9 9 15 9 9 15 9 9 15 9 9 15 9 9 15 9 9 15 9 9 15 9 9 15 9
9 15 9 9 14 9 9 14 9 9 14 9 9 14 9 9 14 9 9 14 9 9 14 9 9 14 9 9 14 9
9 14 9 9 14 9 9 14 9 9 14 9 9 14 9 9 14 9 9 14 9 9 14 9 9 14 9 9 14 9
9 14 9 9 14 9 9 14 9 9 14 9 9 14 9 9 14 9 9 14 9 9 14 9 9 14 9 9 14 9
9 14 9 9 14 8 8 14 8 8 14 8 8 14 8 8 14 8 8 13 8 8 13 8 8 13 8 8 13 8
8 13 8 8 13 8 8 13 8 8 13 8 8 13 8 8 13 8 8 13 8 8 13 8 8 13
11 11 18 11 11 18 11 11 18 11 11 18 11 11 18 11 11 18 11 11 18 11 11
18 11 11 18 11 11 18 11 11 18 11 11 18 11 11 18 11 11 18 11 11 18 11
11 18 11 11 18 11 11 18 11 11 18 11 11 18 11 11 18 11 11 18 11 11 18
11 11 18 11 11 18 11 11 18 11 11 18 11 11 18 11 11 18 11 11 18 11 11
18 11 11 18 11 11 18 11 11 18 11 11 18 11 11 18 11 11 18 11 11 18 11
11 18 11 11 18 11 11 18 11 11 18 11 11 18 11 11 18 11 11 18 11 11 18
11 11 18 11 11 17 11 11 17 11 11 17 11 11 17 11 11 17 11 11 17 11 11
17 11 11 17 11 11 17 11 11 17 11 11 17 11 11 17 11 11 17 11 11 17 11
11 17 11 11 17 11 11 17 11 11 17 11 11 17 11 11 17 11 11 17 11 11 17
11 11 17 11 11 17 11 11 17 11 11 17 11 11 17 11 11 17 10 10 17 10 10
17 10 10 17 10 10 17 10 10 17 10 10 17 10 10 17 10 10 17 10 10 17 10
10 17 10 10 17 10 10 16 10 10 16 10 10 16 10 10 16 10 10 16 10 10 16
10 10 16 10 10 16 10 10 16 10 10 16 10 10 16 10 10 16 10 10 16 10 10
16 10 10 16 10 10 16 10 10 16 10 10 16 10 10 16 10 10 16 10 10 16 10
10 16 10 10 16 10 10 16 10 10 16 10 10 16 10 10 16 10 10 16 10 10 16
10 10 16 10 10 16 10 10 16 10 10 16 10 10 16 10 10 15 10 10 15 10 10
15 10 10 15 10 10 15 10 10 15 10 10 15 10 10 15 10 10 15 10 10 15 9 9
15 9 9 15 9 9 15 9 9 15 9 9 15 9 9 15 9 9 15 9 9 15 9 9 15 9 9 15 9 9
15 9 9 15 9 9 15 9 9 15 9 9 15 9 9 15 9 9 15 9 9 15 9 9 15 9 9 15 9 9
15 9 9 15 9 9 15 9 9 15 9 9 14 9 9 14 9 9 14 9 9 14 9 9 14 9 9 14 9 9
14 9 9 14 9 9 14 9 9 14 9 9 14 9 9 14 9 9 14 9 9 14 9 9 14 9 9 14 9 9
14 9 9 14 9 9 14 9 9 14 9 9 14 9 9 14 9 9 14 9 9 14 9 9 14 9 9 14 9 9
14 9 9 14 9 9 14 9 9 14 9 9 14 8 8 14 8 8 14 8 8 14 8 8 14 8 8 13 8 8
13 8 8 13 8 8 13 8 8 13 8 8 13 8 8 13 8 8 13 8 8 13 8 8 13 8 8 13
11 11 18 11 11 18 11 11 18 11 11 18 11 11 18 11 11 18 11 11 18 11 11
18 11 11 18 11 11 18 11 11 18 11 11 18 11 11 18 11 11 18 11 11 18 11
11 18 11 11 18 11 11 18 11 11 18 11 11 18 11 11 18 11 11 18 11 11 18
11 11 18 11 11 18 11 11 18 11 11 18 11 11 18 11 11 18 11 11 18 11 11
18 11 11 18 11 11 18 11 11 18 11 11 18 11 11 18 11 11 18 11 11 18 11
11 18 11 11 18 11 11 18 11 11 18 11 11 18 11 11 18 11 11 18 11 11 18
11 11 18 11 11 18 11 11 18 11 11 17 11 11 17 11 11 17 11 11 17 11 11
17 11 11 17 11 11 17 11 11 17 11 11 17 11 11 17 11 11 17 11 11 17 11
11 17 11 11 17 11 11 17 11 11 17 11 11 17 11 11 17 11 11 17 11 11 17
11 11 17 11 11 17 11 11 17 11 11 17 11 11 17 11 11 17 11 11 17 11 11
17 10 10 17 10 10 17 10 10 17 10 10 17 10 10 17 10 10 17 10 10 17 10
10 17 10 10 17 10 10 17 10 10 16 10 10 16 10 10 16 10 10 16 10 10 16
10 10 16 10 10 16 10 10 16 10 10 16 10 10 16 10 10 16 10 10 16 10 10
16 10 10 16 10 10 16 10 10 16 10 10 16 10 10 16 10 10 16 10 10 16 10
10 16 10 10 16 10 10 16 10 10 16 10 10 16 10 10 16 10 10 16 10 10 16
10 10 16 10 10 16 10 10 16 10 10 16 10 10 16 10 10 16 10 10 16 10 10
15 10 10 15 10 10 15 10 10 15 10 10 15 10 10 15 10 10 15 10 10 15 10
10 15 10 10 15 9 9 15 9 9 15 9 9 15 9 9 15 9 9 15 9 9 15 9 9 15 9 9 15
9 9 15 9 9 15 9 9 15 9 9 15 9 9 15 9 9 15 9 9 15 9 9 15 9 9 15 9 9 15
9 9 15 9 9 15 9 9 15 9 9 15 9 9 15 9 9 14 9 9 14 9 9 14 9 9 14 9 9 14
9 9 14 9 9 14 9 9 14 9 9 14 9 9 14 9 9 14 9 9 14 9 9 14 9 9 14 9 9 14
9 9 14 9 9 14 9 9 14 9 9 14 9 9 14 9 9 14 9 9 14 9 9 14 9 9 14 9 9 14
9 9 14 9 9 14 9 9 14 9 9 14 9 9 14 9 9 14 9 9 14 8 8 14 8 8 14 8 8 14
8 8 14 8 8 13 8 8 13 8 8 13 8 8 13 8 8 13 8 8 13 8 8 13 8 8 13 8 8 13
11 11 18 11 11 18 11 11 18 11 11 18 11 11 18 11 11 18 11 11 18 11 11
18 11 11 18 11 11 18 11 11 18 11 11 18 11 11 18 11 11 18 11 11 18 11
11 18 11 11 18 11 11 18 11 11 18 11 11 18 11 11 18 11 11 18 11 11 18
11 11 18 11 11 18 11 11 18 11 11 18 11 11 18 11 11 18 11 11 18 11 11
18 11 11 18 11 11 18 11 11 18 11 11 18 11 11 18 11 11 18 11 11 18 11
11 18 11 11 18 11 11 18 11 11 18 11 11 18 11 11 18 11 11 18 11 11 18
11 11 18 11 11 18 11 11 18 11 11 18 11 11 18 11 11 17 11 11 17 11 11
17 11 11 17 11 11 17 11 11 17 11 11 17 11 11 17 11 11 17 11 11 17 11
11 17 11 11 17 11 11 17 11 11 17 11 11 17 11 11 17 11 11 17 11 11 17
11 11 17 11 11 17 11 11 17 11 11 17 11 11 17 11 11 17 11 11 17 11 11
17 11 11 17 10 10 17 10 10 17 10 10 17 10 10 17 10 10 17 10 10 17 10
10 17 10 10 17 10 10 17 10 10 17 10 10 17 10 10 16 10 10 16 10 10 16
10 10 16 10 10 16 10 10 16 10 10 16 10 10 16 10 10 16 10 10 16 10 10
16 10 10 16 10 10 16 10 10 16 10 10 16 10 10 16 10 10 16 10 10 16 10
10 16 10 10 16 10 10 16 10 10 16 10 10 16 10 10 16 10 10 16 10 10 16
10 10 16 10 10 16 10 10 16 10 10 16 10 10 16 10 10 16 10 10 16 10 10
16 10 10 15 10 10 15 10 10 15 10 10 15 10 10 15 10 10 15 10 10 15 10
10 15 10 10 15 10 10 15 9 9 15 9 9 15 9 9 15 9 9 15 9 9 15 9 9 15 9 9
15 9 9 15 9 9 15 9 9 15 9 9 15 9 9 15 9 9 15 9 9 15 9 9 15 9 9 15 9 9
15 9 9 15 9 9 15 9 9 15 9 9 15 9 9 15 9 9 15 9 9 15 9 9 14 9 9 14 9 9
14 9 9 14 9 9 14 9 9 14 9 9 14 9 9 14 9 9 14 9 9 14 9 9 14 9 9 14 9 9
14 9 9 14 9 9 14 9 9 14 9 9 14 9 9 14 9 9 14 9 9 14 9 9 14 9 9 14 9 9
14 9 9 14 9 9 14 9 9 14 9 9 14 9 9 14 9 9 14 9 9 14 9 9 14 9 9 14 8 8
14 8 8 14 8 8 14 8 8 14 8 8 13 8 8 13 8 8 13 8 8 13 8 8 13 8 8 13 8 8
13

